( pcb2gcode 1.1.4 )

G94     ( Inches per minute feed rate. )
G20     ( Units == INCHES.             )
G90     ( Absolute coordinates.        )
S5000  ( RPM spindle speed.           )
M3      ( Spindle on clockwise.        )

( G64 P0.00500 ( set maximum deviation from commanded toolpath )

G04 P0 ( dwell for no time -- G64 should not smooth over this point )
G00 Z0.07874 ( retract )

G00 X8.40900 Y-5.37300 ( rapid move to begin. )
G01 Z-0.00236 F3.93701 ( plunge. )
G01 P0 ( dwell for no time -- G64 should not smooth over this point )
X8.40900 Y-5.37300
X8.40700 Y-5.37300
X8.40700 Y-5.37400
X8.40600 Y-5.37400
X8.40600 Y-5.37500
X8.40400 Y-5.37500
X8.40400 Y-5.37600
X8.40200 Y-5.37600
X8.40200 Y-5.37700
X8.40000 Y-5.37700
X8.40000 Y-5.37800
X8.39900 Y-5.37800
X8.39900 Y-5.37900
X8.39800 Y-5.37900
X8.39800 Y-5.38000
X8.39600 Y-5.38000
X8.39600 Y-5.38100
X8.39500 Y-5.38100
X8.39500 Y-5.38200
X8.39400 Y-5.38200
X8.39400 Y-5.38300
X8.39300 Y-5.38300
X8.39300 Y-5.38400
X8.39100 Y-5.38400
X8.39100 Y-5.38500
X8.39000 Y-5.38500
X8.39000 Y-5.38600
X8.38900 Y-5.38600
X8.38900 Y-5.38700
X8.38800 Y-5.38700
X8.38800 Y-5.38800
X8.38700 Y-5.38800
X8.38700 Y-5.38900
X8.38600 Y-5.38900
X8.38600 Y-5.39000
X8.38500 Y-5.39000
X8.38500 Y-5.39200
X8.38400 Y-5.39200
X8.38400 Y-5.39300
X8.38300 Y-5.39300
X8.38300 Y-5.39400
X8.38200 Y-5.39400
X8.38200 Y-5.39500
X8.38100 Y-5.39500
X8.38100 Y-5.39700
X8.38000 Y-5.39700
X8.38000 Y-5.39800
X8.37900 Y-5.39800
X8.37900 Y-5.39900
X8.37800 Y-5.39900
X8.37800 Y-5.40100
X8.37700 Y-5.40100
X8.37700 Y-5.40300
X8.37600 Y-5.40300
X8.37600 Y-5.40500
X8.37500 Y-5.40500
X8.37500 Y-5.40600
X8.37400 Y-5.40600
X8.37400 Y-5.40800
X8.37300 Y-5.40800
X8.37300 Y-5.41000
X8.37200 Y-5.41000
X8.37200 Y-5.41200
X8.37100 Y-5.41200
X8.37100 Y-5.41500
X8.37000 Y-5.41500
X8.37000 Y-5.41900
X8.36900 Y-5.41900
X8.36900 Y-5.42200
X8.36800 Y-5.42200
X8.36800 Y-5.42500
X8.36700 Y-5.42500
X8.36700 Y-5.43200
X8.36600 Y-5.43200
X8.36600 Y-5.46700
X8.36700 Y-5.46700
X8.36700 Y-5.47400
X8.36800 Y-5.47400
X8.36800 Y-5.47700
X8.36900 Y-5.47700
X8.36900 Y-5.48000
X8.37000 Y-5.48000
X8.37000 Y-5.48400
X8.37100 Y-5.48400
X8.37100 Y-5.48700
X8.37200 Y-5.48700
X8.37200 Y-5.48900
X8.37300 Y-5.48900
X8.37300 Y-5.49100
X8.37400 Y-5.49100
X8.37400 Y-5.49300
X8.37500 Y-5.49300
X8.37500 Y-5.49400
X8.37600 Y-5.49400
X8.37600 Y-5.49600
X8.37700 Y-5.49600
X8.37700 Y-5.49800
X8.37800 Y-5.49800
X8.37800 Y-5.50000
X8.37900 Y-5.50000
X8.37900 Y-5.50100
X8.38000 Y-5.50100
X8.38000 Y-5.50200
X8.38100 Y-5.50200
X8.38100 Y-5.50400
X8.38200 Y-5.50400
X8.38200 Y-5.50500
X8.38300 Y-5.50500
X8.38300 Y-5.50600
X8.38400 Y-5.50600
X8.38400 Y-5.50700
X8.38500 Y-5.50700
X8.38500 Y-5.50900
X8.38600 Y-5.50900
X8.38600 Y-5.51000
X8.38700 Y-5.51000
X8.38700 Y-5.51100
X8.38800 Y-5.51100
X8.38800 Y-5.51200
X8.38900 Y-5.51200
X8.38900 Y-5.51300
X8.39000 Y-5.51300
X8.39000 Y-5.51400
X8.39100 Y-5.51400
X8.39100 Y-5.51500
X8.39300 Y-5.51500
X8.39300 Y-5.51600
X8.39400 Y-5.51600
X8.39400 Y-5.51700
X8.39500 Y-5.51700
X8.39500 Y-5.51800
X8.39600 Y-5.51800
X8.39600 Y-5.51900
X8.39800 Y-5.51900
X8.39800 Y-5.52000
X8.39900 Y-5.52000
X8.39900 Y-5.52100
X8.40000 Y-5.52100
X8.40000 Y-5.52200
X8.40200 Y-5.52200
X8.40200 Y-5.52300
X8.40400 Y-5.52300
X8.40400 Y-5.52400
X8.40600 Y-5.52400
X8.40600 Y-5.52500
X8.40700 Y-5.52500
X8.40700 Y-5.52600
X8.40900 Y-5.52600
X8.40900 Y-5.52700
X8.41100 Y-5.52700
X8.41100 Y-5.52800
X8.41300 Y-5.52800
X8.41300 Y-5.52900
X8.41600 Y-5.52900
X8.41600 Y-5.53000
X8.42000 Y-5.53000
X8.42000 Y-5.53100
X8.42300 Y-5.53100
X8.42300 Y-5.53200
X8.42600 Y-5.53200
X8.42600 Y-5.53300
X8.43300 Y-5.53300
X8.43300 Y-5.53400
X8.46800 Y-5.53400
X8.46800 Y-5.53300
X8.47500 Y-5.53300
X8.47500 Y-5.53200
X8.47800 Y-5.53200
X8.47800 Y-5.53100
X8.48100 Y-5.53100
X8.48100 Y-5.53000
X8.48500 Y-5.53000
X8.48500 Y-5.52900
X8.48800 Y-5.52900
X8.48800 Y-5.52800
X8.49000 Y-5.52800
X8.49000 Y-5.52700
X8.49200 Y-5.52700
X8.49200 Y-5.52600
X8.49400 Y-5.52600
X8.49400 Y-5.52500
X8.49500 Y-5.52500
X8.49500 Y-5.52400
X8.49700 Y-5.52400
X8.49700 Y-5.52300
X8.49900 Y-5.52300
X8.49900 Y-5.52200
X8.50100 Y-5.52200
X8.50100 Y-5.52100
X8.50200 Y-5.52100
X8.50200 Y-5.52000
X8.50300 Y-5.52000
X8.50300 Y-5.51900
X8.50500 Y-5.51900
X8.50500 Y-5.51800
X8.50600 Y-5.51800
X8.50600 Y-5.51700
X8.50700 Y-5.51700
X8.50700 Y-5.51600
X8.50800 Y-5.51600
X8.50800 Y-5.51500
X8.51000 Y-5.51500
X8.51000 Y-5.51400
X8.51100 Y-5.51400
X8.51100 Y-5.51300
X8.51200 Y-5.51300
X8.51200 Y-5.51200
X8.51300 Y-5.51200
X8.51300 Y-5.51100
X8.51400 Y-5.51100
X8.51400 Y-5.51000
X8.51500 Y-5.51000
X8.51500 Y-5.50900
X8.51600 Y-5.50900
X8.51600 Y-5.50700
X8.51700 Y-5.50700
X8.51700 Y-5.50600
X8.51800 Y-5.50600
X8.51800 Y-5.50500
X8.51900 Y-5.50500
X8.51900 Y-5.50400
X8.52000 Y-5.50400
X8.52000 Y-5.50200
X8.52100 Y-5.50200
X8.52100 Y-5.50100
X8.52200 Y-5.50100
X8.52200 Y-5.50000
X8.52300 Y-5.50000
X8.52300 Y-5.49800
X8.52400 Y-5.49800
X8.52400 Y-5.49600
X8.52500 Y-5.49600
X8.52500 Y-5.49400
X8.52600 Y-5.49400
X8.52600 Y-5.49300
X8.52700 Y-5.49300
X8.52700 Y-5.49100
X8.52800 Y-5.49100
X8.52800 Y-5.48900
X8.52900 Y-5.48900
X8.52900 Y-5.48700
X8.53000 Y-5.48700
X8.53000 Y-5.48400
X8.53100 Y-5.48400
X8.53100 Y-5.48000
X8.53200 Y-5.48000
X8.53200 Y-5.47700
X8.53300 Y-5.47700
X8.53300 Y-5.47400
X8.53400 Y-5.47400
X8.53400 Y-5.46700
X8.53500 Y-5.46700
X8.53500 Y-5.43200
X8.53400 Y-5.43200
X8.53400 Y-5.42500
X8.53300 Y-5.42500
X8.53300 Y-5.42200
X8.53200 Y-5.42200
X8.53200 Y-5.41900
X8.53100 Y-5.41900
X8.53100 Y-5.41500
X8.53000 Y-5.41500
X8.53000 Y-5.41200
X8.52900 Y-5.41200
X8.52900 Y-5.41000
X8.52800 Y-5.41000
X8.52800 Y-5.40800
X8.52700 Y-5.40800
X8.52700 Y-5.40600
X8.52600 Y-5.40600
X8.52600 Y-5.40500
X8.52500 Y-5.40500
X8.52500 Y-5.40300
X8.52400 Y-5.40300
X8.52400 Y-5.40100
X8.52300 Y-5.40100
X8.52300 Y-5.39900
X8.52200 Y-5.39900
X8.52200 Y-5.39800
X8.52100 Y-5.39800
X8.52100 Y-5.39700
X8.52000 Y-5.39700
X8.52000 Y-5.39500
X8.51900 Y-5.39500
X8.51900 Y-5.39400
X8.51800 Y-5.39400
X8.51800 Y-5.39300
X8.51700 Y-5.39300
X8.51700 Y-5.39200
X8.51600 Y-5.39200
X8.51600 Y-5.39000
X8.51500 Y-5.39000
X8.51500 Y-5.38900
X8.51400 Y-5.38900
X8.51400 Y-5.38800
X8.51300 Y-5.38800
X8.51300 Y-5.38700
X8.51200 Y-5.38700
X8.51200 Y-5.38600
X8.51100 Y-5.38600
X8.51100 Y-5.38500
X8.51000 Y-5.38500
X8.51000 Y-5.38400
X8.50800 Y-5.38400
X8.50800 Y-5.38300
X8.50700 Y-5.38300
X8.50700 Y-5.38200
X8.50600 Y-5.38200
X8.50600 Y-5.38100
X8.50500 Y-5.38100
X8.50500 Y-5.38000
X8.50300 Y-5.38000
X8.50300 Y-5.37900
X8.50200 Y-5.37900
X8.50200 Y-5.37800
X8.50100 Y-5.37800
X8.50100 Y-5.37700
X8.49900 Y-5.37700
X8.49900 Y-5.37600
X8.49700 Y-5.37600
X8.49700 Y-5.37500
X8.49500 Y-5.37500
X8.49500 Y-5.37400
X8.49400 Y-5.37400
X8.49400 Y-5.37300
X8.49200 Y-5.37300
X8.49200 Y-5.37200
X8.49000 Y-5.37200
X8.49000 Y-5.37100
X8.48800 Y-5.37100
X8.48800 Y-5.37000
X8.48500 Y-5.37000
X8.48500 Y-5.36900
X8.48100 Y-5.36900
X8.48100 Y-5.36800
X8.47800 Y-5.36800
X8.47800 Y-5.36700
X8.47500 Y-5.36700
X8.47500 Y-5.36600
X8.46800 Y-5.36600
X8.46800 Y-5.36500
X8.43300 Y-5.36500
X8.43300 Y-5.36600
X8.42600 Y-5.36600
X8.42600 Y-5.36700
X8.42300 Y-5.36700
X8.42300 Y-5.36800
X8.42000 Y-5.36800
X8.42000 Y-5.36900
X8.41600 Y-5.36900
X8.41600 Y-5.37000
X8.41300 Y-5.37000
X8.41300 Y-5.37100
X8.41100 Y-5.37100
X8.41100 Y-5.37200
X8.40900 Y-5.37200
X8.40900 Y-5.37300
G04 P0 ( dwell for no time -- G64 should not smooth over this point )
G00 Z0.07874 ( retract )

G00 X8.08200 Y-5.40000 ( rapid move to begin. )
G01 Z-0.00236 F3.93701 ( plunge. )
G01 P0 ( dwell for no time -- G64 should not smooth over this point )
X8.08200 Y-5.40000
X8.08200 Y-5.40100
X8.08100 Y-5.40100
X8.08100 Y-5.40200
X8.08000 Y-5.40200
X8.08000 Y-5.40300
X8.07900 Y-5.40300
X8.07900 Y-5.40500
X8.07800 Y-5.40500
X8.07800 Y-5.40600
X8.07700 Y-5.40600
X8.07700 Y-5.40800
X8.07600 Y-5.40800
X8.07600 Y-5.40900
X8.07500 Y-5.40900
X8.07500 Y-5.41400
X8.07400 Y-5.41400
X8.07400 Y-5.41900
X8.07300 Y-5.41900
X8.07300 Y-5.48000
X8.07400 Y-5.48000
X8.07400 Y-5.48500
X8.07500 Y-5.48500
X8.07500 Y-5.49000
X8.07600 Y-5.49000
X8.07600 Y-5.49100
X8.07700 Y-5.49100
X8.07700 Y-5.49300
X8.07800 Y-5.49300
X8.07800 Y-5.49400
X8.07900 Y-5.49400
X8.07900 Y-5.49600
X8.08000 Y-5.49600
X8.08000 Y-5.49700
X8.08100 Y-5.49700
X8.08100 Y-5.49800
X8.08200 Y-5.49800
X8.08200 Y-5.50000
X8.08400 Y-5.50000
X8.08400 Y-5.50100
X8.08600 Y-5.50100
X8.08600 Y-5.50200
X8.08700 Y-5.50200
X8.08700 Y-5.50300
X8.08900 Y-5.50300
X8.08900 Y-5.50400
X8.09100 Y-5.50400
X8.09100 Y-5.50500
X8.09400 Y-5.50500
X8.09400 Y-5.50600
X8.10000 Y-5.50600
X8.10000 Y-5.50700
X8.12100 Y-5.50700
X8.12100 Y-5.50600
X8.12700 Y-5.50600
X8.12700 Y-5.50500
X8.13000 Y-5.50500
X8.13000 Y-5.50400
X8.13200 Y-5.50400
X8.13200 Y-5.50300
X8.13400 Y-5.50300
X8.13400 Y-5.50200
X8.13500 Y-5.50200
X8.13500 Y-5.50100
X8.13700 Y-5.50100
X8.13700 Y-5.50000
X8.13900 Y-5.50000
X8.13900 Y-5.49800
X8.14000 Y-5.49800
X8.14000 Y-5.49700
X8.14100 Y-5.49700
X8.14100 Y-5.49600
X8.14200 Y-5.49600
X8.14200 Y-5.49400
X8.14300 Y-5.49400
X8.14300 Y-5.49300
X8.14400 Y-5.49300
X8.14400 Y-5.49100
X8.14500 Y-5.49100
X8.14500 Y-5.49000
X8.14600 Y-5.49000
X8.14600 Y-5.48500
X8.14700 Y-5.48500
X8.14700 Y-5.48000
X8.14800 Y-5.48000
X8.14800 Y-5.41900
X8.14700 Y-5.41900
X8.14700 Y-5.41400
X8.14600 Y-5.41400
X8.14600 Y-5.40900
X8.14500 Y-5.40900
X8.14500 Y-5.40800
X8.14400 Y-5.40800
X8.14400 Y-5.40600
X8.14300 Y-5.40600
X8.14300 Y-5.40500
X8.14200 Y-5.40500
X8.14200 Y-5.40300
X8.14100 Y-5.40300
X8.14100 Y-5.40200
X8.14000 Y-5.40200
X8.14000 Y-5.40100
X8.13900 Y-5.40100
X8.13900 Y-5.39900
X8.13700 Y-5.39900
X8.13700 Y-5.39800
X8.13500 Y-5.39800
X8.13500 Y-5.39700
X8.13300 Y-5.39700
X8.13300 Y-5.39600
X8.13200 Y-5.39600
X8.13200 Y-5.39500
X8.13000 Y-5.39500
X8.13000 Y-5.39400
X8.12700 Y-5.39400
X8.12700 Y-5.39300
X8.12100 Y-5.39300
X8.12100 Y-5.39200
X8.10000 Y-5.39200
X8.10000 Y-5.39300
X8.09400 Y-5.39300
X8.09400 Y-5.39400
X8.09100 Y-5.39400
X8.09100 Y-5.39500
X8.08900 Y-5.39500
X8.08900 Y-5.39600
X8.08800 Y-5.39600
X8.08800 Y-5.39700
X8.08600 Y-5.39700
X8.08600 Y-5.39800
X8.08400 Y-5.39800
X8.08400 Y-5.39900
X8.08200 Y-5.39900
X8.08200 Y-5.40000
G04 P0 ( dwell for no time -- G64 should not smooth over this point )
G00 Z0.07874 ( retract )

G00 X7.98200 Y-5.40000 ( rapid move to begin. )
G01 Z-0.00236 F3.93701 ( plunge. )
G04 P0 ( dwell for no time -- G64 should not smooth over this point )
X7.98200 Y-5.40000
X7.98200 Y-5.40100
X7.98100 Y-5.40100
X7.98100 Y-5.40200
X7.98000 Y-5.40200
X7.98000 Y-5.40300
X7.97900 Y-5.40300
X7.97900 Y-5.40500
X7.97800 Y-5.40500
X7.97800 Y-5.40600
X7.97700 Y-5.40600
X7.97700 Y-5.40800
X7.97600 Y-5.40800
X7.97600 Y-5.40900
X7.97500 Y-5.40900
X7.97500 Y-5.41400
X7.97400 Y-5.41400
X7.97400 Y-5.41900
X7.97300 Y-5.41900
X7.97300 Y-5.48000
X7.97400 Y-5.48000
X7.97400 Y-5.48500
X7.97500 Y-5.48500
X7.97500 Y-5.49000
X7.97600 Y-5.49000
X7.97600 Y-5.49100
X7.97700 Y-5.49100
X7.97700 Y-5.49300
X7.97800 Y-5.49300
X7.97800 Y-5.49400
X7.97900 Y-5.49400
X7.97900 Y-5.49600
X7.98000 Y-5.49600
X7.98000 Y-5.49700
X7.98100 Y-5.49700
X7.98100 Y-5.49800
X7.98200 Y-5.49800
X7.98200 Y-5.50000
X7.98400 Y-5.50000
X7.98400 Y-5.50100
X7.98600 Y-5.50100
X7.98600 Y-5.50200
X7.98700 Y-5.50200
X7.98700 Y-5.50300
X7.98900 Y-5.50300
X7.98900 Y-5.50400
X7.99100 Y-5.50400
X7.99100 Y-5.50500
X7.99400 Y-5.50500
X7.99400 Y-5.50600
X8.00000 Y-5.50600
X8.00000 Y-5.50700
X8.02100 Y-5.50700
X8.02100 Y-5.50600
X8.02700 Y-5.50600
X8.02700 Y-5.50500
X8.03000 Y-5.50500
X8.03000 Y-5.50400
X8.03200 Y-5.50400
X8.03200 Y-5.50300
X8.03400 Y-5.50300
X8.03400 Y-5.50200
X8.03500 Y-5.50200
X8.03500 Y-5.50100
X8.03700 Y-5.50100
X8.03700 Y-5.50000
X8.03900 Y-5.50000
X8.03900 Y-5.49800
X8.04000 Y-5.49800
X8.04000 Y-5.49700
X8.04100 Y-5.49700
X8.04100 Y-5.49600
X8.04200 Y-5.49600
X8.04200 Y-5.49400
X8.04300 Y-5.49400
X8.04300 Y-5.49300
X8.04400 Y-5.49300
X8.04400 Y-5.49100
X8.04500 Y-5.49100
X8.04500 Y-5.49000
X8.04600 Y-5.49000
X8.04600 Y-5.48500
X8.04700 Y-5.48500
X8.04700 Y-5.48000
X8.04800 Y-5.48000
X8.04800 Y-5.41900
X8.04700 Y-5.41900
X8.04700 Y-5.41400
X8.04600 Y-5.41400
X8.04600 Y-5.40900
X8.04500 Y-5.40900
X8.04500 Y-5.40800
X8.04400 Y-5.40800
X8.04400 Y-5.40600
X8.04300 Y-5.40600
X8.04300 Y-5.40500
X8.04200 Y-5.40500
X8.04200 Y-5.40300
X8.04100 Y-5.40300
X8.04100 Y-5.40200
X8.04000 Y-5.40200
X8.04000 Y-5.40100
X8.03900 Y-5.40100
X8.03900 Y-5.39900
X8.03700 Y-5.39900
X8.03700 Y-5.39800
X8.03500 Y-5.39800
X8.03500 Y-5.39700
X8.03300 Y-5.39700
X8.03300 Y-5.39600
X8.03200 Y-5.39600
X8.03200 Y-5.39500
X8.03000 Y-5.39500
X8.03000 Y-5.39400
X8.02700 Y-5.39400
X8.02700 Y-5.39300
X8.02100 Y-5.39300
X8.02100 Y-5.39200
X8.00000 Y-5.39200
X8.00000 Y-5.39300
X7.99400 Y-5.39300
X7.99400 Y-5.39400
X7.99100 Y-5.39400
X7.99100 Y-5.39500
X7.98900 Y-5.39500
X7.98900 Y-5.39600
X7.98800 Y-5.39600
X7.98800 Y-5.39700
X7.98600 Y-5.39700
X7.98600 Y-5.39800
X7.98400 Y-5.39800
X7.98400 Y-5.39900
X7.98200 Y-5.39900
X7.98200 Y-5.40000
G04 P0 ( dwell for no time -- G64 should not smooth over this point )
G00 Z0.07874 ( retract )

G00 X7.88200 Y-5.40000 ( rapid move to begin. )
G01 Z-0.00236 F3.93701 ( plunge. )
G04 P0 ( dwell for no time -- G64 should not smooth over this point )
X7.88200 Y-5.40000
X7.88200 Y-5.40100
X7.88100 Y-5.40100
X7.88100 Y-5.40200
X7.88000 Y-5.40200
X7.88000 Y-5.40300
X7.87900 Y-5.40300
X7.87900 Y-5.40500
X7.87800 Y-5.40500
X7.87800 Y-5.40600
X7.87700 Y-5.40600
X7.87700 Y-5.40800
X7.87600 Y-5.40800
X7.87600 Y-5.40900
X7.87500 Y-5.40900
X7.87500 Y-5.41400
X7.87400 Y-5.41400
X7.87400 Y-5.41900
X7.87300 Y-5.41900
X7.87300 Y-5.48000
X7.87400 Y-5.48000
X7.87400 Y-5.48500
X7.87500 Y-5.48500
X7.87500 Y-5.49000
X7.87600 Y-5.49000
X7.87600 Y-5.49100
X7.87700 Y-5.49100
X7.87700 Y-5.49300
X7.87800 Y-5.49300
X7.87800 Y-5.49400
X7.87900 Y-5.49400
X7.87900 Y-5.49600
X7.88000 Y-5.49600
X7.88000 Y-5.49700
X7.88100 Y-5.49700
X7.88100 Y-5.49800
X7.88200 Y-5.49800
X7.88200 Y-5.50000
X7.88400 Y-5.50000
X7.88400 Y-5.50100
X7.88600 Y-5.50100
X7.88600 Y-5.50200
X7.88700 Y-5.50200
X7.88700 Y-5.50300
X7.88900 Y-5.50300
X7.88900 Y-5.50400
X7.89100 Y-5.50400
X7.89100 Y-5.50500
X7.89400 Y-5.50500
X7.89400 Y-5.50600
X7.90000 Y-5.50600
X7.90000 Y-5.50700
X7.92100 Y-5.50700
X7.92100 Y-5.50600
X7.92700 Y-5.50600
X7.92700 Y-5.50500
X7.93000 Y-5.50500
X7.93000 Y-5.50400
X7.93200 Y-5.50400
X7.93200 Y-5.50300
X7.93400 Y-5.50300
X7.93400 Y-5.50200
X7.93500 Y-5.50200
X7.93500 Y-5.50100
X7.93700 Y-5.50100
X7.93700 Y-5.50000
X7.93900 Y-5.50000
X7.93900 Y-5.49800
X7.94000 Y-5.49800
X7.94000 Y-5.49700
X7.94100 Y-5.49700
X7.94100 Y-5.49600
X7.94200 Y-5.49600
X7.94200 Y-5.49400
X7.94300 Y-5.49400
X7.94300 Y-5.49300
X7.94400 Y-5.49300
X7.94400 Y-5.49100
X7.94500 Y-5.49100
X7.94500 Y-5.49000
X7.94600 Y-5.49000
X7.94600 Y-5.48500
X7.94700 Y-5.48500
X7.94700 Y-5.48000
X7.94800 Y-5.48000
X7.94800 Y-5.41900
X7.94700 Y-5.41900
X7.94700 Y-5.41400
X7.94600 Y-5.41400
X7.94600 Y-5.40900
X7.94500 Y-5.40900
X7.94500 Y-5.40800
X7.94400 Y-5.40800
X7.94400 Y-5.40600
X7.94300 Y-5.40600
X7.94300 Y-5.40500
X7.94200 Y-5.40500
X7.94200 Y-5.40300
X7.94100 Y-5.40300
X7.94100 Y-5.40200
X7.94000 Y-5.40200
X7.94000 Y-5.40100
X7.93900 Y-5.40100
X7.93900 Y-5.39900
X7.93700 Y-5.39900
X7.93700 Y-5.39800
X7.93500 Y-5.39800
X7.93500 Y-5.39700
X7.93300 Y-5.39700
X7.93300 Y-5.39600
X7.93200 Y-5.39600
X7.93200 Y-5.39500
X7.93000 Y-5.39500
X7.93000 Y-5.39400
X7.92700 Y-5.39400
X7.92700 Y-5.39300
X7.92100 Y-5.39300
X7.92100 Y-5.39200
X7.90000 Y-5.39200
X7.90000 Y-5.39300
X7.89400 Y-5.39300
X7.89400 Y-5.39400
X7.89100 Y-5.39400
X7.89100 Y-5.39500
X7.88900 Y-5.39500
X7.88900 Y-5.39600
X7.88800 Y-5.39600
X7.88800 Y-5.39700
X7.88600 Y-5.39700
X7.88600 Y-5.39800
X7.88400 Y-5.39800
X7.88400 Y-5.39900
X7.88200 Y-5.39900
X7.88200 Y-5.40000
G04 P0 ( dwell for no time -- G64 should not smooth over this point )
G00 Z0.07874 ( retract )

G00 X7.78200 Y-5.40000 ( rapid move to begin. )
G01 Z-0.00236 F3.93701 ( plunge. )
G04 P0 ( dwell for no time -- G64 should not smooth over this point )
X7.78200 Y-5.40000
X7.78200 Y-5.40100
X7.78100 Y-5.40100
X7.78100 Y-5.40200
X7.78000 Y-5.40200
X7.78000 Y-5.40300
X7.77900 Y-5.40300
X7.77900 Y-5.40500
X7.77800 Y-5.40500
X7.77800 Y-5.40600
X7.77700 Y-5.40600
X7.77700 Y-5.40800
X7.77600 Y-5.40800
X7.77600 Y-5.40900
X7.77500 Y-5.40900
X7.77500 Y-5.41400
X7.77400 Y-5.41400
X7.77400 Y-5.41900
X7.77300 Y-5.41900
X7.77300 Y-5.48000
X7.77400 Y-5.48000
X7.77400 Y-5.48500
X7.77500 Y-5.48500
X7.77500 Y-5.49000
X7.77600 Y-5.49000
X7.77600 Y-5.49100
X7.77700 Y-5.49100
X7.77700 Y-5.49300
X7.77800 Y-5.49300
X7.77800 Y-5.49400
X7.77900 Y-5.49400
X7.77900 Y-5.49600
X7.78000 Y-5.49600
X7.78000 Y-5.49700
X7.78100 Y-5.49700
X7.78100 Y-5.49800
X7.78200 Y-5.49800
X7.78200 Y-5.50000
X7.78400 Y-5.50000
X7.78400 Y-5.50100
X7.78600 Y-5.50100
X7.78600 Y-5.50200
X7.78700 Y-5.50200
X7.78700 Y-5.50300
X7.78900 Y-5.50300
X7.78900 Y-5.50400
X7.79100 Y-5.50400
X7.79100 Y-5.50500
X7.79400 Y-5.50500
X7.79400 Y-5.50600
X7.80000 Y-5.50600
X7.80000 Y-5.50700
X7.82100 Y-5.50700
X7.82100 Y-5.50600
X7.82700 Y-5.50600
X7.82700 Y-5.50500
X7.83000 Y-5.50500
X7.83000 Y-5.50400
X7.83200 Y-5.50400
X7.83200 Y-5.50300
X7.83400 Y-5.50300
X7.83400 Y-5.50200
X7.83500 Y-5.50200
X7.83500 Y-5.50100
X7.83700 Y-5.50100
X7.83700 Y-5.50000
X7.83900 Y-5.50000
X7.83900 Y-5.49800
X7.84000 Y-5.49800
X7.84000 Y-5.49700
X7.84100 Y-5.49700
X7.84100 Y-5.49600
X7.84200 Y-5.49600
X7.84200 Y-5.49400
X7.84300 Y-5.49400
X7.84300 Y-5.49300
X7.84400 Y-5.49300
X7.84400 Y-5.49100
X7.84500 Y-5.49100
X7.84500 Y-5.49000
X7.84600 Y-5.49000
X7.84600 Y-5.48500
X7.84700 Y-5.48500
X7.84700 Y-5.48000
X7.84800 Y-5.48000
X7.84800 Y-5.41900
X7.84700 Y-5.41900
X7.84700 Y-5.41400
X7.84600 Y-5.41400
X7.84600 Y-5.40900
X7.84500 Y-5.40900
X7.84500 Y-5.40800
X7.84400 Y-5.40800
X7.84400 Y-5.40600
X7.84300 Y-5.40600
X7.84300 Y-5.40500
X7.84200 Y-5.40500
X7.84200 Y-5.40300
X7.84100 Y-5.40300
X7.84100 Y-5.40200
X7.84000 Y-5.40200
X7.84000 Y-5.40100
X7.83900 Y-5.40100
X7.83900 Y-5.39900
X7.83700 Y-5.39900
X7.83700 Y-5.39800
X7.83500 Y-5.39800
X7.83500 Y-5.39700
X7.83300 Y-5.39700
X7.83300 Y-5.39600
X7.83200 Y-5.39600
X7.83200 Y-5.39500
X7.83000 Y-5.39500
X7.83000 Y-5.39400
X7.82700 Y-5.39400
X7.82700 Y-5.39300
X7.82100 Y-5.39300
X7.82100 Y-5.39200
X7.80000 Y-5.39200
X7.80000 Y-5.39300
X7.79400 Y-5.39300
X7.79400 Y-5.39400
X7.79100 Y-5.39400
X7.79100 Y-5.39500
X7.78900 Y-5.39500
X7.78900 Y-5.39600
X7.78800 Y-5.39600
X7.78800 Y-5.39700
X7.78600 Y-5.39700
X7.78600 Y-5.39800
X7.78400 Y-5.39800
X7.78400 Y-5.39900
X7.78200 Y-5.39900
X7.78200 Y-5.40000
G04 P0 ( dwell for no time -- G64 should not smooth over this point )
G00 Z0.07874 ( retract )

G00 X7.68200 Y-5.40000 ( rapid move to begin. )
G01 Z-0.00236 F3.93701 ( plunge. )
G04 P0 ( dwell for no time -- G64 should not smooth over this point )
X7.68200 Y-5.40000
X7.68200 Y-5.40100
X7.68100 Y-5.40100
X7.68100 Y-5.40200
X7.68000 Y-5.40200
X7.68000 Y-5.40300
X7.67900 Y-5.40300
X7.67900 Y-5.40500
X7.67800 Y-5.40500
X7.67800 Y-5.40600
X7.67700 Y-5.40600
X7.67700 Y-5.40800
X7.67600 Y-5.40800
X7.67600 Y-5.40900
X7.67500 Y-5.40900
X7.67500 Y-5.41400
X7.67400 Y-5.41400
X7.67400 Y-5.41900
X7.67300 Y-5.41900
X7.67300 Y-5.48000
X7.67400 Y-5.48000
X7.67400 Y-5.48500
X7.67500 Y-5.48500
X7.67500 Y-5.49000
X7.67600 Y-5.49000
X7.67600 Y-5.49100
X7.67700 Y-5.49100
X7.67700 Y-5.49300
X7.67800 Y-5.49300
X7.67800 Y-5.49400
X7.67900 Y-5.49400
X7.67900 Y-5.49600
X7.68000 Y-5.49600
X7.68000 Y-5.49700
X7.68100 Y-5.49700
X7.68100 Y-5.49800
X7.68200 Y-5.49800
X7.68200 Y-5.50000
X7.68400 Y-5.50000
X7.68400 Y-5.50100
X7.68600 Y-5.50100
X7.68600 Y-5.50200
X7.68700 Y-5.50200
X7.68700 Y-5.50300
X7.68900 Y-5.50300
X7.68900 Y-5.50400
X7.69100 Y-5.50400
X7.69100 Y-5.50500
X7.69400 Y-5.50500
X7.69400 Y-5.50600
X7.70000 Y-5.50600
X7.70000 Y-5.50700
X7.72100 Y-5.50700
X7.72100 Y-5.50600
X7.72700 Y-5.50600
X7.72700 Y-5.50500
X7.73000 Y-5.50500
X7.73000 Y-5.50400
X7.73200 Y-5.50400
X7.73200 Y-5.50300
X7.73400 Y-5.50300
X7.73400 Y-5.50200
X7.73500 Y-5.50200
X7.73500 Y-5.50100
X7.73700 Y-5.50100
X7.73700 Y-5.50000
X7.73900 Y-5.50000
X7.73900 Y-5.49800
X7.74000 Y-5.49800
X7.74000 Y-5.49700
X7.74100 Y-5.49700
X7.74100 Y-5.49600
X7.74200 Y-5.49600
X7.74200 Y-5.49400
X7.74300 Y-5.49400
X7.74300 Y-5.49300
X7.74400 Y-5.49300
X7.74400 Y-5.49100
X7.74500 Y-5.49100
X7.74500 Y-5.49000
X7.74600 Y-5.49000
X7.74600 Y-5.48500
X7.74700 Y-5.48500
X7.74700 Y-5.48000
X7.74800 Y-5.48000
X7.74800 Y-5.41900
X7.74700 Y-5.41900
X7.74700 Y-5.41400
X7.74600 Y-5.41400
X7.74600 Y-5.40900
X7.74500 Y-5.40900
X7.74500 Y-5.40800
X7.74400 Y-5.40800
X7.74400 Y-5.40600
X7.74300 Y-5.40600
X7.74300 Y-5.40500
X7.74200 Y-5.40500
X7.74200 Y-5.40300
X7.74100 Y-5.40300
X7.74100 Y-5.40200
X7.74000 Y-5.40200
X7.74000 Y-5.40100
X7.73900 Y-5.40100
X7.73900 Y-5.39900
X7.73700 Y-5.39900
X7.73700 Y-5.39800
X7.73500 Y-5.39800
X7.73500 Y-5.39700
X7.73300 Y-5.39700
X7.73300 Y-5.39600
X7.73200 Y-5.39600
X7.73200 Y-5.39500
X7.73000 Y-5.39500
X7.73000 Y-5.39400
X7.72700 Y-5.39400
X7.72700 Y-5.39300
X7.72100 Y-5.39300
X7.72100 Y-5.39200
X7.70000 Y-5.39200
X7.70000 Y-5.39300
X7.69400 Y-5.39300
X7.69400 Y-5.39400
X7.69100 Y-5.39400
X7.69100 Y-5.39500
X7.68900 Y-5.39500
X7.68900 Y-5.39600
X7.68800 Y-5.39600
X7.68800 Y-5.39700
X7.68600 Y-5.39700
X7.68600 Y-5.39800
X7.68400 Y-5.39800
X7.68400 Y-5.39900
X7.68200 Y-5.39900
X7.68200 Y-5.40000
G04 P0 ( dwell for no time -- G64 should not smooth over this point )
G00 Z0.07874 ( retract )

G00 X7.58200 Y-5.40000 ( rapid move to begin. )
G01 Z-0.00236 F3.93701 ( plunge. )
G04 P0 ( dwell for no time -- G64 should not smooth over this point )
X7.58200 Y-5.40000
X7.58200 Y-5.40100
X7.58100 Y-5.40100
X7.58100 Y-5.40200
X7.58000 Y-5.40200
X7.58000 Y-5.40300
X7.57900 Y-5.40300
X7.57900 Y-5.40500
X7.57800 Y-5.40500
X7.57800 Y-5.40600
X7.57700 Y-5.40600
X7.57700 Y-5.40800
X7.57600 Y-5.40800
X7.57600 Y-5.40900
X7.57500 Y-5.40900
X7.57500 Y-5.41400
X7.57400 Y-5.41400
X7.57400 Y-5.41900
X7.57300 Y-5.41900
X7.57300 Y-5.48000
X7.57400 Y-5.48000
X7.57400 Y-5.48500
X7.57500 Y-5.48500
X7.57500 Y-5.49000
X7.57600 Y-5.49000
X7.57600 Y-5.49100
X7.57700 Y-5.49100
X7.57700 Y-5.49300
X7.57800 Y-5.49300
X7.57800 Y-5.49400
X7.57900 Y-5.49400
X7.57900 Y-5.49600
X7.58000 Y-5.49600
X7.58000 Y-5.49700
X7.58100 Y-5.49700
X7.58100 Y-5.49800
X7.58200 Y-5.49800
X7.58200 Y-5.50000
X7.58400 Y-5.50000
X7.58400 Y-5.50100
X7.58600 Y-5.50100
X7.58600 Y-5.50200
X7.58700 Y-5.50200
X7.58700 Y-5.50300
X7.58900 Y-5.50300
X7.58900 Y-5.50400
X7.59100 Y-5.50400
X7.59100 Y-5.50500
X7.59400 Y-5.50500
X7.59400 Y-5.50600
X7.60000 Y-5.50600
X7.60000 Y-5.50700
X7.62100 Y-5.50700
X7.62100 Y-5.50600
X7.62700 Y-5.50600
X7.62700 Y-5.50500
X7.63000 Y-5.50500
X7.63000 Y-5.50400
X7.63200 Y-5.50400
X7.63200 Y-5.50300
X7.63400 Y-5.50300
X7.63400 Y-5.50200
X7.63500 Y-5.50200
X7.63500 Y-5.50100
X7.63700 Y-5.50100
X7.63700 Y-5.50000
X7.63900 Y-5.50000
X7.63900 Y-5.49800
X7.64000 Y-5.49800
X7.64000 Y-5.49700
X7.64100 Y-5.49700
X7.64100 Y-5.49600
X7.64200 Y-5.49600
X7.64200 Y-5.49400
X7.64300 Y-5.49400
X7.64300 Y-5.49300
X7.64400 Y-5.49300
X7.64400 Y-5.49100
X7.64500 Y-5.49100
X7.64500 Y-5.49000
X7.64600 Y-5.49000
X7.64600 Y-5.48500
X7.64700 Y-5.48500
X7.64700 Y-5.48000
X7.64800 Y-5.48000
X7.64800 Y-5.41900
X7.64700 Y-5.41900
X7.64700 Y-5.41400
X7.64600 Y-5.41400
X7.64600 Y-5.40900
X7.64500 Y-5.40900
X7.64500 Y-5.40800
X7.64400 Y-5.40800
X7.64400 Y-5.40600
X7.64300 Y-5.40600
X7.64300 Y-5.40500
X7.64200 Y-5.40500
X7.64200 Y-5.40300
X7.64100 Y-5.40300
X7.64100 Y-5.40200
X7.64000 Y-5.40200
X7.64000 Y-5.40100
X7.63900 Y-5.40100
X7.63900 Y-5.39900
X7.63700 Y-5.39900
X7.63700 Y-5.39800
X7.63500 Y-5.39800
X7.63500 Y-5.39700
X7.63300 Y-5.39700
X7.63300 Y-5.39600
X7.63200 Y-5.39600
X7.63200 Y-5.39500
X7.63000 Y-5.39500
X7.63000 Y-5.39400
X7.62700 Y-5.39400
X7.62700 Y-5.39300
X7.62100 Y-5.39300
X7.62100 Y-5.39200
X7.60000 Y-5.39200
X7.60000 Y-5.39300
X7.59400 Y-5.39300
X7.59400 Y-5.39400
X7.59100 Y-5.39400
X7.59100 Y-5.39500
X7.58900 Y-5.39500
X7.58900 Y-5.39600
X7.58800 Y-5.39600
X7.58800 Y-5.39700
X7.58600 Y-5.39700
X7.58600 Y-5.39800
X7.58400 Y-5.39800
X7.58400 Y-5.39900
X7.58200 Y-5.39900
X7.58200 Y-5.40000
G04 P0 ( dwell for no time -- G64 should not smooth over this point )
G00 Z0.07874 ( retract )

G00 X7.48200 Y-5.40000 ( rapid move to begin. )
G01 Z-0.00236 F3.93701 ( plunge. )
G04 P0 ( dwell for no time -- G64 should not smooth over this point )
X7.48200 Y-5.40000
X7.48200 Y-5.40100
X7.48100 Y-5.40100
X7.48100 Y-5.40200
X7.48000 Y-5.40200
X7.48000 Y-5.40300
X7.47900 Y-5.40300
X7.47900 Y-5.40500
X7.47800 Y-5.40500
X7.47800 Y-5.40600
X7.47700 Y-5.40600
X7.47700 Y-5.40800
X7.47600 Y-5.40800
X7.47600 Y-5.40900
X7.47500 Y-5.40900
X7.47500 Y-5.41400
X7.47400 Y-5.41400
X7.47400 Y-5.41900
X7.47300 Y-5.41900
X7.47300 Y-5.48000
X7.47400 Y-5.48000
X7.47400 Y-5.48500
X7.47500 Y-5.48500
X7.47500 Y-5.49000
X7.47600 Y-5.49000
X7.47600 Y-5.49100
X7.47700 Y-5.49100
X7.47700 Y-5.49300
X7.47800 Y-5.49300
X7.47800 Y-5.49400
X7.47900 Y-5.49400
X7.47900 Y-5.49600
X7.48000 Y-5.49600
X7.48000 Y-5.49700
X7.48100 Y-5.49700
X7.48100 Y-5.49800
X7.48200 Y-5.49800
X7.48200 Y-5.50000
X7.48400 Y-5.50000
X7.48400 Y-5.50100
X7.48600 Y-5.50100
X7.48600 Y-5.50200
X7.48700 Y-5.50200
X7.48700 Y-5.50300
X7.48900 Y-5.50300
X7.48900 Y-5.50400
X7.49100 Y-5.50400
X7.49100 Y-5.50500
X7.49400 Y-5.50500
X7.49400 Y-5.50600
X7.50000 Y-5.50600
X7.50000 Y-5.50700
X7.52100 Y-5.50700
X7.52100 Y-5.50600
X7.52700 Y-5.50600
X7.52700 Y-5.50500
X7.53000 Y-5.50500
X7.53000 Y-5.50400
X7.53200 Y-5.50400
X7.53200 Y-5.50300
X7.53400 Y-5.50300
X7.53400 Y-5.50200
X7.53500 Y-5.50200
X7.53500 Y-5.50100
X7.53700 Y-5.50100
X7.53700 Y-5.50000
X7.53900 Y-5.50000
X7.53900 Y-5.49800
X7.54000 Y-5.49800
X7.54000 Y-5.49700
X7.54100 Y-5.49700
X7.54100 Y-5.49600
X7.54200 Y-5.49600
X7.54200 Y-5.49400
X7.54300 Y-5.49400
X7.54300 Y-5.49300
X7.54400 Y-5.49300
X7.54400 Y-5.49100
X7.54500 Y-5.49100
X7.54500 Y-5.49000
X7.54600 Y-5.49000
X7.54600 Y-5.48500
X7.54700 Y-5.48500
X7.54700 Y-5.48000
X7.54800 Y-5.48000
X7.54800 Y-5.41900
X7.54700 Y-5.41900
X7.54700 Y-5.41400
X7.54600 Y-5.41400
X7.54600 Y-5.40900
X7.54500 Y-5.40900
X7.54500 Y-5.40800
X7.54400 Y-5.40800
X7.54400 Y-5.40600
X7.54300 Y-5.40600
X7.54300 Y-5.40500
X7.54200 Y-5.40500
X7.54200 Y-5.40300
X7.54100 Y-5.40300
X7.54100 Y-5.40200
X7.54000 Y-5.40200
X7.54000 Y-5.40100
X7.53900 Y-5.40100
X7.53900 Y-5.39900
X7.53700 Y-5.39900
X7.53700 Y-5.39800
X7.53500 Y-5.39800
X7.53500 Y-5.39700
X7.53300 Y-5.39700
X7.53300 Y-5.39600
X7.53200 Y-5.39600
X7.53200 Y-5.39500
X7.53000 Y-5.39500
X7.53000 Y-5.39400
X7.52700 Y-5.39400
X7.52700 Y-5.39300
X7.52100 Y-5.39300
X7.52100 Y-5.39200
X7.50000 Y-5.39200
X7.50000 Y-5.39300
X7.49400 Y-5.39300
X7.49400 Y-5.39400
X7.49100 Y-5.39400
X7.49100 Y-5.39500
X7.48900 Y-5.39500
X7.48900 Y-5.39600
X7.48800 Y-5.39600
X7.48800 Y-5.39700
X7.48600 Y-5.39700
X7.48600 Y-5.39800
X7.48400 Y-5.39800
X7.48400 Y-5.39900
X7.48200 Y-5.39900
X7.48200 Y-5.40000
G04 P0 ( dwell for no time -- G64 should not smooth over this point )
G00 Z0.07874 ( retract )

G00 X7.38200 Y-5.40000 ( rapid move to begin. )
G01 Z-0.00236 F3.93701 ( plunge. )
G04 P0 ( dwell for no time -- G64 should not smooth over this point )
X7.38200 Y-5.40000
X7.38200 Y-5.40100
X7.38100 Y-5.40100
X7.38100 Y-5.40200
X7.38000 Y-5.40200
X7.38000 Y-5.40300
X7.37900 Y-5.40300
X7.37900 Y-5.40500
X7.37800 Y-5.40500
X7.37800 Y-5.40600
X7.37700 Y-5.40600
X7.37700 Y-5.40800
X7.37600 Y-5.40800
X7.37600 Y-5.40900
X7.37500 Y-5.40900
X7.37500 Y-5.41400
X7.37400 Y-5.41400
X7.37400 Y-5.41900
X7.37300 Y-5.41900
X7.37300 Y-5.48000
X7.37400 Y-5.48000
X7.37400 Y-5.48500
X7.37500 Y-5.48500
X7.37500 Y-5.49000
X7.37600 Y-5.49000
X7.37600 Y-5.49100
X7.37700 Y-5.49100
X7.37700 Y-5.49300
X7.37800 Y-5.49300
X7.37800 Y-5.49400
X7.37900 Y-5.49400
X7.37900 Y-5.49600
X7.38000 Y-5.49600
X7.38000 Y-5.49700
X7.38100 Y-5.49700
X7.38100 Y-5.49800
X7.38200 Y-5.49800
X7.38200 Y-5.50000
X7.38400 Y-5.50000
X7.38400 Y-5.50100
X7.38600 Y-5.50100
X7.38600 Y-5.50200
X7.38700 Y-5.50200
X7.38700 Y-5.50300
X7.38900 Y-5.50300
X7.38900 Y-5.50400
X7.39100 Y-5.50400
X7.39100 Y-5.50500
X7.39400 Y-5.50500
X7.39400 Y-5.50600
X7.40000 Y-5.50600
X7.40000 Y-5.50700
X7.42100 Y-5.50700
X7.42100 Y-5.50600
X7.42700 Y-5.50600
X7.42700 Y-5.50500
X7.43000 Y-5.50500
X7.43000 Y-5.50400
X7.43200 Y-5.50400
X7.43200 Y-5.50300
X7.43400 Y-5.50300
X7.43400 Y-5.50200
X7.43500 Y-5.50200
X7.43500 Y-5.50100
X7.43700 Y-5.50100
X7.43700 Y-5.50000
X7.43900 Y-5.50000
X7.43900 Y-5.49800
X7.44000 Y-5.49800
X7.44000 Y-5.49700
X7.44100 Y-5.49700
X7.44100 Y-5.49600
X7.44200 Y-5.49600
X7.44200 Y-5.49400
X7.44300 Y-5.49400
X7.44300 Y-5.49300
X7.44400 Y-5.49300
X7.44400 Y-5.49100
X7.44500 Y-5.49100
X7.44500 Y-5.49000
X7.44600 Y-5.49000
X7.44600 Y-5.48500
X7.44700 Y-5.48500
X7.44700 Y-5.48000
X7.44800 Y-5.48000
X7.44800 Y-5.41900
X7.44700 Y-5.41900
X7.44700 Y-5.41400
X7.44600 Y-5.41400
X7.44600 Y-5.40900
X7.44500 Y-5.40900
X7.44500 Y-5.40800
X7.44400 Y-5.40800
X7.44400 Y-5.40600
X7.44300 Y-5.40600
X7.44300 Y-5.40500
X7.44200 Y-5.40500
X7.44200 Y-5.40300
X7.44100 Y-5.40300
X7.44100 Y-5.40200
X7.44000 Y-5.40200
X7.44000 Y-5.40100
X7.43900 Y-5.40100
X7.43900 Y-5.39900
X7.43700 Y-5.39900
X7.43700 Y-5.39800
X7.43500 Y-5.39800
X7.43500 Y-5.39700
X7.43300 Y-5.39700
X7.43300 Y-5.39600
X7.43200 Y-5.39600
X7.43200 Y-5.39500
X7.43000 Y-5.39500
X7.43000 Y-5.39400
X7.42700 Y-5.39400
X7.42700 Y-5.39300
X7.42100 Y-5.39300
X7.42100 Y-5.39200
X7.40000 Y-5.39200
X7.40000 Y-5.39300
X7.39400 Y-5.39300
X7.39400 Y-5.39400
X7.39100 Y-5.39400
X7.39100 Y-5.39500
X7.38900 Y-5.39500
X7.38900 Y-5.39600
X7.38800 Y-5.39600
X7.38800 Y-5.39700
X7.38600 Y-5.39700
X7.38600 Y-5.39800
X7.38400 Y-5.39800
X7.38400 Y-5.39900
X7.38200 Y-5.39900
X7.38200 Y-5.40000
G04 P0 ( dwell for no time -- G64 should not smooth over this point )
G00 Z0.07874 ( retract )

G00 X7.22200 Y-5.40000 ( rapid move to begin. )
G01 Z-0.00236 F3.93701 ( plunge. )
G04 P0 ( dwell for no time -- G64 should not smooth over this point )
X7.22200 Y-5.40000
X7.22200 Y-5.40100
X7.22100 Y-5.40100
X7.22100 Y-5.40200
X7.22000 Y-5.40200
X7.22000 Y-5.40300
X7.21900 Y-5.40300
X7.21900 Y-5.40500
X7.21800 Y-5.40500
X7.21800 Y-5.40600
X7.21700 Y-5.40600
X7.21700 Y-5.40800
X7.21600 Y-5.40800
X7.21600 Y-5.40900
X7.21500 Y-5.40900
X7.21500 Y-5.41400
X7.21400 Y-5.41400
X7.21400 Y-5.41900
X7.21300 Y-5.41900
X7.21300 Y-5.48000
X7.21400 Y-5.48000
X7.21400 Y-5.48500
X7.21500 Y-5.48500
X7.21500 Y-5.49000
X7.21600 Y-5.49000
X7.21600 Y-5.49100
X7.21700 Y-5.49100
X7.21700 Y-5.49300
X7.21800 Y-5.49300
X7.21800 Y-5.49400
X7.21900 Y-5.49400
X7.21900 Y-5.49600
X7.22000 Y-5.49600
X7.22000 Y-5.49700
X7.22100 Y-5.49700
X7.22100 Y-5.49800
X7.22200 Y-5.49800
X7.22200 Y-5.50000
X7.22400 Y-5.50000
X7.22400 Y-5.50100
X7.22600 Y-5.50100
X7.22600 Y-5.50200
X7.22700 Y-5.50200
X7.22700 Y-5.50300
X7.22900 Y-5.50300
X7.22900 Y-5.50400
X7.23100 Y-5.50400
X7.23100 Y-5.50500
X7.23400 Y-5.50500
X7.23400 Y-5.50600
X7.24000 Y-5.50600
X7.24000 Y-5.50700
X7.26100 Y-5.50700
X7.26100 Y-5.50600
X7.26700 Y-5.50600
X7.26700 Y-5.50500
X7.27000 Y-5.50500
X7.27000 Y-5.50400
X7.27200 Y-5.50400
X7.27200 Y-5.50300
X7.27400 Y-5.50300
X7.27400 Y-5.50200
X7.27500 Y-5.50200
X7.27500 Y-5.50100
X7.27700 Y-5.50100
X7.27700 Y-5.50000
X7.27900 Y-5.50000
X7.27900 Y-5.49800
X7.28000 Y-5.49800
X7.28000 Y-5.49700
X7.28100 Y-5.49700
X7.28100 Y-5.49600
X7.28200 Y-5.49600
X7.28200 Y-5.49400
X7.28300 Y-5.49400
X7.28300 Y-5.49300
X7.28400 Y-5.49300
X7.28400 Y-5.49100
X7.28500 Y-5.49100
X7.28500 Y-5.49000
X7.28600 Y-5.49000
X7.28600 Y-5.48500
X7.28700 Y-5.48500
X7.28700 Y-5.48000
X7.28800 Y-5.48000
X7.28800 Y-5.41900
X7.28700 Y-5.41900
X7.28700 Y-5.41400
X7.28600 Y-5.41400
X7.28600 Y-5.40900
X7.28500 Y-5.40900
X7.28500 Y-5.40800
X7.28400 Y-5.40800
X7.28400 Y-5.40600
X7.28300 Y-5.40600
X7.28300 Y-5.40500
X7.28200 Y-5.40500
X7.28200 Y-5.40300
X7.28100 Y-5.40300
X7.28100 Y-5.40200
X7.28000 Y-5.40200
X7.28000 Y-5.40100
X7.27900 Y-5.40100
X7.27900 Y-5.39900
X7.27700 Y-5.39900
X7.27700 Y-5.39800
X7.27500 Y-5.39800
X7.27500 Y-5.39700
X7.27300 Y-5.39700
X7.27300 Y-5.39600
X7.27200 Y-5.39600
X7.27200 Y-5.39500
X7.27000 Y-5.39500
X7.27000 Y-5.39400
X7.26700 Y-5.39400
X7.26700 Y-5.39300
X7.26100 Y-5.39300
X7.26100 Y-5.39200
X7.24000 Y-5.39200
X7.24000 Y-5.39300
X7.23400 Y-5.39300
X7.23400 Y-5.39400
X7.23100 Y-5.39400
X7.23100 Y-5.39500
X7.22900 Y-5.39500
X7.22900 Y-5.39600
X7.22800 Y-5.39600
X7.22800 Y-5.39700
X7.22600 Y-5.39700
X7.22600 Y-5.39800
X7.22400 Y-5.39800
X7.22400 Y-5.39900
X7.22200 Y-5.39900
X7.22200 Y-5.40000
G04 P0 ( dwell for no time -- G64 should not smooth over this point )
G00 Z0.07874 ( retract )

G00 X7.12200 Y-5.40000 ( rapid move to begin. )
G01 Z-0.00236 F3.93701 ( plunge. )
G04 P0 ( dwell for no time -- G64 should not smooth over this point )
X7.12200 Y-5.40000
X7.12200 Y-5.40100
X7.12100 Y-5.40100
X7.12100 Y-5.40200
X7.12000 Y-5.40200
X7.12000 Y-5.40300
X7.11900 Y-5.40300
X7.11900 Y-5.40500
X7.11800 Y-5.40500
X7.11800 Y-5.40600
X7.11700 Y-5.40600
X7.11700 Y-5.40800
X7.11600 Y-5.40800
X7.11600 Y-5.40900
X7.11500 Y-5.40900
X7.11500 Y-5.41400
X7.11400 Y-5.41400
X7.11400 Y-5.41900
X7.11300 Y-5.41900
X7.11300 Y-5.48000
X7.11400 Y-5.48000
X7.11400 Y-5.48500
X7.11500 Y-5.48500
X7.11500 Y-5.49000
X7.11600 Y-5.49000
X7.11600 Y-5.49100
X7.11700 Y-5.49100
X7.11700 Y-5.49300
X7.11800 Y-5.49300
X7.11800 Y-5.49400
X7.11900 Y-5.49400
X7.11900 Y-5.49600
X7.12000 Y-5.49600
X7.12000 Y-5.49700
X7.12100 Y-5.49700
X7.12100 Y-5.49800
X7.12200 Y-5.49800
X7.12200 Y-5.50000
X7.12400 Y-5.50000
X7.12400 Y-5.50100
X7.12600 Y-5.50100
X7.12600 Y-5.50200
X7.12700 Y-5.50200
X7.12700 Y-5.50300
X7.12900 Y-5.50300
X7.12900 Y-5.50400
X7.13100 Y-5.50400
X7.13100 Y-5.50500
X7.13400 Y-5.50500
X7.13400 Y-5.50600
X7.14000 Y-5.50600
X7.14000 Y-5.50700
X7.16100 Y-5.50700
X7.16100 Y-5.50600
X7.16700 Y-5.50600
X7.16700 Y-5.50500
X7.17000 Y-5.50500
X7.17000 Y-5.50400
X7.17200 Y-5.50400
X7.17200 Y-5.50300
X7.17400 Y-5.50300
X7.17400 Y-5.50200
X7.17500 Y-5.50200
X7.17500 Y-5.50100
X7.17700 Y-5.50100
X7.17700 Y-5.50000
X7.17900 Y-5.50000
X7.17900 Y-5.49800
X7.18000 Y-5.49800
X7.18000 Y-5.49700
X7.18100 Y-5.49700
X7.18100 Y-5.49600
X7.18200 Y-5.49600
X7.18200 Y-5.49400
X7.18300 Y-5.49400
X7.18300 Y-5.49300
X7.18400 Y-5.49300
X7.18400 Y-5.49100
X7.18500 Y-5.49100
X7.18500 Y-5.49000
X7.18600 Y-5.49000
X7.18600 Y-5.48500
X7.18700 Y-5.48500
X7.18700 Y-5.48000
X7.18800 Y-5.48000
X7.18800 Y-5.41900
X7.18700 Y-5.41900
X7.18700 Y-5.41400
X7.18600 Y-5.41400
X7.18600 Y-5.40900
X7.18500 Y-5.40900
X7.18500 Y-5.40800
X7.18400 Y-5.40800
X7.18400 Y-5.40600
X7.18300 Y-5.40600
X7.18300 Y-5.40500
X7.18200 Y-5.40500
X7.18200 Y-5.40300
X7.18100 Y-5.40300
X7.18100 Y-5.40200
X7.18000 Y-5.40200
X7.18000 Y-5.40100
X7.17900 Y-5.40100
X7.17900 Y-5.39900
X7.17700 Y-5.39900
X7.17700 Y-5.39800
X7.17500 Y-5.39800
X7.17500 Y-5.39700
X7.17300 Y-5.39700
X7.17300 Y-5.39600
X7.17200 Y-5.39600
X7.17200 Y-5.39500
X7.17000 Y-5.39500
X7.17000 Y-5.39400
X7.16700 Y-5.39400
X7.16700 Y-5.39300
X7.16100 Y-5.39300
X7.16100 Y-5.39200
X7.14000 Y-5.39200
X7.14000 Y-5.39300
X7.13400 Y-5.39300
X7.13400 Y-5.39400
X7.13100 Y-5.39400
X7.13100 Y-5.39500
X7.12900 Y-5.39500
X7.12900 Y-5.39600
X7.12800 Y-5.39600
X7.12800 Y-5.39700
X7.12600 Y-5.39700
X7.12600 Y-5.39800
X7.12400 Y-5.39800
X7.12400 Y-5.39900
X7.12200 Y-5.39900
X7.12200 Y-5.40000
G04 P0 ( dwell for no time -- G64 should not smooth over this point )
G00 Z0.07874 ( retract )

G00 X7.02200 Y-5.40000 ( rapid move to begin. )
G01 Z-0.00236 F3.93701 ( plunge. )
G04 P0 ( dwell for no time -- G64 should not smooth over this point )
X7.02200 Y-5.40000
X7.02200 Y-5.40100
X7.02100 Y-5.40100
X7.02100 Y-5.40200
X7.02000 Y-5.40200
X7.02000 Y-5.40300
X7.01900 Y-5.40300
X7.01900 Y-5.40500
X7.01800 Y-5.40500
X7.01800 Y-5.40600
X7.01700 Y-5.40600
X7.01700 Y-5.40800
X7.01600 Y-5.40800
X7.01600 Y-5.40900
X7.01500 Y-5.40900
X7.01500 Y-5.41400
X7.01400 Y-5.41400
X7.01400 Y-5.41900
X7.01300 Y-5.41900
X7.01300 Y-5.48000
X7.01400 Y-5.48000
X7.01400 Y-5.48500
X7.01500 Y-5.48500
X7.01500 Y-5.49000
X7.01600 Y-5.49000
X7.01600 Y-5.49100
X7.01700 Y-5.49100
X7.01700 Y-5.49300
X7.01800 Y-5.49300
X7.01800 Y-5.49400
X7.01900 Y-5.49400
X7.01900 Y-5.49600
X7.02000 Y-5.49600
X7.02000 Y-5.49700
X7.02100 Y-5.49700
X7.02100 Y-5.49800
X7.02200 Y-5.49800
X7.02200 Y-5.50000
X7.02400 Y-5.50000
X7.02400 Y-5.50100
X7.02600 Y-5.50100
X7.02600 Y-5.50200
X7.02700 Y-5.50200
X7.02700 Y-5.50300
X7.02900 Y-5.50300
X7.02900 Y-5.50400
X7.03100 Y-5.50400
X7.03100 Y-5.50500
X7.03400 Y-5.50500
X7.03400 Y-5.50600
X7.04000 Y-5.50600
X7.04000 Y-5.50700
X7.06100 Y-5.50700
X7.06100 Y-5.50600
X7.06700 Y-5.50600
X7.06700 Y-5.50500
X7.07000 Y-5.50500
X7.07000 Y-5.50400
X7.07200 Y-5.50400
X7.07200 Y-5.50300
X7.07400 Y-5.50300
X7.07400 Y-5.50200
X7.07500 Y-5.50200
X7.07500 Y-5.50100
X7.07700 Y-5.50100
X7.07700 Y-5.50000
X7.07900 Y-5.50000
X7.07900 Y-5.49800
X7.08000 Y-5.49800
X7.08000 Y-5.49700
X7.08100 Y-5.49700
X7.08100 Y-5.49600
X7.08200 Y-5.49600
X7.08200 Y-5.49400
X7.08300 Y-5.49400
X7.08300 Y-5.49300
X7.08400 Y-5.49300
X7.08400 Y-5.49100
X7.08500 Y-5.49100
X7.08500 Y-5.49000
X7.08600 Y-5.49000
X7.08600 Y-5.48500
X7.08700 Y-5.48500
X7.08700 Y-5.48000
X7.08800 Y-5.48000
X7.08800 Y-5.41900
X7.08700 Y-5.41900
X7.08700 Y-5.41400
X7.08600 Y-5.41400
X7.08600 Y-5.40900
X7.08500 Y-5.40900
X7.08500 Y-5.40800
X7.08400 Y-5.40800
X7.08400 Y-5.40600
X7.08300 Y-5.40600
X7.08300 Y-5.40500
X7.08200 Y-5.40500
X7.08200 Y-5.40300
X7.08100 Y-5.40300
X7.08100 Y-5.40200
X7.08000 Y-5.40200
X7.08000 Y-5.40100
X7.07900 Y-5.40100
X7.07900 Y-5.39900
X7.07700 Y-5.39900
X7.07700 Y-5.39800
X7.07500 Y-5.39800
X7.07500 Y-5.39700
X7.07300 Y-5.39700
X7.07300 Y-5.39600
X7.07200 Y-5.39600
X7.07200 Y-5.39500
X7.07000 Y-5.39500
X7.07000 Y-5.39400
X7.06700 Y-5.39400
X7.06700 Y-5.39300
X7.06100 Y-5.39300
X7.06100 Y-5.39200
X7.04000 Y-5.39200
X7.04000 Y-5.39300
X7.03400 Y-5.39300
X7.03400 Y-5.39400
X7.03100 Y-5.39400
X7.03100 Y-5.39500
X7.02900 Y-5.39500
X7.02900 Y-5.39600
X7.02800 Y-5.39600
X7.02800 Y-5.39700
X7.02600 Y-5.39700
X7.02600 Y-5.39800
X7.02400 Y-5.39800
X7.02400 Y-5.39900
X7.02200 Y-5.39900
X7.02200 Y-5.40000
G04 P0 ( dwell for no time -- G64 should not smooth over this point )
G00 Z0.07874 ( retract )

G00 X6.92200 Y-5.40000 ( rapid move to begin. )
G01 Z-0.00236 F3.93701 ( plunge. )
G04 P0 ( dwell for no time -- G64 should not smooth over this point )
X6.92200 Y-5.40000
X6.92200 Y-5.40100
X6.92100 Y-5.40100
X6.92100 Y-5.40200
X6.92000 Y-5.40200
X6.92000 Y-5.40300
X6.91900 Y-5.40300
X6.91900 Y-5.40500
X6.91800 Y-5.40500
X6.91800 Y-5.40600
X6.91700 Y-5.40600
X6.91700 Y-5.40800
X6.91600 Y-5.40800
X6.91600 Y-5.40900
X6.91500 Y-5.40900
X6.91500 Y-5.41400
X6.91400 Y-5.41400
X6.91400 Y-5.41900
X6.91300 Y-5.41900
X6.91300 Y-5.48000
X6.91400 Y-5.48000
X6.91400 Y-5.48500
X6.91500 Y-5.48500
X6.91500 Y-5.49000
X6.91600 Y-5.49000
X6.91600 Y-5.49100
X6.91700 Y-5.49100
X6.91700 Y-5.49300
X6.91800 Y-5.49300
X6.91800 Y-5.49400
X6.91900 Y-5.49400
X6.91900 Y-5.49600
X6.92000 Y-5.49600
X6.92000 Y-5.49700
X6.92100 Y-5.49700
X6.92100 Y-5.49800
X6.92200 Y-5.49800
X6.92200 Y-5.50000
X6.92400 Y-5.50000
X6.92400 Y-5.50100
X6.92600 Y-5.50100
X6.92600 Y-5.50200
X6.92700 Y-5.50200
X6.92700 Y-5.50300
X6.92900 Y-5.50300
X6.92900 Y-5.50400
X6.93100 Y-5.50400
X6.93100 Y-5.50500
X6.93400 Y-5.50500
X6.93400 Y-5.50600
X6.94000 Y-5.50600
X6.94000 Y-5.50700
X6.96100 Y-5.50700
X6.96100 Y-5.50600
X6.96700 Y-5.50600
X6.96700 Y-5.50500
X6.97000 Y-5.50500
X6.97000 Y-5.50400
X6.97200 Y-5.50400
X6.97200 Y-5.50300
X6.97400 Y-5.50300
X6.97400 Y-5.50200
X6.97500 Y-5.50200
X6.97500 Y-5.50100
X6.97700 Y-5.50100
X6.97700 Y-5.50000
X6.97900 Y-5.50000
X6.97900 Y-5.49800
X6.98000 Y-5.49800
X6.98000 Y-5.49700
X6.98100 Y-5.49700
X6.98100 Y-5.49600
X6.98200 Y-5.49600
X6.98200 Y-5.49400
X6.98300 Y-5.49400
X6.98300 Y-5.49300
X6.98400 Y-5.49300
X6.98400 Y-5.49100
X6.98500 Y-5.49100
X6.98500 Y-5.49000
X6.98600 Y-5.49000
X6.98600 Y-5.48500
X6.98700 Y-5.48500
X6.98700 Y-5.48000
X6.98800 Y-5.48000
X6.98800 Y-5.41900
X6.98700 Y-5.41900
X6.98700 Y-5.41400
X6.98600 Y-5.41400
X6.98600 Y-5.40900
X6.98500 Y-5.40900
X6.98500 Y-5.40800
X6.98400 Y-5.40800
X6.98400 Y-5.40600
X6.98300 Y-5.40600
X6.98300 Y-5.40500
X6.98200 Y-5.40500
X6.98200 Y-5.40300
X6.98100 Y-5.40300
X6.98100 Y-5.40200
X6.98000 Y-5.40200
X6.98000 Y-5.40100
X6.97900 Y-5.40100
X6.97900 Y-5.39900
X6.97700 Y-5.39900
X6.97700 Y-5.39800
X6.97500 Y-5.39800
X6.97500 Y-5.39700
X6.97300 Y-5.39700
X6.97300 Y-5.39600
X6.97200 Y-5.39600
X6.97200 Y-5.39500
X6.97000 Y-5.39500
X6.97000 Y-5.39400
X6.96700 Y-5.39400
X6.96700 Y-5.39300
X6.96100 Y-5.39300
X6.96100 Y-5.39200
X6.94000 Y-5.39200
X6.94000 Y-5.39300
X6.93400 Y-5.39300
X6.93400 Y-5.39400
X6.93100 Y-5.39400
X6.93100 Y-5.39500
X6.92900 Y-5.39500
X6.92900 Y-5.39600
X6.92800 Y-5.39600
X6.92800 Y-5.39700
X6.92600 Y-5.39700
X6.92600 Y-5.39800
X6.92400 Y-5.39800
X6.92400 Y-5.39900
X6.92200 Y-5.39900
X6.92200 Y-5.40000
G04 P0 ( dwell for no time -- G64 should not smooth over this point )
G00 Z0.07874 ( retract )

G00 X6.82200 Y-5.40000 ( rapid move to begin. )
G01 Z-0.00236 F3.93701 ( plunge. )
G04 P0 ( dwell for no time -- G64 should not smooth over this point )
X6.82200 Y-5.40000
X6.82200 Y-5.40100
X6.82100 Y-5.40100
X6.82100 Y-5.40200
X6.82000 Y-5.40200
X6.82000 Y-5.40300
X6.81900 Y-5.40300
X6.81900 Y-5.40500
X6.81800 Y-5.40500
X6.81800 Y-5.40600
X6.81700 Y-5.40600
X6.81700 Y-5.40800
X6.81600 Y-5.40800
X6.81600 Y-5.40900
X6.81500 Y-5.40900
X6.81500 Y-5.41400
X6.81400 Y-5.41400
X6.81400 Y-5.41900
X6.81300 Y-5.41900
X6.81300 Y-5.48000
X6.81400 Y-5.48000
X6.81400 Y-5.48500
X6.81500 Y-5.48500
X6.81500 Y-5.49000
X6.81600 Y-5.49000
X6.81600 Y-5.49100
X6.81700 Y-5.49100
X6.81700 Y-5.49300
X6.81800 Y-5.49300
X6.81800 Y-5.49400
X6.81900 Y-5.49400
X6.81900 Y-5.49600
X6.82000 Y-5.49600
X6.82000 Y-5.49700
X6.82100 Y-5.49700
X6.82100 Y-5.49800
X6.82200 Y-5.49800
X6.82200 Y-5.50000
X6.82400 Y-5.50000
X6.82400 Y-5.50100
X6.82600 Y-5.50100
X6.82600 Y-5.50200
X6.82700 Y-5.50200
X6.82700 Y-5.50300
X6.82900 Y-5.50300
X6.82900 Y-5.50400
X6.83100 Y-5.50400
X6.83100 Y-5.50500
X6.83400 Y-5.50500
X6.83400 Y-5.50600
X6.84000 Y-5.50600
X6.84000 Y-5.50700
X6.86100 Y-5.50700
X6.86100 Y-5.50600
X6.86700 Y-5.50600
X6.86700 Y-5.50500
X6.87000 Y-5.50500
X6.87000 Y-5.50400
X6.87200 Y-5.50400
X6.87200 Y-5.50300
X6.87400 Y-5.50300
X6.87400 Y-5.50200
X6.87500 Y-5.50200
X6.87500 Y-5.50100
X6.87700 Y-5.50100
X6.87700 Y-5.50000
X6.87900 Y-5.50000
X6.87900 Y-5.49800
X6.88000 Y-5.49800
X6.88000 Y-5.49700
X6.88100 Y-5.49700
X6.88100 Y-5.49600
X6.88200 Y-5.49600
X6.88200 Y-5.49400
X6.88300 Y-5.49400
X6.88300 Y-5.49300
X6.88400 Y-5.49300
X6.88400 Y-5.49100
X6.88500 Y-5.49100
X6.88500 Y-5.49000
X6.88600 Y-5.49000
X6.88600 Y-5.48500
X6.88700 Y-5.48500
X6.88700 Y-5.48000
X6.88800 Y-5.48000
X6.88800 Y-5.41900
X6.88700 Y-5.41900
X6.88700 Y-5.41400
X6.88600 Y-5.41400
X6.88600 Y-5.40900
X6.88500 Y-5.40900
X6.88500 Y-5.40800
X6.88400 Y-5.40800
X6.88400 Y-5.40600
X6.88300 Y-5.40600
X6.88300 Y-5.40500
X6.88200 Y-5.40500
X6.88200 Y-5.40300
X6.88100 Y-5.40300
X6.88100 Y-5.40200
X6.88000 Y-5.40200
X6.88000 Y-5.40100
X6.87900 Y-5.40100
X6.87900 Y-5.39900
X6.87700 Y-5.39900
X6.87700 Y-5.39800
X6.87500 Y-5.39800
X6.87500 Y-5.39700
X6.87300 Y-5.39700
X6.87300 Y-5.39600
X6.87200 Y-5.39600
X6.87200 Y-5.39500
X6.87000 Y-5.39500
X6.87000 Y-5.39400
X6.86700 Y-5.39400
X6.86700 Y-5.39300
X6.86100 Y-5.39300
X6.86100 Y-5.39200
X6.84000 Y-5.39200
X6.84000 Y-5.39300
X6.83400 Y-5.39300
X6.83400 Y-5.39400
X6.83100 Y-5.39400
X6.83100 Y-5.39500
X6.82900 Y-5.39500
X6.82900 Y-5.39600
X6.82800 Y-5.39600
X6.82800 Y-5.39700
X6.82600 Y-5.39700
X6.82600 Y-5.39800
X6.82400 Y-5.39800
X6.82400 Y-5.39900
X6.82200 Y-5.39900
X6.82200 Y-5.40000
G04 P0 ( dwell for no time -- G64 should not smooth over this point )
G00 Z0.07874 ( retract )

G00 X6.72200 Y-5.40000 ( rapid move to begin. )
G01 Z-0.00236 F3.93701 ( plunge. )
G04 P0 ( dwell for no time -- G64 should not smooth over this point )
X6.72200 Y-5.40000
X6.72200 Y-5.40100
X6.72100 Y-5.40100
X6.72100 Y-5.40200
X6.72000 Y-5.40200
X6.72000 Y-5.40300
X6.71900 Y-5.40300
X6.71900 Y-5.40500
X6.71800 Y-5.40500
X6.71800 Y-5.40600
X6.71700 Y-5.40600
X6.71700 Y-5.40800
X6.71600 Y-5.40800
X6.71600 Y-5.40900
X6.71500 Y-5.40900
X6.71500 Y-5.41400
X6.71400 Y-5.41400
X6.71400 Y-5.41900
X6.71300 Y-5.41900
X6.71300 Y-5.48000
X6.71400 Y-5.48000
X6.71400 Y-5.48500
X6.71500 Y-5.48500
X6.71500 Y-5.49000
X6.71600 Y-5.49000
X6.71600 Y-5.49100
X6.71700 Y-5.49100
X6.71700 Y-5.49300
X6.71800 Y-5.49300
X6.71800 Y-5.49400
X6.71900 Y-5.49400
X6.71900 Y-5.49600
X6.72000 Y-5.49600
X6.72000 Y-5.49700
X6.72100 Y-5.49700
X6.72100 Y-5.49800
X6.72200 Y-5.49800
X6.72200 Y-5.50000
X6.72400 Y-5.50000
X6.72400 Y-5.50100
X6.72600 Y-5.50100
X6.72600 Y-5.50200
X6.72700 Y-5.50200
X6.72700 Y-5.50300
X6.72900 Y-5.50300
X6.72900 Y-5.50400
X6.73100 Y-5.50400
X6.73100 Y-5.50500
X6.73400 Y-5.50500
X6.73400 Y-5.50600
X6.74000 Y-5.50600
X6.74000 Y-5.50700
X6.76100 Y-5.50700
X6.76100 Y-5.50600
X6.76700 Y-5.50600
X6.76700 Y-5.50500
X6.77000 Y-5.50500
X6.77000 Y-5.50400
X6.77200 Y-5.50400
X6.77200 Y-5.50300
X6.77400 Y-5.50300
X6.77400 Y-5.50200
X6.77500 Y-5.50200
X6.77500 Y-5.50100
X6.77700 Y-5.50100
X6.77700 Y-5.50000
X6.77900 Y-5.50000
X6.77900 Y-5.49800
X6.78000 Y-5.49800
X6.78000 Y-5.49700
X6.78100 Y-5.49700
X6.78100 Y-5.49600
X6.78200 Y-5.49600
X6.78200 Y-5.49400
X6.78300 Y-5.49400
X6.78300 Y-5.49300
X6.78400 Y-5.49300
X6.78400 Y-5.49100
X6.78500 Y-5.49100
X6.78500 Y-5.49000
X6.78600 Y-5.49000
X6.78600 Y-5.48500
X6.78700 Y-5.48500
X6.78700 Y-5.48000
X6.78800 Y-5.48000
X6.78800 Y-5.41900
X6.78700 Y-5.41900
X6.78700 Y-5.41400
X6.78600 Y-5.41400
X6.78600 Y-5.40900
X6.78500 Y-5.40900
X6.78500 Y-5.40800
X6.78400 Y-5.40800
X6.78400 Y-5.40600
X6.78300 Y-5.40600
X6.78300 Y-5.40500
X6.78200 Y-5.40500
X6.78200 Y-5.40300
X6.78100 Y-5.40300
X6.78100 Y-5.40200
X6.78000 Y-5.40200
X6.78000 Y-5.40100
X6.77900 Y-5.40100
X6.77900 Y-5.39900
X6.77700 Y-5.39900
X6.77700 Y-5.39800
X6.77500 Y-5.39800
X6.77500 Y-5.39700
X6.77300 Y-5.39700
X6.77300 Y-5.39600
X6.77200 Y-5.39600
X6.77200 Y-5.39500
X6.77000 Y-5.39500
X6.77000 Y-5.39400
X6.76700 Y-5.39400
X6.76700 Y-5.39300
X6.76100 Y-5.39300
X6.76100 Y-5.39200
X6.74000 Y-5.39200
X6.74000 Y-5.39300
X6.73400 Y-5.39300
X6.73400 Y-5.39400
X6.73100 Y-5.39400
X6.73100 Y-5.39500
X6.72900 Y-5.39500
X6.72900 Y-5.39600
X6.72800 Y-5.39600
X6.72800 Y-5.39700
X6.72600 Y-5.39700
X6.72600 Y-5.39800
X6.72400 Y-5.39800
X6.72400 Y-5.39900
X6.72200 Y-5.39900
X6.72200 Y-5.40000
G04 P0 ( dwell for no time -- G64 should not smooth over this point )
G00 Z0.07874 ( retract )

G00 X6.62200 Y-5.40000 ( rapid move to begin. )
G01 Z-0.00236 F3.93701 ( plunge. )
G04 P0 ( dwell for no time -- G64 should not smooth over this point )
X6.62200 Y-5.40000
X6.62200 Y-5.40100
X6.62100 Y-5.40100
X6.62100 Y-5.40200
X6.62000 Y-5.40200
X6.62000 Y-5.40300
X6.61900 Y-5.40300
X6.61900 Y-5.40500
X6.61800 Y-5.40500
X6.61800 Y-5.40600
X6.61700 Y-5.40600
X6.61700 Y-5.40800
X6.61600 Y-5.40800
X6.61600 Y-5.40900
X6.61500 Y-5.40900
X6.61500 Y-5.41400
X6.61400 Y-5.41400
X6.61400 Y-5.41900
X6.61300 Y-5.41900
X6.61300 Y-5.48000
X6.61400 Y-5.48000
X6.61400 Y-5.48500
X6.61500 Y-5.48500
X6.61500 Y-5.49000
X6.61600 Y-5.49000
X6.61600 Y-5.49100
X6.61700 Y-5.49100
X6.61700 Y-5.49300
X6.61800 Y-5.49300
X6.61800 Y-5.49400
X6.61900 Y-5.49400
X6.61900 Y-5.49600
X6.62000 Y-5.49600
X6.62000 Y-5.49700
X6.62100 Y-5.49700
X6.62100 Y-5.49800
X6.62200 Y-5.49800
X6.62200 Y-5.50000
X6.62400 Y-5.50000
X6.62400 Y-5.50100
X6.62600 Y-5.50100
X6.62600 Y-5.50200
X6.62700 Y-5.50200
X6.62700 Y-5.50300
X6.62900 Y-5.50300
X6.62900 Y-5.50400
X6.63100 Y-5.50400
X6.63100 Y-5.50500
X6.63400 Y-5.50500
X6.63400 Y-5.50600
X6.64000 Y-5.50600
X6.64000 Y-5.50700
X6.66100 Y-5.50700
X6.66100 Y-5.50600
X6.66700 Y-5.50600
X6.66700 Y-5.50500
X6.67000 Y-5.50500
X6.67000 Y-5.50400
X6.67200 Y-5.50400
X6.67200 Y-5.50300
X6.67400 Y-5.50300
X6.67400 Y-5.50200
X6.67500 Y-5.50200
X6.67500 Y-5.50100
X6.67700 Y-5.50100
X6.67700 Y-5.50000
X6.67900 Y-5.50000
X6.67900 Y-5.49800
X6.68000 Y-5.49800
X6.68000 Y-5.49700
X6.68100 Y-5.49700
X6.68100 Y-5.49600
X6.68200 Y-5.49600
X6.68200 Y-5.49400
X6.68300 Y-5.49400
X6.68300 Y-5.49300
X6.68400 Y-5.49300
X6.68400 Y-5.49100
X6.68500 Y-5.49100
X6.68500 Y-5.49000
X6.68600 Y-5.49000
X6.68600 Y-5.48500
X6.68700 Y-5.48500
X6.68700 Y-5.48000
X6.68800 Y-5.48000
X6.68800 Y-5.41900
X6.68700 Y-5.41900
X6.68700 Y-5.41400
X6.68600 Y-5.41400
X6.68600 Y-5.40900
X6.68500 Y-5.40900
X6.68500 Y-5.40800
X6.68400 Y-5.40800
X6.68400 Y-5.40600
X6.68300 Y-5.40600
X6.68300 Y-5.40500
X6.68200 Y-5.40500
X6.68200 Y-5.40300
X6.68100 Y-5.40300
X6.68100 Y-5.40200
X6.68000 Y-5.40200
X6.68000 Y-5.40100
X6.67900 Y-5.40100
X6.67900 Y-5.39900
X6.67700 Y-5.39900
X6.67700 Y-5.39800
X6.67500 Y-5.39800
X6.67500 Y-5.39700
X6.67300 Y-5.39700
X6.67300 Y-5.39600
X6.67200 Y-5.39600
X6.67200 Y-5.39500
X6.67000 Y-5.39500
X6.67000 Y-5.39400
X6.66700 Y-5.39400
X6.66700 Y-5.39300
X6.66100 Y-5.39300
X6.66100 Y-5.39200
X6.64000 Y-5.39200
X6.64000 Y-5.39300
X6.63400 Y-5.39300
X6.63400 Y-5.39400
X6.63100 Y-5.39400
X6.63100 Y-5.39500
X6.62900 Y-5.39500
X6.62900 Y-5.39600
X6.62800 Y-5.39600
X6.62800 Y-5.39700
X6.62600 Y-5.39700
X6.62600 Y-5.39800
X6.62400 Y-5.39800
X6.62400 Y-5.39900
X6.62200 Y-5.39900
X6.62200 Y-5.40000
G04 P0 ( dwell for no time -- G64 should not smooth over this point )
G00 Z0.07874 ( retract )

G00 X6.52200 Y-5.40000 ( rapid move to begin. )
G01 Z-0.00236 F3.93701 ( plunge. )
G04 P0 ( dwell for no time -- G64 should not smooth over this point )
X6.52200 Y-5.40000
X6.52200 Y-5.40100
X6.52100 Y-5.40100
X6.52100 Y-5.40200
X6.52000 Y-5.40200
X6.52000 Y-5.40300
X6.51900 Y-5.40300
X6.51900 Y-5.40500
X6.51800 Y-5.40500
X6.51800 Y-5.40600
X6.51700 Y-5.40600
X6.51700 Y-5.40800
X6.51600 Y-5.40800
X6.51600 Y-5.40900
X6.51500 Y-5.40900
X6.51500 Y-5.41400
X6.51400 Y-5.41400
X6.51400 Y-5.41900
X6.51300 Y-5.41900
X6.51300 Y-5.48000
X6.51400 Y-5.48000
X6.51400 Y-5.48500
X6.51500 Y-5.48500
X6.51500 Y-5.49000
X6.51600 Y-5.49000
X6.51600 Y-5.49100
X6.51700 Y-5.49100
X6.51700 Y-5.49300
X6.51800 Y-5.49300
X6.51800 Y-5.49400
X6.51900 Y-5.49400
X6.51900 Y-5.49600
X6.52000 Y-5.49600
X6.52000 Y-5.49700
X6.52100 Y-5.49700
X6.52100 Y-5.49800
X6.52200 Y-5.49800
X6.52200 Y-5.50000
X6.52400 Y-5.50000
X6.52400 Y-5.50100
X6.52600 Y-5.50100
X6.52600 Y-5.50200
X6.52700 Y-5.50200
X6.52700 Y-5.50300
X6.52900 Y-5.50300
X6.52900 Y-5.50400
X6.53100 Y-5.50400
X6.53100 Y-5.50500
X6.53400 Y-5.50500
X6.53400 Y-5.50600
X6.54000 Y-5.50600
X6.54000 Y-5.50700
X6.56100 Y-5.50700
X6.56100 Y-5.50600
X6.56700 Y-5.50600
X6.56700 Y-5.50500
X6.57000 Y-5.50500
X6.57000 Y-5.50400
X6.57200 Y-5.50400
X6.57200 Y-5.50300
X6.57400 Y-5.50300
X6.57400 Y-5.50200
X6.57500 Y-5.50200
X6.57500 Y-5.50100
X6.57700 Y-5.50100
X6.57700 Y-5.50000
X6.57900 Y-5.50000
X6.57900 Y-5.49800
X6.58000 Y-5.49800
X6.58000 Y-5.49700
X6.58100 Y-5.49700
X6.58100 Y-5.49600
X6.58200 Y-5.49600
X6.58200 Y-5.49400
X6.58300 Y-5.49400
X6.58300 Y-5.49300
X6.58400 Y-5.49300
X6.58400 Y-5.49100
X6.58500 Y-5.49100
X6.58500 Y-5.49000
X6.58600 Y-5.49000
X6.58600 Y-5.48500
X6.58700 Y-5.48500
X6.58700 Y-5.48000
X6.58800 Y-5.48000
X6.58800 Y-5.41900
X6.58700 Y-5.41900
X6.58700 Y-5.41400
X6.58600 Y-5.41400
X6.58600 Y-5.40900
X6.58500 Y-5.40900
X6.58500 Y-5.40800
X6.58400 Y-5.40800
X6.58400 Y-5.40600
X6.58300 Y-5.40600
X6.58300 Y-5.40500
X6.58200 Y-5.40500
X6.58200 Y-5.40300
X6.58100 Y-5.40300
X6.58100 Y-5.40200
X6.58000 Y-5.40200
X6.58000 Y-5.40100
X6.57900 Y-5.40100
X6.57900 Y-5.39900
X6.57700 Y-5.39900
X6.57700 Y-5.39800
X6.57500 Y-5.39800
X6.57500 Y-5.39700
X6.57300 Y-5.39700
X6.57300 Y-5.39600
X6.57200 Y-5.39600
X6.57200 Y-5.39500
X6.57000 Y-5.39500
X6.57000 Y-5.39400
X6.56700 Y-5.39400
X6.56700 Y-5.39300
X6.56100 Y-5.39300
X6.56100 Y-5.39200
X6.54000 Y-5.39200
X6.54000 Y-5.39300
X6.53400 Y-5.39300
X6.53400 Y-5.39400
X6.53100 Y-5.39400
X6.53100 Y-5.39500
X6.52900 Y-5.39500
X6.52900 Y-5.39600
X6.52800 Y-5.39600
X6.52800 Y-5.39700
X6.52600 Y-5.39700
X6.52600 Y-5.39800
X6.52400 Y-5.39800
X6.52400 Y-5.39900
X6.52200 Y-5.39900
X6.52200 Y-5.40000
G04 P0 ( dwell for no time -- G64 should not smooth over this point )
G00 Z0.07874 ( retract )

G00 X6.40900 Y-5.97300 ( rapid move to begin. )
G01 Z-0.00236 F3.93701 ( plunge. )
G04 P0 ( dwell for no time -- G64 should not smooth over this point )
X6.40900 Y-5.97300
X6.40700 Y-5.97300
X6.40700 Y-5.97400
X6.40600 Y-5.97400
X6.40600 Y-5.97500
X6.40400 Y-5.97500
X6.40400 Y-5.97600
X6.40200 Y-5.97600
X6.40200 Y-5.97700
X6.40000 Y-5.97700
X6.40000 Y-5.97800
X6.39900 Y-5.97800
X6.39900 Y-5.97900
X6.39800 Y-5.97900
X6.39800 Y-5.98000
X6.39600 Y-5.98000
X6.39600 Y-5.98100
X6.39500 Y-5.98100
X6.39500 Y-5.98200
X6.39400 Y-5.98200
X6.39400 Y-5.98300
X6.39300 Y-5.98300
X6.39300 Y-5.98400
X6.39100 Y-5.98400
X6.39100 Y-5.98500
X6.39000 Y-5.98500
X6.39000 Y-5.98600
X6.38900 Y-5.98600
X6.38900 Y-5.98700
X6.38800 Y-5.98700
X6.38800 Y-5.98800
X6.38700 Y-5.98800
X6.38700 Y-5.98900
X6.38600 Y-5.98900
X6.38600 Y-5.99000
X6.38500 Y-5.99000
X6.38500 Y-5.99200
X6.38400 Y-5.99200
X6.38400 Y-5.99300
X6.38300 Y-5.99300
X6.38300 Y-5.99400
X6.38200 Y-5.99400
X6.38200 Y-5.99500
X6.38100 Y-5.99500
X6.38100 Y-5.99700
X6.38000 Y-5.99700
X6.38000 Y-5.99800
X6.37900 Y-5.99800
X6.37900 Y-5.99900
X6.37800 Y-5.99900
X6.37800 Y-6.00100
X6.37700 Y-6.00100
X6.37700 Y-6.00300
X6.37600 Y-6.00300
X6.37600 Y-6.00500
X6.37500 Y-6.00500
X6.37500 Y-6.00600
X6.37400 Y-6.00600
X6.37400 Y-6.00800
X6.37300 Y-6.00800
X6.37300 Y-6.01000
X6.37200 Y-6.01000
X6.37200 Y-6.01200
X6.37100 Y-6.01200
X6.37100 Y-6.01500
X6.37000 Y-6.01500
X6.37000 Y-6.01900
X6.36900 Y-6.01900
X6.36900 Y-6.02200
X6.36800 Y-6.02200
X6.36800 Y-6.02500
X6.36700 Y-6.02500
X6.36700 Y-6.03200
X6.36600 Y-6.03200
X6.36600 Y-6.06700
X6.36700 Y-6.06700
X6.36700 Y-6.07400
X6.36800 Y-6.07400
X6.36800 Y-6.07700
X6.36900 Y-6.07700
X6.36900 Y-6.08000
X6.37000 Y-6.08000
X6.37000 Y-6.08400
X6.37100 Y-6.08400
X6.37100 Y-6.08700
X6.37200 Y-6.08700
X6.37200 Y-6.08900
X6.37300 Y-6.08900
X6.37300 Y-6.09100
X6.37400 Y-6.09100
X6.37400 Y-6.09300
X6.37500 Y-6.09300
X6.37500 Y-6.09400
X6.37600 Y-6.09400
X6.37600 Y-6.09600
X6.37700 Y-6.09600
X6.37700 Y-6.09800
X6.37800 Y-6.09800
X6.37800 Y-6.10000
X6.37900 Y-6.10000
X6.37900 Y-6.10100
X6.38000 Y-6.10100
X6.38000 Y-6.10200
X6.38100 Y-6.10200
X6.38100 Y-6.10400
X6.38200 Y-6.10400
X6.38200 Y-6.10500
X6.38300 Y-6.10500
X6.38300 Y-6.10600
X6.38400 Y-6.10600
X6.38400 Y-6.10700
X6.38500 Y-6.10700
X6.38500 Y-6.10900
X6.38600 Y-6.10900
X6.38600 Y-6.11000
X6.38700 Y-6.11000
X6.38700 Y-6.11100
X6.38800 Y-6.11100
X6.38800 Y-6.11200
X6.38900 Y-6.11200
X6.38900 Y-6.11300
X6.39000 Y-6.11300
X6.39000 Y-6.11400
X6.39100 Y-6.11400
X6.39100 Y-6.11500
X6.39300 Y-6.11500
X6.39300 Y-6.11600
X6.39400 Y-6.11600
X6.39400 Y-6.11700
X6.39500 Y-6.11700
X6.39500 Y-6.11800
X6.39600 Y-6.11800
X6.39600 Y-6.11900
X6.39800 Y-6.11900
X6.39800 Y-6.12000
X6.39900 Y-6.12000
X6.39900 Y-6.12100
X6.40000 Y-6.12100
X6.40000 Y-6.12200
X6.40200 Y-6.12200
X6.40200 Y-6.12300
X6.40400 Y-6.12300
X6.40400 Y-6.12400
X6.40600 Y-6.12400
X6.40600 Y-6.12500
X6.40700 Y-6.12500
X6.40700 Y-6.12600
X6.40900 Y-6.12600
X6.40900 Y-6.12700
X6.41100 Y-6.12700
X6.41100 Y-6.12800
X6.41300 Y-6.12800
X6.41300 Y-6.12900
X6.41600 Y-6.12900
X6.41600 Y-6.13000
X6.42000 Y-6.13000
X6.42000 Y-6.13100
X6.42300 Y-6.13100
X6.42300 Y-6.13200
X6.42600 Y-6.13200
X6.42600 Y-6.13300
X6.43300 Y-6.13300
X6.43300 Y-6.13400
X6.46800 Y-6.13400
X6.46800 Y-6.13300
X6.47500 Y-6.13300
X6.47500 Y-6.13200
X6.47800 Y-6.13200
X6.47800 Y-6.13100
X6.48100 Y-6.13100
X6.48100 Y-6.13000
X6.48500 Y-6.13000
X6.48500 Y-6.12900
X6.48800 Y-6.12900
X6.48800 Y-6.12800
X6.49000 Y-6.12800
X6.49000 Y-6.12700
X6.49200 Y-6.12700
X6.49200 Y-6.12600
X6.49400 Y-6.12600
X6.49400 Y-6.12500
X6.49500 Y-6.12500
X6.49500 Y-6.12400
X6.49700 Y-6.12400
X6.49700 Y-6.12300
X6.49900 Y-6.12300
X6.49900 Y-6.12200
X6.50100 Y-6.12200
X6.50100 Y-6.12100
X6.50200 Y-6.12100
X6.50200 Y-6.12000
X6.50300 Y-6.12000
X6.50300 Y-6.11900
X6.50500 Y-6.11900
X6.50500 Y-6.11800
X6.50600 Y-6.11800
X6.50600 Y-6.11700
X6.50700 Y-6.11700
X6.50700 Y-6.11600
X6.50800 Y-6.11600
X6.50800 Y-6.11500
X6.51000 Y-6.11500
X6.51000 Y-6.11400
X6.51100 Y-6.11400
X6.51100 Y-6.11300
X6.51200 Y-6.11300
X6.51200 Y-6.11200
X6.51300 Y-6.11200
X6.51300 Y-6.11100
X6.51400 Y-6.11100
X6.51400 Y-6.11000
X6.51500 Y-6.11000
X6.51500 Y-6.10900
X6.51600 Y-6.10900
X6.51600 Y-6.10700
X6.51700 Y-6.10700
X6.51700 Y-6.10600
X6.51800 Y-6.10600
X6.51800 Y-6.10500
X6.51900 Y-6.10500
X6.51900 Y-6.10400
X6.52000 Y-6.10400
X6.52000 Y-6.10200
X6.52100 Y-6.10200
X6.52100 Y-6.10100
X6.52200 Y-6.10100
X6.52200 Y-6.10000
X6.52300 Y-6.10000
X6.52300 Y-6.09800
X6.52400 Y-6.09800
X6.52400 Y-6.09600
X6.52500 Y-6.09600
X6.52500 Y-6.09400
X6.52600 Y-6.09400
X6.52600 Y-6.09300
X6.52700 Y-6.09300
X6.52700 Y-6.09100
X6.52800 Y-6.09100
X6.52800 Y-6.08900
X6.52900 Y-6.08900
X6.52900 Y-6.08700
X6.53000 Y-6.08700
X6.53000 Y-6.08400
X6.53100 Y-6.08400
X6.53100 Y-6.08000
X6.53200 Y-6.08000
X6.53200 Y-6.07700
X6.53300 Y-6.07700
X6.53300 Y-6.07400
X6.53400 Y-6.07400
X6.53400 Y-6.06700
X6.53500 Y-6.06700
X6.53500 Y-6.03200
X6.53400 Y-6.03200
X6.53400 Y-6.02500
X6.53300 Y-6.02500
X6.53300 Y-6.02200
X6.53200 Y-6.02200
X6.53200 Y-6.01900
X6.53100 Y-6.01900
X6.53100 Y-6.01500
X6.53000 Y-6.01500
X6.53000 Y-6.01200
X6.52900 Y-6.01200
X6.52900 Y-6.01000
X6.52800 Y-6.01000
X6.52800 Y-6.00800
X6.52700 Y-6.00800
X6.52700 Y-6.00600
X6.52600 Y-6.00600
X6.52600 Y-6.00500
X6.52500 Y-6.00500
X6.52500 Y-6.00300
X6.52400 Y-6.00300
X6.52400 Y-6.00100
X6.52300 Y-6.00100
X6.52300 Y-5.99900
X6.52200 Y-5.99900
X6.52200 Y-5.99800
X6.52100 Y-5.99800
X6.52100 Y-5.99700
X6.52000 Y-5.99700
X6.52000 Y-5.99500
X6.51900 Y-5.99500
X6.51900 Y-5.99400
X6.51800 Y-5.99400
X6.51800 Y-5.99300
X6.51700 Y-5.99300
X6.51700 Y-5.99200
X6.51600 Y-5.99200
X6.51600 Y-5.99000
X6.51500 Y-5.99000
X6.51500 Y-5.98900
X6.51400 Y-5.98900
X6.51400 Y-5.98800
X6.51300 Y-5.98800
X6.51300 Y-5.98700
X6.51200 Y-5.98700
X6.51200 Y-5.98600
X6.51100 Y-5.98600
X6.51100 Y-5.98500
X6.51000 Y-5.98500
X6.51000 Y-5.98400
X6.50800 Y-5.98400
X6.50800 Y-5.98300
X6.50700 Y-5.98300
X6.50700 Y-5.98200
X6.50600 Y-5.98200
X6.50600 Y-5.98100
X6.50500 Y-5.98100
X6.50500 Y-5.98000
X6.50300 Y-5.98000
X6.50300 Y-5.97900
X6.50200 Y-5.97900
X6.50200 Y-5.97800
X6.50100 Y-5.97800
X6.50100 Y-5.97700
X6.49900 Y-5.97700
X6.49900 Y-5.97600
X6.49700 Y-5.97600
X6.49700 Y-5.97500
X6.49500 Y-5.97500
X6.49500 Y-5.97400
X6.49400 Y-5.97400
X6.49400 Y-5.97300
X6.49200 Y-5.97300
X6.49200 Y-5.97200
X6.49000 Y-5.97200
X6.49000 Y-5.97100
X6.48800 Y-5.97100
X6.48800 Y-5.97000
X6.48500 Y-5.97000
X6.48500 Y-5.96900
X6.48100 Y-5.96900
X6.48100 Y-5.96800
X6.47800 Y-5.96800
X6.47800 Y-5.96700
X6.47500 Y-5.96700
X6.47500 Y-5.96600
X6.46800 Y-5.96600
X6.46800 Y-5.96500
X6.43300 Y-5.96500
X6.43300 Y-5.96600
X6.42600 Y-5.96600
X6.42600 Y-5.96700
X6.42300 Y-5.96700
X6.42300 Y-5.96800
X6.42000 Y-5.96800
X6.42000 Y-5.96900
X6.41600 Y-5.96900
X6.41600 Y-5.97000
X6.41300 Y-5.97000
X6.41300 Y-5.97100
X6.41100 Y-5.97100
X6.41100 Y-5.97200
X6.40900 Y-5.97200
X6.40900 Y-5.97300
G04 P0 ( dwell for no time -- G64 should not smooth over this point )
G00 Z0.07874 ( retract )

G00 X7.17300 Y-6.22300 ( rapid move to begin. )
G01 Z-0.00236 F3.93701 ( plunge. )
G04 P0 ( dwell for no time -- G64 should not smooth over this point )
X7.17300 Y-6.22300
X7.17300 Y-6.22400
X7.17200 Y-6.22400
X7.17200 Y-6.22500
X7.17100 Y-6.22500
X7.17100 Y-6.22600
X7.17000 Y-6.22600
X7.17000 Y-6.22800
X7.16900 Y-6.22800
X7.16900 Y-6.22900
X7.16800 Y-6.22900
X7.16800 Y-6.23200
X7.16700 Y-6.23200
X7.16700 Y-6.23700
X7.16600 Y-6.23700
X7.16600 Y-6.26200
X7.16700 Y-6.26200
X7.16700 Y-6.26700
X7.16800 Y-6.26700
X7.16800 Y-6.27000
X7.16900 Y-6.27000
X7.16900 Y-6.27100
X7.17000 Y-6.27100
X7.17000 Y-6.27300
X7.17100 Y-6.27300
X7.17100 Y-6.27400
X7.17200 Y-6.27400
X7.17200 Y-6.27500
X7.17300 Y-6.27500
X7.17300 Y-6.27700
X7.17400 Y-6.27700
X7.17400 Y-6.27800
X7.17600 Y-6.27800
X7.17600 Y-6.27900
X7.17700 Y-6.27900
X7.17700 Y-6.28000
X7.17900 Y-6.28000
X7.17900 Y-6.28100
X7.18100 Y-6.28100
X7.18100 Y-6.28200
X7.18200 Y-6.28200
X7.18200 Y-6.28300
X7.18700 Y-6.28300
X7.18700 Y-6.28400
X7.18800 Y-6.28400
X7.18800 Y-7.19000
X7.18700 Y-7.19000
X7.18700 Y-7.19100
X7.18600 Y-7.19100
X7.18600 Y-7.19200
X7.18500 Y-7.19200
X7.18500 Y-7.19300
X7.18400 Y-7.19300
X7.18400 Y-7.19400
X7.18300 Y-7.19400
X7.18300 Y-7.19500
X7.18200 Y-7.19500
X7.18200 Y-7.19600
X7.18100 Y-7.19600
X7.18100 Y-7.19700
X7.18000 Y-7.19700
X7.18000 Y-7.19800
X7.17900 Y-7.19800
X7.17900 Y-7.19900
X7.17800 Y-7.19900
X7.17800 Y-7.20000
X7.17700 Y-7.20000
X7.17700 Y-7.20100
X7.17600 Y-7.20100
X7.17600 Y-7.20200
X7.17500 Y-7.20200
X7.17500 Y-7.20300
X7.17400 Y-7.20300
X7.17400 Y-7.20400
X7.17300 Y-7.20400
X7.17300 Y-7.20500
X7.17200 Y-7.20500
X7.17200 Y-7.20600
X7.17100 Y-7.20600
X7.17100 Y-7.20700
X7.17000 Y-7.20700
X7.17000 Y-7.20800
X7.16900 Y-7.20800
X7.16900 Y-7.20900
X7.16800 Y-7.20900
X7.16800 Y-7.21000
X7.16700 Y-7.21000
X7.16700 Y-7.21100
X7.16600 Y-7.21100
X7.16600 Y-7.21200
X7.16500 Y-7.21200
X7.16500 Y-7.21300
X7.16400 Y-7.21300
X7.16400 Y-7.21400
X7.16300 Y-7.21400
X7.16300 Y-7.21500
X7.16200 Y-7.21500
X7.16200 Y-7.21600
X7.16100 Y-7.21600
X7.16100 Y-7.21700
X7.16000 Y-7.21700
X7.16000 Y-7.21800
X7.15900 Y-7.21800
X7.15900 Y-7.21900
X7.15800 Y-7.21900
X7.15800 Y-7.22000
X7.15700 Y-7.22000
X7.15700 Y-7.22100
X7.15600 Y-7.22100
X7.15600 Y-7.22200
X7.15500 Y-7.22200
X7.15500 Y-7.22300
X7.15400 Y-7.22300
X7.15400 Y-7.22400
X7.15300 Y-7.22400
X7.15300 Y-7.22500
X7.15200 Y-7.22500
X7.15200 Y-7.22600
X7.15100 Y-7.22600
X7.15100 Y-7.22700
X7.15000 Y-7.22700
X7.15000 Y-7.22800
X7.14900 Y-7.22800
X7.14900 Y-7.22900
X7.14800 Y-7.22900
X7.14800 Y-7.23000
X7.14700 Y-7.23000
X7.14700 Y-7.23100
X7.14600 Y-7.23100
X7.14600 Y-7.23200
X7.14500 Y-7.23200
X7.14500 Y-7.23300
X7.14400 Y-7.23300
X7.14400 Y-7.23400
X7.14300 Y-7.23400
X7.14300 Y-7.23500
X7.14200 Y-7.23500
X7.14200 Y-7.23600
X7.14100 Y-7.23600
X7.14100 Y-7.23700
X7.14000 Y-7.23700
X7.14000 Y-7.23800
X7.13900 Y-7.23800
X7.13900 Y-7.23900
X7.13800 Y-7.23900
X7.13800 Y-7.24000
X7.13700 Y-7.24000
X7.13700 Y-7.24100
X7.13600 Y-7.24100
X7.13600 Y-7.24200
X7.13500 Y-7.24200
X7.13500 Y-7.24300
X7.13400 Y-7.24300
X7.13400 Y-7.24400
X7.13300 Y-7.24400
X7.13300 Y-7.24500
X7.13200 Y-7.24500
X7.13200 Y-7.24600
X7.13100 Y-7.24600
X7.13100 Y-7.24700
X7.13000 Y-7.24700
X7.13000 Y-7.24800
X7.12900 Y-7.24800
X7.12900 Y-7.24900
X7.12800 Y-7.24900
X7.12800 Y-7.25000
X7.12700 Y-7.25000
X7.12700 Y-7.25100
X7.12600 Y-7.25100
X7.12600 Y-7.25200
X7.12500 Y-7.25200
X7.12500 Y-7.25300
X7.12400 Y-7.25300
X7.12400 Y-7.25400
X7.12300 Y-7.25400
X7.12300 Y-7.25500
X7.12200 Y-7.25500
X7.12200 Y-7.25600
X7.12100 Y-7.25600
X7.12100 Y-7.25700
X7.12000 Y-7.25700
X7.12000 Y-7.25800
X7.11900 Y-7.25800
X7.11900 Y-7.25900
X7.11800 Y-7.25900
X7.11800 Y-7.26000
X7.11700 Y-7.26000
X7.11700 Y-7.26100
X7.11600 Y-7.26100
X7.11600 Y-7.26200
X7.11500 Y-7.26200
X7.11500 Y-7.26300
X7.11400 Y-7.26300
X7.11400 Y-7.26400
X7.11300 Y-7.26400
X7.11300 Y-7.26500
X7.11200 Y-7.26500
X7.11200 Y-7.26600
X7.11100 Y-7.26600
X7.11100 Y-7.26700
X7.11000 Y-7.26700
X7.11000 Y-7.26800
X7.10900 Y-7.26800
X7.10900 Y-7.26900
X7.10800 Y-7.26900
X7.10800 Y-7.27000
X7.10700 Y-7.27000
X7.10700 Y-7.27100
X7.10600 Y-7.27100
X7.10600 Y-7.27200
X7.10500 Y-7.27200
X7.10500 Y-7.27300
X7.10400 Y-7.27300
X7.10400 Y-7.27400
X7.10300 Y-7.27400
X7.10300 Y-7.27500
X7.10200 Y-7.27500
X7.10200 Y-7.27600
X7.10100 Y-7.27600
X7.10100 Y-7.27700
X7.10000 Y-7.27700
X7.10000 Y-7.27800
X7.09900 Y-7.27800
X7.09900 Y-7.27900
X7.09800 Y-7.27900
X7.09800 Y-7.28000
X7.09700 Y-7.28000
X7.09700 Y-7.28100
X7.09600 Y-7.28100
X7.09600 Y-7.28200
X7.09500 Y-7.28200
X7.09500 Y-7.28300
X7.09400 Y-7.28300
X7.09400 Y-7.28400
X7.09300 Y-7.28400
X7.09300 Y-7.28500
X7.09200 Y-7.28500
X7.09200 Y-7.28600
X7.09100 Y-7.28600
X7.09100 Y-7.28700
X7.09000 Y-7.28700
X7.09000 Y-7.28800
X7.08900 Y-7.28800
X7.08900 Y-7.28900
X7.08800 Y-7.28900
X7.08800 Y-7.29000
X7.08700 Y-7.29000
X7.08700 Y-7.29100
X7.08600 Y-7.29100
X7.08600 Y-7.29200
X7.08500 Y-7.29200
X7.08500 Y-7.29300
X7.08400 Y-7.29300
X7.08400 Y-7.29400
X7.08300 Y-7.29400
X7.08300 Y-7.29500
X7.08200 Y-7.29500
X7.08200 Y-7.29600
X7.08100 Y-7.29600
X7.08100 Y-7.29700
X7.08000 Y-7.29700
X7.08000 Y-7.29800
X7.07900 Y-7.29800
X7.07900 Y-7.29900
X7.07700 Y-7.29900
X7.07700 Y-7.29800
X7.07500 Y-7.29800
X7.07500 Y-7.29700
X7.07300 Y-7.29700
X7.07300 Y-7.29600
X7.07200 Y-7.29600
X7.07200 Y-7.29500
X7.07000 Y-7.29500
X7.07000 Y-7.29400
X7.06700 Y-7.29400
X7.06700 Y-7.29300
X7.06100 Y-7.29300
X7.06100 Y-7.29200
X7.04000 Y-7.29200
X7.04000 Y-7.29300
X7.03400 Y-7.29300
X7.03400 Y-7.29400
X7.03100 Y-7.29400
X7.03100 Y-7.29500
X7.02900 Y-7.29500
X7.02900 Y-7.29600
X7.02800 Y-7.29600
X7.02800 Y-7.29700
X7.02600 Y-7.29700
X7.02600 Y-7.29800
X7.02400 Y-7.29800
X7.02400 Y-7.29900
X7.02200 Y-7.29900
X7.02200 Y-7.30100
X7.02100 Y-7.30100
X7.02100 Y-7.30200
X7.02000 Y-7.30200
X7.02000 Y-7.30300
X7.01900 Y-7.30300
X7.01900 Y-7.30500
X7.01800 Y-7.30500
X7.01800 Y-7.30600
X7.01700 Y-7.30600
X7.01700 Y-7.30800
X7.01600 Y-7.30800
X7.01600 Y-7.30900
X7.01500 Y-7.30900
X7.01500 Y-7.31400
X7.01400 Y-7.31400
X7.01400 Y-7.31900
X7.01300 Y-7.31900
X7.01300 Y-7.38000
X7.01400 Y-7.38000
X7.01400 Y-7.38500
X7.01500 Y-7.38500
X7.01500 Y-7.39000
X7.01600 Y-7.39000
X7.01600 Y-7.39100
X7.01700 Y-7.39100
X7.01700 Y-7.39300
X7.01800 Y-7.39300
X7.01800 Y-7.39400
X7.01900 Y-7.39400
X7.01900 Y-7.39600
X7.02000 Y-7.39600
X7.02000 Y-7.39700
X7.02100 Y-7.39700
X7.02100 Y-7.39800
X7.02200 Y-7.39800
X7.02200 Y-7.40000
X7.02400 Y-7.40000
X7.02400 Y-7.40100
X7.02600 Y-7.40100
X7.02600 Y-7.40200
X7.02700 Y-7.40200
X7.02700 Y-7.40300
X7.02900 Y-7.40300
X7.02900 Y-7.40400
X7.03100 Y-7.40400
X7.03100 Y-7.40500
X7.03400 Y-7.40500
X7.03400 Y-7.40600
X7.04000 Y-7.40600
X7.04000 Y-7.40700
X7.06100 Y-7.40700
X7.06100 Y-7.40600
X7.06700 Y-7.40600
X7.06700 Y-7.40500
X7.07000 Y-7.40500
X7.07000 Y-7.40400
X7.07200 Y-7.40400
X7.07200 Y-7.40300
X7.07400 Y-7.40300
X7.07400 Y-7.40200
X7.07500 Y-7.40200
X7.07500 Y-7.40100
X7.07700 Y-7.40100
X7.07700 Y-7.40000
X7.07900 Y-7.40000
X7.07900 Y-7.39800
X7.08000 Y-7.39800
X7.08000 Y-7.39700
X7.08100 Y-7.39700
X7.08100 Y-7.39600
X7.08200 Y-7.39600
X7.08200 Y-7.39400
X7.08300 Y-7.39400
X7.08300 Y-7.39300
X7.08400 Y-7.39300
X7.08400 Y-7.39100
X7.08500 Y-7.39100
X7.08500 Y-7.39000
X7.08600 Y-7.39000
X7.08600 Y-7.38500
X7.08700 Y-7.38500
X7.08700 Y-7.38000
X7.08800 Y-7.38000
X7.08800 Y-7.33400
X7.08900 Y-7.33400
X7.08900 Y-7.33300
X7.09000 Y-7.33300
X7.09000 Y-7.33200
X7.09100 Y-7.33200
X7.09100 Y-7.33100
X7.09200 Y-7.33100
X7.09200 Y-7.33000
X7.09300 Y-7.33000
X7.09300 Y-7.32900
X7.09400 Y-7.32900
X7.09400 Y-7.32800
X7.09500 Y-7.32800
X7.09500 Y-7.32700
X7.09600 Y-7.32700
X7.09600 Y-7.32600
X7.09700 Y-7.32600
X7.09700 Y-7.32500
X7.09800 Y-7.32500
X7.09800 Y-7.32400
X7.09900 Y-7.32400
X7.09900 Y-7.32300
X7.10000 Y-7.32300
X7.10000 Y-7.32200
X7.10100 Y-7.32200
X7.10100 Y-7.32100
X7.10200 Y-7.32100
X7.10200 Y-7.32000
X7.10300 Y-7.32000
X7.10300 Y-7.31900
X7.10400 Y-7.31900
X7.10400 Y-7.31800
X7.10500 Y-7.31800
X7.10500 Y-7.31700
X7.10600 Y-7.31700
X7.10600 Y-7.31600
X7.10700 Y-7.31600
X7.10700 Y-7.31500
X7.10800 Y-7.31500
X7.10800 Y-7.31400
X7.10900 Y-7.31400
X7.10900 Y-7.31300
X7.11000 Y-7.31300
X7.11000 Y-7.31200
X7.11100 Y-7.31200
X7.11100 Y-7.31100
X7.11200 Y-7.31100
X7.11200 Y-7.31000
X7.11300 Y-7.31000
X7.11300 Y-7.30900
X7.11400 Y-7.30900
X7.11400 Y-7.30800
X7.11500 Y-7.30800
X7.11500 Y-7.30700
X7.11600 Y-7.30700
X7.11600 Y-7.30600
X7.11700 Y-7.30600
X7.11700 Y-7.30500
X7.11800 Y-7.30500
X7.11800 Y-7.30400
X7.11900 Y-7.30400
X7.11900 Y-7.30300
X7.12000 Y-7.30300
X7.12000 Y-7.30200
X7.12100 Y-7.30200
X7.12100 Y-7.30100
X7.12200 Y-7.30100
X7.12200 Y-7.30000
X7.12300 Y-7.30000
X7.12300 Y-7.29900
X7.12400 Y-7.29900
X7.12400 Y-7.29800
X7.12500 Y-7.29800
X7.12500 Y-7.29700
X7.12600 Y-7.29700
X7.12600 Y-7.29600
X7.12700 Y-7.29600
X7.12700 Y-7.29500
X7.12800 Y-7.29500
X7.12800 Y-7.29400
X7.12900 Y-7.29400
X7.12900 Y-7.29300
X7.13000 Y-7.29300
X7.13000 Y-7.29200
X7.13100 Y-7.29200
X7.13100 Y-7.29100
X7.13200 Y-7.29100
X7.13200 Y-7.29000
X7.13300 Y-7.29000
X7.13300 Y-7.28900
X7.13400 Y-7.28900
X7.13400 Y-7.28800
X7.13500 Y-7.28800
X7.13500 Y-7.28700
X7.13600 Y-7.28700
X7.13600 Y-7.28600
X7.13700 Y-7.28600
X7.13700 Y-7.28500
X7.13800 Y-7.28500
X7.13800 Y-7.28400
X7.13900 Y-7.28400
X7.13900 Y-7.28300
X7.14000 Y-7.28300
X7.14000 Y-7.28200
X7.14100 Y-7.28200
X7.14100 Y-7.28100
X7.14200 Y-7.28100
X7.14200 Y-7.28000
X7.14300 Y-7.28000
X7.14300 Y-7.27900
X7.14400 Y-7.27900
X7.14400 Y-7.27800
X7.14500 Y-7.27800
X7.14500 Y-7.27700
X7.14600 Y-7.27700
X7.14600 Y-7.27600
X7.14700 Y-7.27600
X7.14700 Y-7.27500
X7.14800 Y-7.27500
X7.14800 Y-7.27400
X7.14900 Y-7.27400
X7.14900 Y-7.27300
X7.15000 Y-7.27300
X7.15000 Y-7.27200
X7.15100 Y-7.27200
X7.15100 Y-7.27100
X7.15200 Y-7.27100
X7.15200 Y-7.27000
X7.15300 Y-7.27000
X7.15300 Y-7.26900
X7.15400 Y-7.26900
X7.15400 Y-7.26800
X7.15500 Y-7.26800
X7.15500 Y-7.26700
X7.15600 Y-7.26700
X7.15600 Y-7.26600
X7.15700 Y-7.26600
X7.15700 Y-7.26500
X7.15800 Y-7.26500
X7.15800 Y-7.26400
X7.15900 Y-7.26400
X7.15900 Y-7.26300
X7.16000 Y-7.26300
X7.16000 Y-7.26200
X7.16100 Y-7.26200
X7.16100 Y-7.26100
X7.16200 Y-7.26100
X7.16200 Y-7.26000
X7.16300 Y-7.26000
X7.16300 Y-7.25900
X7.16400 Y-7.25900
X7.16400 Y-7.25800
X7.16500 Y-7.25800
X7.16500 Y-7.25700
X7.16600 Y-7.25700
X7.16600 Y-7.25600
X7.16700 Y-7.25600
X7.16700 Y-7.25500
X7.16800 Y-7.25500
X7.16800 Y-7.25400
X7.16900 Y-7.25400
X7.16900 Y-7.25300
X7.17000 Y-7.25300
X7.17000 Y-7.25200
X7.17100 Y-7.25200
X7.17100 Y-7.25100
X7.17200 Y-7.25100
X7.17200 Y-7.25000
X7.17300 Y-7.25000
X7.17300 Y-7.24900
X7.17400 Y-7.24900
X7.17400 Y-7.24800
X7.17500 Y-7.24800
X7.17500 Y-7.24700
X7.17600 Y-7.24700
X7.17600 Y-7.24600
X7.17700 Y-7.24600
X7.17700 Y-7.24500
X7.17800 Y-7.24500
X7.17800 Y-7.24400
X7.17900 Y-7.24400
X7.17900 Y-7.24300
X7.18000 Y-7.24300
X7.18000 Y-7.24200
X7.18100 Y-7.24200
X7.18100 Y-7.24100
X7.18200 Y-7.24100
X7.18200 Y-7.24000
X7.18300 Y-7.24000
X7.18300 Y-7.23900
X7.18400 Y-7.23900
X7.18400 Y-7.23800
X7.18500 Y-7.23800
X7.18500 Y-7.23700
X7.18600 Y-7.23700
X7.18600 Y-7.23600
X7.18700 Y-7.23600
X7.18700 Y-7.23500
X7.18800 Y-7.23500
X7.18800 Y-7.23400
X7.18900 Y-7.23400
X7.18900 Y-7.23300
X7.19000 Y-7.23300
X7.19000 Y-7.23200
X7.19100 Y-7.23200
X7.19100 Y-7.23100
X7.19200 Y-7.23100
X7.19200 Y-7.23000
X7.19300 Y-7.23000
X7.19300 Y-7.22900
X7.19400 Y-7.22900
X7.19400 Y-7.22800
X7.19500 Y-7.22800
X7.19500 Y-7.22700
X7.19600 Y-7.22700
X7.19600 Y-7.22600
X7.19700 Y-7.22600
X7.19700 Y-7.22500
X7.19800 Y-7.22500
X7.19800 Y-7.22400
X7.19900 Y-7.22400
X7.19900 Y-7.22300
X7.20000 Y-7.22300
X7.20000 Y-7.22200
X7.20100 Y-7.22200
X7.20100 Y-7.22100
X7.20200 Y-7.22100
X7.20200 Y-7.22000
X7.20300 Y-7.22000
X7.20300 Y-7.21900
X7.20400 Y-7.21900
X7.20400 Y-7.21800
X7.20500 Y-7.21800
X7.20500 Y-7.21700
X7.20600 Y-7.21700
X7.20600 Y-7.21600
X7.20700 Y-7.21600
X7.20700 Y-7.21500
X7.20800 Y-7.21500
X7.20800 Y-7.21400
X7.20900 Y-7.21400
X7.20900 Y-7.21300
X7.21000 Y-7.21300
X7.21000 Y-7.21200
X7.21100 Y-7.21200
X7.21100 Y-7.21100
X7.21200 Y-7.21100
X7.21200 Y-7.20900
X7.21300 Y-7.20900
X7.21300 Y-6.28400
X7.21400 Y-6.28400
X7.21400 Y-6.28300
X7.21900 Y-6.28300
X7.21900 Y-6.28200
X7.22000 Y-6.28200
X7.22000 Y-6.28100
X7.22200 Y-6.28100
X7.22200 Y-6.28000
X7.22400 Y-6.28000
X7.22400 Y-6.27900
X7.22500 Y-6.27900
X7.22500 Y-6.27800
X7.22700 Y-6.27800
X7.22700 Y-6.27700
X7.22800 Y-6.27700
X7.22800 Y-6.27500
X7.22900 Y-6.27500
X7.22900 Y-6.27400
X7.23000 Y-6.27400
X7.23000 Y-6.27300
X7.23100 Y-6.27300
X7.23100 Y-6.27100
X7.23200 Y-6.27100
X7.23200 Y-6.27000
X7.23300 Y-6.27000
X7.23300 Y-6.26700
X7.23400 Y-6.26700
X7.23400 Y-6.26200
X7.23500 Y-6.26200
X7.23500 Y-6.23700
X7.23400 Y-6.23700
X7.23400 Y-6.23200
X7.23300 Y-6.23200
X7.23300 Y-6.22900
X7.23200 Y-6.22900
X7.23200 Y-6.22800
X7.23100 Y-6.22800
X7.23100 Y-6.22600
X7.23000 Y-6.22600
X7.23000 Y-6.22500
X7.22900 Y-6.22500
X7.22900 Y-6.22400
X7.22800 Y-6.22400
X7.22800 Y-6.22200
X7.22700 Y-6.22200
X7.22700 Y-6.22100
X7.22500 Y-6.22100
X7.22500 Y-6.22000
X7.22400 Y-6.22000
X7.22400 Y-6.21900
X7.22200 Y-6.21900
X7.22200 Y-6.21800
X7.22000 Y-6.21800
X7.22000 Y-6.21700
X7.21900 Y-6.21700
X7.21900 Y-6.21600
X7.21400 Y-6.21600
X7.21400 Y-6.21500
X7.18700 Y-6.21500
X7.18700 Y-6.21600
X7.18200 Y-6.21600
X7.18200 Y-6.21700
X7.18100 Y-6.21700
X7.18100 Y-6.21800
X7.17900 Y-6.21800
X7.17900 Y-6.21900
X7.17700 Y-6.21900
X7.17700 Y-6.22000
X7.17600 Y-6.22000
X7.17600 Y-6.22100
X7.17400 Y-6.22100
X7.17400 Y-6.22200
X7.17300 Y-6.22200
X7.17300 Y-6.22300
G04 P0 ( dwell for no time -- G64 should not smooth over this point )
G00 Z0.07874 ( retract )

G00 X6.87300 Y-6.22300 ( rapid move to begin. )
G01 Z-0.00236 F3.93701 ( plunge. )
G04 P0 ( dwell for no time -- G64 should not smooth over this point )
X6.87300 Y-6.22300
X6.87300 Y-6.22400
X6.87200 Y-6.22400
X6.87200 Y-6.22500
X6.87100 Y-6.22500
X6.87100 Y-6.22600
X6.87000 Y-6.22600
X6.87000 Y-6.22800
X6.86900 Y-6.22800
X6.86900 Y-6.22900
X6.86800 Y-6.22900
X6.86800 Y-6.23200
X6.86700 Y-6.23200
X6.86700 Y-6.23700
X6.86600 Y-6.23700
X6.86600 Y-6.26200
X6.86700 Y-6.26200
X6.86700 Y-6.26700
X6.86800 Y-6.26700
X6.86800 Y-6.27000
X6.86900 Y-6.27000
X6.86900 Y-6.27100
X6.87000 Y-6.27100
X6.87000 Y-6.27300
X6.87100 Y-6.27300
X6.87100 Y-6.27400
X6.87200 Y-6.27400
X6.87200 Y-6.27500
X6.87300 Y-6.27500
X6.87300 Y-6.27700
X6.87400 Y-6.27700
X6.87400 Y-6.27800
X6.87600 Y-6.27800
X6.87600 Y-6.27900
X6.87700 Y-6.27900
X6.87700 Y-6.28000
X6.87900 Y-6.28000
X6.87900 Y-6.28100
X6.88100 Y-6.28100
X6.88100 Y-6.28200
X6.88200 Y-6.28200
X6.88200 Y-6.28300
X6.88700 Y-6.28300
X6.88700 Y-6.28400
X6.88800 Y-6.28400
X6.88800 Y-6.79000
X6.88700 Y-6.79000
X6.88700 Y-6.79100
X6.88600 Y-6.79100
X6.88600 Y-6.79200
X6.88500 Y-6.79200
X6.88500 Y-6.79300
X6.88400 Y-6.79300
X6.88400 Y-6.79400
X6.88300 Y-6.79400
X6.88300 Y-6.79500
X6.88200 Y-6.79500
X6.88200 Y-6.79600
X6.88100 Y-6.79600
X6.88100 Y-6.79700
X6.88000 Y-6.79700
X6.88000 Y-6.79800
X6.87900 Y-6.79800
X6.87900 Y-6.79900
X6.87800 Y-6.79900
X6.87800 Y-6.80000
X6.87700 Y-6.80000
X6.87700 Y-6.80100
X6.87600 Y-6.80100
X6.87600 Y-6.80200
X6.87500 Y-6.80200
X6.87500 Y-6.80300
X6.87400 Y-6.80300
X6.87400 Y-6.80400
X6.87300 Y-6.80400
X6.87300 Y-6.80500
X6.87200 Y-6.80500
X6.87200 Y-6.80600
X6.87100 Y-6.80600
X6.87100 Y-6.80700
X6.87000 Y-6.80700
X6.87000 Y-6.80800
X6.86900 Y-6.80800
X6.86900 Y-6.80900
X6.86800 Y-6.80900
X6.86800 Y-6.81000
X6.86700 Y-6.81000
X6.86700 Y-6.81100
X6.86600 Y-6.81100
X6.86600 Y-6.81200
X6.86500 Y-6.81200
X6.86500 Y-6.81300
X6.86400 Y-6.81300
X6.86400 Y-6.81400
X6.86300 Y-6.81400
X6.86300 Y-6.81500
X6.86200 Y-6.81500
X6.86200 Y-6.81600
X6.86100 Y-6.81600
X6.86100 Y-6.81700
X6.86000 Y-6.81700
X6.86000 Y-6.81800
X6.85900 Y-6.81800
X6.85900 Y-6.81900
X6.85800 Y-6.81900
X6.85800 Y-6.82000
X6.85700 Y-6.82000
X6.85700 Y-6.82100
X6.85600 Y-6.82100
X6.85600 Y-6.82200
X6.85500 Y-6.82200
X6.85500 Y-6.82300
X6.85400 Y-6.82300
X6.85400 Y-6.82400
X6.85300 Y-6.82400
X6.85300 Y-6.82500
X6.85200 Y-6.82500
X6.85200 Y-6.82600
X6.85100 Y-6.82600
X6.85100 Y-6.82700
X6.85000 Y-6.82700
X6.85000 Y-6.82800
X6.84900 Y-6.82800
X6.84900 Y-6.82900
X6.84800 Y-6.82900
X6.84800 Y-6.83000
X6.84700 Y-6.83000
X6.84700 Y-6.83100
X6.84600 Y-6.83100
X6.84600 Y-6.83200
X6.84500 Y-6.83200
X6.84500 Y-6.83300
X6.84400 Y-6.83300
X6.84400 Y-6.83400
X6.84300 Y-6.83400
X6.84300 Y-6.83500
X6.84200 Y-6.83500
X6.84200 Y-6.83600
X6.84100 Y-6.83600
X6.84100 Y-6.83700
X6.84000 Y-6.83700
X6.84000 Y-6.83800
X6.83900 Y-6.83800
X6.83900 Y-6.83900
X6.83800 Y-6.83900
X6.83800 Y-6.84000
X6.83700 Y-6.84000
X6.83700 Y-6.84100
X6.83600 Y-6.84100
X6.83600 Y-6.84200
X6.83500 Y-6.84200
X6.83500 Y-6.84300
X6.83400 Y-6.84300
X6.83400 Y-6.84400
X6.83300 Y-6.84400
X6.83300 Y-6.84500
X6.83200 Y-6.84500
X6.83200 Y-6.84600
X6.83100 Y-6.84600
X6.83100 Y-6.84700
X6.83000 Y-6.84700
X6.83000 Y-6.84800
X6.82900 Y-6.84800
X6.82900 Y-6.84900
X6.82800 Y-6.84900
X6.82800 Y-6.85000
X6.82700 Y-6.85000
X6.82700 Y-6.85100
X6.82600 Y-6.85100
X6.82600 Y-6.85200
X6.82500 Y-6.85200
X6.82500 Y-6.85300
X6.82400 Y-6.85300
X6.82400 Y-6.85400
X6.82300 Y-6.85400
X6.82300 Y-6.85500
X6.82200 Y-6.85500
X6.82200 Y-6.85600
X6.82100 Y-6.85600
X6.82100 Y-6.85700
X6.82000 Y-6.85700
X6.82000 Y-6.85800
X6.81900 Y-6.85800
X6.81900 Y-6.85900
X6.81800 Y-6.85900
X6.81800 Y-6.86000
X6.81700 Y-6.86000
X6.81700 Y-6.86100
X6.81600 Y-6.86100
X6.81600 Y-6.86200
X6.81500 Y-6.86200
X6.81500 Y-6.86300
X6.81400 Y-6.86300
X6.81400 Y-6.86400
X6.81300 Y-6.86400
X6.81300 Y-6.86500
X6.81200 Y-6.86500
X6.81200 Y-6.86600
X6.81100 Y-6.86600
X6.81100 Y-6.86700
X6.81000 Y-6.86700
X6.81000 Y-6.86800
X6.80900 Y-6.86800
X6.80900 Y-6.86900
X6.80800 Y-6.86900
X6.80800 Y-6.87000
X6.80700 Y-6.87000
X6.80700 Y-6.87100
X6.80600 Y-6.87100
X6.80600 Y-6.87200
X6.80500 Y-6.87200
X6.80500 Y-6.87300
X6.80400 Y-6.87300
X6.80400 Y-6.87400
X6.80300 Y-6.87400
X6.80300 Y-6.87500
X6.80200 Y-6.87500
X6.80200 Y-6.87600
X6.80100 Y-6.87600
X6.80100 Y-6.87700
X6.80000 Y-6.87700
X6.80000 Y-6.87800
X6.79900 Y-6.87800
X6.79900 Y-6.87900
X6.79800 Y-6.87900
X6.79800 Y-6.88000
X6.79700 Y-6.88000
X6.79700 Y-6.88100
X6.79600 Y-6.88100
X6.79600 Y-6.88200
X6.79500 Y-6.88200
X6.79500 Y-6.88300
X6.79400 Y-6.88300
X6.79400 Y-6.88400
X6.79300 Y-6.88400
X6.79300 Y-6.88500
X6.79200 Y-6.88500
X6.79200 Y-6.88600
X6.79100 Y-6.88600
X6.79100 Y-6.88700
X6.79000 Y-6.88700
X6.79000 Y-6.88800
X6.78900 Y-6.88800
X6.78900 Y-6.88900
X6.78800 Y-6.88900
X6.78800 Y-6.89000
X6.78700 Y-6.89000
X6.78700 Y-6.89100
X6.78600 Y-6.89100
X6.78600 Y-6.89200
X6.78500 Y-6.89200
X6.78500 Y-6.89300
X6.78400 Y-6.89300
X6.78400 Y-6.89400
X6.78300 Y-6.89400
X6.78300 Y-6.89500
X6.78200 Y-6.89500
X6.78200 Y-6.89600
X6.78100 Y-6.89600
X6.78100 Y-6.89700
X6.78000 Y-6.89700
X6.78000 Y-6.89800
X6.77900 Y-6.89800
X6.77900 Y-6.89900
X6.77800 Y-6.89900
X6.77800 Y-6.90000
X6.77700 Y-6.90000
X6.77700 Y-6.90100
X6.77600 Y-6.90100
X6.77600 Y-6.90200
X6.77500 Y-6.90200
X6.77500 Y-6.90300
X6.77400 Y-6.90300
X6.77400 Y-6.90400
X6.77300 Y-6.90400
X6.77300 Y-6.90500
X6.77200 Y-6.90500
X6.77200 Y-6.90600
X6.77100 Y-6.90600
X6.77100 Y-6.90700
X6.77000 Y-6.90700
X6.77000 Y-6.90800
X6.76900 Y-6.90800
X6.76900 Y-6.90900
X6.76800 Y-6.90900
X6.76800 Y-6.91000
X6.76700 Y-6.91000
X6.76700 Y-6.91100
X6.76600 Y-6.91100
X6.76600 Y-6.91200
X6.76500 Y-6.91200
X6.76500 Y-6.91300
X6.76400 Y-6.91300
X6.76400 Y-6.91400
X6.76300 Y-6.91400
X6.76300 Y-6.91500
X6.76200 Y-6.91500
X6.76200 Y-6.91600
X6.76100 Y-6.91600
X6.76100 Y-6.91700
X6.76000 Y-6.91700
X6.76000 Y-6.91800
X6.75900 Y-6.91800
X6.75900 Y-6.91900
X6.75800 Y-6.91900
X6.75800 Y-6.92000
X6.75700 Y-6.92000
X6.75700 Y-6.92100
X6.75600 Y-6.92100
X6.75600 Y-6.92200
X6.75500 Y-6.92200
X6.75500 Y-6.92300
X6.75400 Y-6.92300
X6.75400 Y-6.92400
X6.75300 Y-6.92400
X6.75300 Y-6.92500
X6.75200 Y-6.92500
X6.75200 Y-6.92600
X6.75100 Y-6.92600
X6.75100 Y-6.92700
X6.75000 Y-6.92700
X6.75000 Y-6.92800
X6.74900 Y-6.92800
X6.74900 Y-6.92900
X6.74800 Y-6.92900
X6.74800 Y-6.93000
X6.74700 Y-6.93000
X6.74700 Y-6.93100
X6.74600 Y-6.93100
X6.74600 Y-6.93200
X6.74500 Y-6.93200
X6.74500 Y-6.93300
X6.74400 Y-6.93300
X6.74400 Y-6.93400
X6.74300 Y-6.93400
X6.74300 Y-6.93500
X6.74200 Y-6.93500
X6.74200 Y-6.93600
X6.74100 Y-6.93600
X6.74100 Y-6.93700
X6.74000 Y-6.93700
X6.74000 Y-6.93800
X6.73900 Y-6.93800
X6.73900 Y-6.93900
X6.73800 Y-6.93900
X6.73800 Y-6.94000
X6.73700 Y-6.94000
X6.73700 Y-6.94100
X6.73600 Y-6.94100
X6.73600 Y-6.94200
X6.73500 Y-6.94200
X6.73500 Y-6.94300
X6.73400 Y-6.94300
X6.73400 Y-6.94400
X6.73300 Y-6.94400
X6.73300 Y-6.94500
X6.73200 Y-6.94500
X6.73200 Y-6.94600
X6.73100 Y-6.94600
X6.73100 Y-6.94700
X6.73000 Y-6.94700
X6.73000 Y-6.94800
X6.72900 Y-6.94800
X6.72900 Y-6.94900
X6.72800 Y-6.94900
X6.72800 Y-6.95000
X6.72700 Y-6.95000
X6.72700 Y-6.95100
X6.72600 Y-6.95100
X6.72600 Y-6.95200
X6.72500 Y-6.95200
X6.72500 Y-6.95300
X6.72400 Y-6.95300
X6.72400 Y-6.95400
X6.72300 Y-6.95400
X6.72300 Y-6.95500
X6.72200 Y-6.95500
X6.72200 Y-6.95600
X6.72100 Y-6.95600
X6.72100 Y-6.95700
X6.72000 Y-6.95700
X6.72000 Y-6.95800
X6.71900 Y-6.95800
X6.71900 Y-6.95900
X6.71800 Y-6.95900
X6.71800 Y-6.96000
X6.71700 Y-6.96000
X6.71700 Y-6.96100
X6.71600 Y-6.96100
X6.71600 Y-6.96200
X6.71500 Y-6.96200
X6.71500 Y-6.96300
X6.71400 Y-6.96300
X6.71400 Y-6.96400
X6.71300 Y-6.96400
X6.71300 Y-6.96500
X6.71200 Y-6.96500
X6.71200 Y-6.96600
X6.71100 Y-6.96600
X6.71100 Y-6.96700
X6.71000 Y-6.96700
X6.71000 Y-6.96800
X6.70900 Y-6.96800
X6.70900 Y-6.96900
X6.70800 Y-6.96900
X6.70800 Y-6.97000
X6.70700 Y-6.97000
X6.70700 Y-6.97100
X6.70600 Y-6.97100
X6.70600 Y-6.97200
X6.70500 Y-6.97200
X6.70500 Y-6.97300
X6.70400 Y-6.97300
X6.70400 Y-6.97400
X6.70300 Y-6.97400
X6.70300 Y-6.97500
X6.70200 Y-6.97500
X6.70200 Y-6.97600
X6.70100 Y-6.97600
X6.70100 Y-6.97700
X6.70000 Y-6.97700
X6.70000 Y-6.97800
X6.69900 Y-6.97800
X6.69900 Y-6.97900
X6.69800 Y-6.97900
X6.69800 Y-6.98000
X6.69700 Y-6.98000
X6.69700 Y-6.98100
X6.69600 Y-6.98100
X6.69600 Y-6.98200
X6.69500 Y-6.98200
X6.69500 Y-6.98300
X6.69400 Y-6.98300
X6.69400 Y-6.98400
X6.69300 Y-6.98400
X6.69300 Y-6.98500
X6.69200 Y-6.98500
X6.69200 Y-6.98600
X6.69100 Y-6.98600
X6.69100 Y-6.98700
X6.69000 Y-6.98700
X6.69000 Y-6.98800
X6.68900 Y-6.98800
X6.68900 Y-6.98900
X6.68800 Y-6.98900
X6.68800 Y-6.99000
X6.68700 Y-6.99000
X6.68700 Y-6.99100
X6.68600 Y-6.99100
X6.68600 Y-6.99200
X6.68500 Y-6.99200
X6.68500 Y-6.99300
X6.68400 Y-6.99300
X6.68400 Y-6.99400
X6.68300 Y-6.99400
X6.68300 Y-6.99500
X6.68200 Y-6.99500
X6.68200 Y-6.99600
X6.68100 Y-6.99600
X6.68100 Y-6.99700
X6.68000 Y-6.99700
X6.68000 Y-6.99800
X6.67900 Y-6.99800
X6.67900 Y-6.99900
X6.67800 Y-6.99900
X6.67800 Y-7.00000
X6.67700 Y-7.00000
X6.67700 Y-7.00100
X6.67600 Y-7.00100
X6.67600 Y-7.00200
X6.67500 Y-7.00200
X6.67500 Y-7.00300
X6.67400 Y-7.00300
X6.67400 Y-7.00400
X6.67300 Y-7.00400
X6.67300 Y-7.00500
X6.67200 Y-7.00500
X6.67200 Y-7.00600
X6.67100 Y-7.00600
X6.67100 Y-7.00700
X6.67000 Y-7.00700
X6.67000 Y-7.00800
X6.66900 Y-7.00800
X6.66900 Y-7.00900
X6.66800 Y-7.00900
X6.66800 Y-7.01000
X6.66700 Y-7.01000
X6.66700 Y-7.01100
X6.66600 Y-7.01100
X6.66600 Y-7.01200
X6.66500 Y-7.01200
X6.66500 Y-7.01300
X6.66400 Y-7.01300
X6.66400 Y-7.01400
X6.66300 Y-7.01400
X6.66300 Y-7.01500
X6.66200 Y-7.01500
X6.66200 Y-7.01600
X6.66100 Y-7.01600
X6.66100 Y-7.01700
X6.66000 Y-7.01700
X6.66000 Y-7.01800
X6.65900 Y-7.01800
X6.65900 Y-7.01900
X6.65800 Y-7.01900
X6.65800 Y-7.02000
X6.65700 Y-7.02000
X6.65700 Y-7.02100
X6.65600 Y-7.02100
X6.65600 Y-7.02200
X6.65500 Y-7.02200
X6.65500 Y-7.02300
X6.65400 Y-7.02300
X6.65400 Y-7.02400
X6.65300 Y-7.02400
X6.65300 Y-7.02500
X6.65200 Y-7.02500
X6.65200 Y-7.02600
X6.65100 Y-7.02600
X6.65100 Y-7.02700
X6.65000 Y-7.02700
X6.65000 Y-7.02800
X6.64900 Y-7.02800
X6.64900 Y-7.02900
X6.64800 Y-7.02900
X6.64800 Y-7.03000
X6.64700 Y-7.03000
X6.64700 Y-7.03100
X6.64600 Y-7.03100
X6.64600 Y-7.03200
X6.64500 Y-7.03200
X6.64500 Y-7.03300
X6.64400 Y-7.03300
X6.64400 Y-7.03400
X6.64300 Y-7.03400
X6.64300 Y-7.03500
X6.64200 Y-7.03500
X6.64200 Y-7.03600
X6.64100 Y-7.03600
X6.64100 Y-7.03700
X6.64000 Y-7.03700
X6.64000 Y-7.03800
X6.63900 Y-7.03800
X6.63900 Y-7.03900
X6.63800 Y-7.03900
X6.63800 Y-7.04000
X6.63700 Y-7.04000
X6.63700 Y-7.04100
X6.63600 Y-7.04100
X6.63600 Y-7.04200
X6.63500 Y-7.04200
X6.63500 Y-7.04300
X6.63400 Y-7.04300
X6.63400 Y-7.04400
X6.63300 Y-7.04400
X6.63300 Y-7.04500
X6.63200 Y-7.04500
X6.63200 Y-7.04600
X6.63100 Y-7.04600
X6.63100 Y-7.04700
X6.63000 Y-7.04700
X6.63000 Y-7.04800
X6.62900 Y-7.04800
X6.62900 Y-7.04900
X6.62800 Y-7.04900
X6.62800 Y-7.05000
X6.62700 Y-7.05000
X6.62700 Y-7.05100
X6.62600 Y-7.05100
X6.62600 Y-7.05200
X6.62500 Y-7.05200
X6.62500 Y-7.05300
X6.62400 Y-7.05300
X6.62400 Y-7.05400
X6.62300 Y-7.05400
X6.62300 Y-7.05500
X6.62200 Y-7.05500
X6.62200 Y-7.05600
X6.62100 Y-7.05600
X6.62100 Y-7.05700
X6.62000 Y-7.05700
X6.62000 Y-7.05800
X6.61900 Y-7.05800
X6.61900 Y-7.05900
X6.61800 Y-7.05900
X6.61800 Y-7.06000
X6.61700 Y-7.06000
X6.61700 Y-7.06100
X6.61600 Y-7.06100
X6.61600 Y-7.06200
X6.61500 Y-7.06200
X6.61500 Y-7.06300
X6.61400 Y-7.06300
X6.61400 Y-7.06400
X6.61300 Y-7.06400
X6.61300 Y-7.06500
X6.61200 Y-7.06500
X6.61200 Y-7.06600
X6.61100 Y-7.06600
X6.61100 Y-7.06700
X6.61000 Y-7.06700
X6.61000 Y-7.06800
X6.60900 Y-7.06800
X6.60900 Y-7.06900
X6.60800 Y-7.06900
X6.60800 Y-7.07000
X6.60700 Y-7.07000
X6.60700 Y-7.07100
X6.60600 Y-7.07100
X6.60600 Y-7.07200
X6.60500 Y-7.07200
X6.60500 Y-7.07300
X6.60400 Y-7.07300
X6.60400 Y-7.07400
X6.60300 Y-7.07400
X6.60300 Y-7.07500
X6.60200 Y-7.07500
X6.60200 Y-7.07600
X6.60100 Y-7.07600
X6.60100 Y-7.07700
X6.60000 Y-7.07700
X6.60000 Y-7.07800
X6.59900 Y-7.07800
X6.59900 Y-7.07900
X6.59800 Y-7.07900
X6.59800 Y-7.08000
X6.59700 Y-7.08000
X6.59700 Y-7.08100
X6.59600 Y-7.08100
X6.59600 Y-7.08200
X6.59500 Y-7.08200
X6.59500 Y-7.08300
X6.59400 Y-7.08300
X6.59400 Y-7.08400
X6.59300 Y-7.08400
X6.59300 Y-7.08500
X6.59200 Y-7.08500
X6.59200 Y-7.08600
X6.59100 Y-7.08600
X6.59100 Y-7.08700
X6.59000 Y-7.08700
X6.59000 Y-7.08800
X6.58900 Y-7.08800
X6.58900 Y-7.08900
X6.58800 Y-7.08900
X6.58800 Y-7.09000
X6.58700 Y-7.09000
X6.58700 Y-7.09100
X6.58600 Y-7.09100
X6.58600 Y-7.09200
X6.58500 Y-7.09200
X6.58500 Y-7.09300
X6.58400 Y-7.09300
X6.58400 Y-7.09400
X6.58300 Y-7.09400
X6.58300 Y-7.09500
X6.58200 Y-7.09500
X6.58200 Y-7.09600
X6.58100 Y-7.09600
X6.58100 Y-7.09700
X6.58000 Y-7.09700
X6.58000 Y-7.09800
X6.57900 Y-7.09800
X6.57900 Y-7.09900
X6.57800 Y-7.09900
X6.57800 Y-7.10000
X6.57700 Y-7.10000
X6.57700 Y-7.10100
X6.57600 Y-7.10100
X6.57600 Y-7.10200
X6.57500 Y-7.10200
X6.57500 Y-7.10300
X6.57400 Y-7.10300
X6.57400 Y-7.10400
X6.57300 Y-7.10400
X6.57300 Y-7.10500
X6.57200 Y-7.10500
X6.57200 Y-7.10600
X6.57100 Y-7.10600
X6.57100 Y-7.10700
X6.57000 Y-7.10700
X6.57000 Y-7.10800
X6.56900 Y-7.10800
X6.56900 Y-7.10900
X6.56800 Y-7.10900
X6.56800 Y-7.11000
X6.56700 Y-7.11000
X6.56700 Y-7.11100
X6.56600 Y-7.11100
X6.56600 Y-7.11200
X6.56500 Y-7.11200
X6.56500 Y-7.11300
X6.56400 Y-7.11300
X6.56400 Y-7.11400
X6.56300 Y-7.11400
X6.56300 Y-7.11500
X6.56200 Y-7.11500
X6.56200 Y-7.11600
X6.56100 Y-7.11600
X6.56100 Y-7.11700
X6.56000 Y-7.11700
X6.56000 Y-7.11800
X6.55900 Y-7.11800
X6.55900 Y-7.11900
X6.55800 Y-7.11900
X6.55800 Y-7.12000
X6.55700 Y-7.12000
X6.55700 Y-7.12100
X6.55600 Y-7.12100
X6.55600 Y-7.12200
X6.55500 Y-7.12200
X6.55500 Y-7.12300
X6.55400 Y-7.12300
X6.55400 Y-7.12400
X6.55300 Y-7.12400
X6.55300 Y-7.12500
X6.55200 Y-7.12500
X6.55200 Y-7.12600
X6.55100 Y-7.12600
X6.55100 Y-7.12700
X6.55000 Y-7.12700
X6.55000 Y-7.12800
X6.54900 Y-7.12800
X6.54900 Y-7.12900
X6.54800 Y-7.12900
X6.54800 Y-7.13000
X6.54700 Y-7.13000
X6.54700 Y-7.13100
X6.54600 Y-7.13100
X6.54600 Y-7.13200
X6.54500 Y-7.13200
X6.54500 Y-7.13300
X6.54400 Y-7.13300
X6.54400 Y-7.13400
X6.54300 Y-7.13400
X6.54300 Y-7.13500
X6.54200 Y-7.13500
X6.54200 Y-7.13600
X6.54100 Y-7.13600
X6.54100 Y-7.13700
X6.54000 Y-7.13700
X6.54000 Y-7.13800
X6.53900 Y-7.13800
X6.53900 Y-7.14000
X6.53800 Y-7.14000
X6.53800 Y-7.29300
X6.53400 Y-7.29300
X6.53400 Y-7.29400
X6.53100 Y-7.29400
X6.53100 Y-7.29500
X6.52900 Y-7.29500
X6.52900 Y-7.29600
X6.52800 Y-7.29600
X6.52800 Y-7.29700
X6.52600 Y-7.29700
X6.52600 Y-7.29800
X6.52400 Y-7.29800
X6.52400 Y-7.29900
X6.52200 Y-7.29900
X6.52200 Y-7.30100
X6.52100 Y-7.30100
X6.52100 Y-7.30200
X6.52000 Y-7.30200
X6.52000 Y-7.30300
X6.51900 Y-7.30300
X6.51900 Y-7.30500
X6.51800 Y-7.30500
X6.51800 Y-7.30600
X6.51700 Y-7.30600
X6.51700 Y-7.30800
X6.51600 Y-7.30800
X6.51600 Y-7.30900
X6.51500 Y-7.30900
X6.51500 Y-7.31400
X6.51400 Y-7.31400
X6.51400 Y-7.31900
X6.51300 Y-7.31900
X6.51300 Y-7.38000
X6.51400 Y-7.38000
X6.51400 Y-7.38500
X6.51500 Y-7.38500
X6.51500 Y-7.39000
X6.51600 Y-7.39000
X6.51600 Y-7.39100
X6.51700 Y-7.39100
X6.51700 Y-7.39300
X6.51800 Y-7.39300
X6.51800 Y-7.39400
X6.51900 Y-7.39400
X6.51900 Y-7.39600
X6.52000 Y-7.39600
X6.52000 Y-7.39700
X6.52100 Y-7.39700
X6.52100 Y-7.39800
X6.52200 Y-7.39800
X6.52200 Y-7.40000
X6.52400 Y-7.40000
X6.52400 Y-7.40100
X6.52600 Y-7.40100
X6.52600 Y-7.40200
X6.52700 Y-7.40200
X6.52700 Y-7.40300
X6.52900 Y-7.40300
X6.52900 Y-7.40400
X6.53100 Y-7.40400
X6.53100 Y-7.40500
X6.53400 Y-7.40500
X6.53400 Y-7.40600
X6.54000 Y-7.40600
X6.54000 Y-7.40700
X6.56100 Y-7.40700
X6.56100 Y-7.40600
X6.56700 Y-7.40600
X6.56700 Y-7.40500
X6.57000 Y-7.40500
X6.57000 Y-7.40400
X6.57200 Y-7.40400
X6.57200 Y-7.40300
X6.57400 Y-7.40300
X6.57400 Y-7.40200
X6.57500 Y-7.40200
X6.57500 Y-7.40100
X6.57700 Y-7.40100
X6.57700 Y-7.40000
X6.57900 Y-7.40000
X6.57900 Y-7.39800
X6.58000 Y-7.39800
X6.58000 Y-7.39700
X6.58100 Y-7.39700
X6.58100 Y-7.39600
X6.58200 Y-7.39600
X6.58200 Y-7.39400
X6.58300 Y-7.39400
X6.58300 Y-7.39300
X6.58400 Y-7.39300
X6.58400 Y-7.39100
X6.58500 Y-7.39100
X6.58500 Y-7.39000
X6.58600 Y-7.39000
X6.58600 Y-7.38500
X6.58700 Y-7.38500
X6.58700 Y-7.38000
X6.58800 Y-7.38000
X6.58800 Y-7.31900
X6.58700 Y-7.31900
X6.58700 Y-7.31400
X6.58600 Y-7.31400
X6.58600 Y-7.30900
X6.58500 Y-7.30900
X6.58500 Y-7.30800
X6.58400 Y-7.30800
X6.58400 Y-7.30600
X6.58300 Y-7.30600
X6.58300 Y-7.30500
X6.58200 Y-7.30500
X6.58200 Y-7.30300
X6.58100 Y-7.30300
X6.58100 Y-7.30200
X6.58000 Y-7.30200
X6.58000 Y-7.30100
X6.57900 Y-7.30100
X6.57900 Y-7.29900
X6.57700 Y-7.29900
X6.57700 Y-7.29800
X6.57500 Y-7.29800
X6.57500 Y-7.29700
X6.57300 Y-7.29700
X6.57300 Y-7.29600
X6.57200 Y-7.29600
X6.57200 Y-7.29500
X6.57000 Y-7.29500
X6.57000 Y-7.29400
X6.56700 Y-7.29400
X6.56700 Y-7.29300
X6.56300 Y-7.29300
X6.56300 Y-7.15900
X6.56400 Y-7.15900
X6.56400 Y-7.15800
X6.56500 Y-7.15800
X6.56500 Y-7.15700
X6.56600 Y-7.15700
X6.56600 Y-7.15600
X6.56700 Y-7.15600
X6.56700 Y-7.15500
X6.56800 Y-7.15500
X6.56800 Y-7.15400
X6.56900 Y-7.15400
X6.56900 Y-7.15300
X6.57000 Y-7.15300
X6.57000 Y-7.15200
X6.57100 Y-7.15200
X6.57100 Y-7.15100
X6.57200 Y-7.15100
X6.57200 Y-7.15000
X6.57300 Y-7.15000
X6.57300 Y-7.14900
X6.57400 Y-7.14900
X6.57400 Y-7.14800
X6.57500 Y-7.14800
X6.57500 Y-7.14700
X6.57600 Y-7.14700
X6.57600 Y-7.14600
X6.57700 Y-7.14600
X6.57700 Y-7.14500
X6.57800 Y-7.14500
X6.57800 Y-7.14400
X6.57900 Y-7.14400
X6.57900 Y-7.14300
X6.58000 Y-7.14300
X6.58000 Y-7.14200
X6.58100 Y-7.14200
X6.58100 Y-7.14100
X6.58200 Y-7.14100
X6.58200 Y-7.14000
X6.58300 Y-7.14000
X6.58300 Y-7.13900
X6.58400 Y-7.13900
X6.58400 Y-7.13800
X6.58500 Y-7.13800
X6.58500 Y-7.13700
X6.58600 Y-7.13700
X6.58600 Y-7.13600
X6.58700 Y-7.13600
X6.58700 Y-7.13500
X6.58800 Y-7.13500
X6.58800 Y-7.13400
X6.58900 Y-7.13400
X6.58900 Y-7.13300
X6.59000 Y-7.13300
X6.59000 Y-7.13200
X6.59100 Y-7.13200
X6.59100 Y-7.13100
X6.59200 Y-7.13100
X6.59200 Y-7.13000
X6.59300 Y-7.13000
X6.59300 Y-7.12900
X6.59400 Y-7.12900
X6.59400 Y-7.12800
X6.59500 Y-7.12800
X6.59500 Y-7.12700
X6.59600 Y-7.12700
X6.59600 Y-7.12600
X6.59700 Y-7.12600
X6.59700 Y-7.12500
X6.59800 Y-7.12500
X6.59800 Y-7.12400
X6.59900 Y-7.12400
X6.59900 Y-7.12300
X6.60000 Y-7.12300
X6.60000 Y-7.12200
X6.60100 Y-7.12200
X6.60100 Y-7.12100
X6.60200 Y-7.12100
X6.60200 Y-7.12000
X6.60300 Y-7.12000
X6.60300 Y-7.11900
X6.60400 Y-7.11900
X6.60400 Y-7.11800
X6.60500 Y-7.11800
X6.60500 Y-7.11700
X6.60600 Y-7.11700
X6.60600 Y-7.11600
X6.60700 Y-7.11600
X6.60700 Y-7.11500
X6.60800 Y-7.11500
X6.60800 Y-7.11400
X6.60900 Y-7.11400
X6.60900 Y-7.11300
X6.61000 Y-7.11300
X6.61000 Y-7.11200
X6.61100 Y-7.11200
X6.61100 Y-7.11100
X6.61200 Y-7.11100
X6.61200 Y-7.11000
X6.61300 Y-7.11000
X6.61300 Y-7.10900
X6.61400 Y-7.10900
X6.61400 Y-7.10800
X6.61500 Y-7.10800
X6.61500 Y-7.10700
X6.61600 Y-7.10700
X6.61600 Y-7.10600
X6.61700 Y-7.10600
X6.61700 Y-7.10500
X6.61800 Y-7.10500
X6.61800 Y-7.10400
X6.61900 Y-7.10400
X6.61900 Y-7.10300
X6.62000 Y-7.10300
X6.62000 Y-7.10200
X6.62100 Y-7.10200
X6.62100 Y-7.10100
X6.62200 Y-7.10100
X6.62200 Y-7.10000
X6.62300 Y-7.10000
X6.62300 Y-7.09900
X6.62400 Y-7.09900
X6.62400 Y-7.09800
X6.62500 Y-7.09800
X6.62500 Y-7.09700
X6.62600 Y-7.09700
X6.62600 Y-7.09600
X6.62700 Y-7.09600
X6.62700 Y-7.09500
X6.62800 Y-7.09500
X6.62800 Y-7.09400
X6.62900 Y-7.09400
X6.62900 Y-7.09300
X6.63000 Y-7.09300
X6.63000 Y-7.09200
X6.63100 Y-7.09200
X6.63100 Y-7.09100
X6.63200 Y-7.09100
X6.63200 Y-7.09000
X6.63300 Y-7.09000
X6.63300 Y-7.08900
X6.63400 Y-7.08900
X6.63400 Y-7.08800
X6.63500 Y-7.08800
X6.63500 Y-7.08700
X6.63600 Y-7.08700
X6.63600 Y-7.08600
X6.63700 Y-7.08600
X6.63700 Y-7.08500
X6.63800 Y-7.08500
X6.63800 Y-7.08400
X6.63900 Y-7.08400
X6.63900 Y-7.08300
X6.64000 Y-7.08300
X6.64000 Y-7.08200
X6.64100 Y-7.08200
X6.64100 Y-7.08100
X6.64200 Y-7.08100
X6.64200 Y-7.08000
X6.64300 Y-7.08000
X6.64300 Y-7.07900
X6.64400 Y-7.07900
X6.64400 Y-7.07800
X6.64500 Y-7.07800
X6.64500 Y-7.07700
X6.64600 Y-7.07700
X6.64600 Y-7.07600
X6.64700 Y-7.07600
X6.64700 Y-7.07500
X6.64800 Y-7.07500
X6.64800 Y-7.07400
X6.64900 Y-7.07400
X6.64900 Y-7.07300
X6.65000 Y-7.07300
X6.65000 Y-7.07200
X6.65100 Y-7.07200
X6.65100 Y-7.07100
X6.65200 Y-7.07100
X6.65200 Y-7.07000
X6.65300 Y-7.07000
X6.65300 Y-7.06900
X6.65400 Y-7.06900
X6.65400 Y-7.06800
X6.65500 Y-7.06800
X6.65500 Y-7.06700
X6.65600 Y-7.06700
X6.65600 Y-7.06600
X6.65700 Y-7.06600
X6.65700 Y-7.06500
X6.65800 Y-7.06500
X6.65800 Y-7.06400
X6.65900 Y-7.06400
X6.65900 Y-7.06300
X6.66000 Y-7.06300
X6.66000 Y-7.06200
X6.66100 Y-7.06200
X6.66100 Y-7.06100
X6.66200 Y-7.06100
X6.66200 Y-7.06000
X6.66300 Y-7.06000
X6.66300 Y-7.05900
X6.66400 Y-7.05900
X6.66400 Y-7.05800
X6.66500 Y-7.05800
X6.66500 Y-7.05700
X6.66600 Y-7.05700
X6.66600 Y-7.05600
X6.66700 Y-7.05600
X6.66700 Y-7.05500
X6.66800 Y-7.05500
X6.66800 Y-7.05400
X6.66900 Y-7.05400
X6.66900 Y-7.05300
X6.67000 Y-7.05300
X6.67000 Y-7.05200
X6.67100 Y-7.05200
X6.67100 Y-7.05100
X6.67200 Y-7.05100
X6.67200 Y-7.05000
X6.67300 Y-7.05000
X6.67300 Y-7.04900
X6.67400 Y-7.04900
X6.67400 Y-7.04800
X6.67500 Y-7.04800
X6.67500 Y-7.04700
X6.67600 Y-7.04700
X6.67600 Y-7.04600
X6.67700 Y-7.04600
X6.67700 Y-7.04500
X6.67800 Y-7.04500
X6.67800 Y-7.04400
X6.67900 Y-7.04400
X6.67900 Y-7.04300
X6.68000 Y-7.04300
X6.68000 Y-7.04200
X6.68100 Y-7.04200
X6.68100 Y-7.04100
X6.68200 Y-7.04100
X6.68200 Y-7.04000
X6.68300 Y-7.04000
X6.68300 Y-7.03900
X6.68400 Y-7.03900
X6.68400 Y-7.03800
X6.68500 Y-7.03800
X6.68500 Y-7.03700
X6.68600 Y-7.03700
X6.68600 Y-7.03600
X6.68700 Y-7.03600
X6.68700 Y-7.03500
X6.68800 Y-7.03500
X6.68800 Y-7.03400
X6.68900 Y-7.03400
X6.68900 Y-7.03300
X6.69000 Y-7.03300
X6.69000 Y-7.03200
X6.69100 Y-7.03200
X6.69100 Y-7.03100
X6.69200 Y-7.03100
X6.69200 Y-7.03000
X6.69300 Y-7.03000
X6.69300 Y-7.02900
X6.69400 Y-7.02900
X6.69400 Y-7.02800
X6.69500 Y-7.02800
X6.69500 Y-7.02700
X6.69600 Y-7.02700
X6.69600 Y-7.02600
X6.69700 Y-7.02600
X6.69700 Y-7.02500
X6.69800 Y-7.02500
X6.69800 Y-7.02400
X6.69900 Y-7.02400
X6.69900 Y-7.02300
X6.70000 Y-7.02300
X6.70000 Y-7.02200
X6.70100 Y-7.02200
X6.70100 Y-7.02100
X6.70200 Y-7.02100
X6.70200 Y-7.02000
X6.70300 Y-7.02000
X6.70300 Y-7.01900
X6.70400 Y-7.01900
X6.70400 Y-7.01800
X6.70500 Y-7.01800
X6.70500 Y-7.01700
X6.70600 Y-7.01700
X6.70600 Y-7.01600
X6.70700 Y-7.01600
X6.70700 Y-7.01500
X6.70800 Y-7.01500
X6.70800 Y-7.01400
X6.70900 Y-7.01400
X6.70900 Y-7.01300
X6.71000 Y-7.01300
X6.71000 Y-7.01200
X6.71100 Y-7.01200
X6.71100 Y-7.01100
X6.71200 Y-7.01100
X6.71200 Y-7.01000
X6.71300 Y-7.01000
X6.71300 Y-7.00900
X6.71400 Y-7.00900
X6.71400 Y-7.00800
X6.71500 Y-7.00800
X6.71500 Y-7.00700
X6.71600 Y-7.00700
X6.71600 Y-7.00600
X6.71700 Y-7.00600
X6.71700 Y-7.00500
X6.71800 Y-7.00500
X6.71800 Y-7.00400
X6.71900 Y-7.00400
X6.71900 Y-7.00300
X6.72000 Y-7.00300
X6.72000 Y-7.00200
X6.72100 Y-7.00200
X6.72100 Y-7.00100
X6.72200 Y-7.00100
X6.72200 Y-7.00000
X6.72300 Y-7.00000
X6.72300 Y-6.99900
X6.72400 Y-6.99900
X6.72400 Y-6.99800
X6.72500 Y-6.99800
X6.72500 Y-6.99700
X6.72600 Y-6.99700
X6.72600 Y-6.99600
X6.72700 Y-6.99600
X6.72700 Y-6.99500
X6.72800 Y-6.99500
X6.72800 Y-6.99400
X6.72900 Y-6.99400
X6.72900 Y-6.99300
X6.73000 Y-6.99300
X6.73000 Y-6.99200
X6.73100 Y-6.99200
X6.73100 Y-6.99100
X6.73200 Y-6.99100
X6.73200 Y-6.99000
X6.73300 Y-6.99000
X6.73300 Y-6.98900
X6.73400 Y-6.98900
X6.73400 Y-6.98800
X6.73500 Y-6.98800
X6.73500 Y-6.98700
X6.73600 Y-6.98700
X6.73600 Y-6.98600
X6.73700 Y-6.98600
X6.73700 Y-6.98500
X6.73800 Y-6.98500
X6.73800 Y-6.98400
X6.73900 Y-6.98400
X6.73900 Y-6.98300
X6.74000 Y-6.98300
X6.74000 Y-6.98200
X6.74100 Y-6.98200
X6.74100 Y-6.98100
X6.74200 Y-6.98100
X6.74200 Y-6.98000
X6.74300 Y-6.98000
X6.74300 Y-6.97900
X6.74400 Y-6.97900
X6.74400 Y-6.97800
X6.74500 Y-6.97800
X6.74500 Y-6.97700
X6.74600 Y-6.97700
X6.74600 Y-6.97600
X6.74700 Y-6.97600
X6.74700 Y-6.97500
X6.74800 Y-6.97500
X6.74800 Y-6.97400
X6.74900 Y-6.97400
X6.74900 Y-6.97300
X6.75000 Y-6.97300
X6.75000 Y-6.97200
X6.75100 Y-6.97200
X6.75100 Y-6.97100
X6.75200 Y-6.97100
X6.75200 Y-6.97000
X6.75300 Y-6.97000
X6.75300 Y-6.96900
X6.75400 Y-6.96900
X6.75400 Y-6.96800
X6.75500 Y-6.96800
X6.75500 Y-6.96700
X6.75600 Y-6.96700
X6.75600 Y-6.96600
X6.75700 Y-6.96600
X6.75700 Y-6.96500
X6.75800 Y-6.96500
X6.75800 Y-6.96400
X6.75900 Y-6.96400
X6.75900 Y-6.96300
X6.76000 Y-6.96300
X6.76000 Y-6.96200
X6.76100 Y-6.96200
X6.76100 Y-6.96100
X6.76200 Y-6.96100
X6.76200 Y-6.96000
X6.76300 Y-6.96000
X6.76300 Y-6.95900
X6.76400 Y-6.95900
X6.76400 Y-6.95800
X6.76500 Y-6.95800
X6.76500 Y-6.95700
X6.76600 Y-6.95700
X6.76600 Y-6.95600
X6.76700 Y-6.95600
X6.76700 Y-6.95500
X6.76800 Y-6.95500
X6.76800 Y-6.95400
X6.76900 Y-6.95400
X6.76900 Y-6.95300
X6.77000 Y-6.95300
X6.77000 Y-6.95200
X6.77100 Y-6.95200
X6.77100 Y-6.95100
X6.77200 Y-6.95100
X6.77200 Y-6.95000
X6.77300 Y-6.95000
X6.77300 Y-6.94900
X6.77400 Y-6.94900
X6.77400 Y-6.94800
X6.77500 Y-6.94800
X6.77500 Y-6.94700
X6.77600 Y-6.94700
X6.77600 Y-6.94600
X6.77700 Y-6.94600
X6.77700 Y-6.94500
X6.77800 Y-6.94500
X6.77800 Y-6.94400
X6.77900 Y-6.94400
X6.77900 Y-6.94300
X6.78000 Y-6.94300
X6.78000 Y-6.94200
X6.78100 Y-6.94200
X6.78100 Y-6.94100
X6.78200 Y-6.94100
X6.78200 Y-6.94000
X6.78300 Y-6.94000
X6.78300 Y-6.93900
X6.78400 Y-6.93900
X6.78400 Y-6.93800
X6.78500 Y-6.93800
X6.78500 Y-6.93700
X6.78600 Y-6.93700
X6.78600 Y-6.93600
X6.78700 Y-6.93600
X6.78700 Y-6.93500
X6.78800 Y-6.93500
X6.78800 Y-6.93400
X6.78900 Y-6.93400
X6.78900 Y-6.93300
X6.79000 Y-6.93300
X6.79000 Y-6.93200
X6.79100 Y-6.93200
X6.79100 Y-6.93100
X6.79200 Y-6.93100
X6.79200 Y-6.93000
X6.79300 Y-6.93000
X6.79300 Y-6.92900
X6.79400 Y-6.92900
X6.79400 Y-6.92800
X6.79500 Y-6.92800
X6.79500 Y-6.92700
X6.79600 Y-6.92700
X6.79600 Y-6.92600
X6.79700 Y-6.92600
X6.79700 Y-6.92500
X6.79800 Y-6.92500
X6.79800 Y-6.92400
X6.79900 Y-6.92400
X6.79900 Y-6.92300
X6.80000 Y-6.92300
X6.80000 Y-6.92200
X6.80100 Y-6.92200
X6.80100 Y-6.92100
X6.80200 Y-6.92100
X6.80200 Y-6.92000
X6.80300 Y-6.92000
X6.80300 Y-6.91900
X6.80400 Y-6.91900
X6.80400 Y-6.91800
X6.80500 Y-6.91800
X6.80500 Y-6.91700
X6.80600 Y-6.91700
X6.80600 Y-6.91600
X6.80700 Y-6.91600
X6.80700 Y-6.91500
X6.80800 Y-6.91500
X6.80800 Y-6.91400
X6.80900 Y-6.91400
X6.80900 Y-6.91300
X6.81000 Y-6.91300
X6.81000 Y-6.91200
X6.81100 Y-6.91200
X6.81100 Y-6.91100
X6.81200 Y-6.91100
X6.81200 Y-6.91000
X6.81300 Y-6.91000
X6.81300 Y-6.90900
X6.81400 Y-6.90900
X6.81400 Y-6.90800
X6.81500 Y-6.90800
X6.81500 Y-6.90700
X6.81600 Y-6.90700
X6.81600 Y-6.90600
X6.81700 Y-6.90600
X6.81700 Y-6.90500
X6.81800 Y-6.90500
X6.81800 Y-6.90400
X6.81900 Y-6.90400
X6.81900 Y-6.90300
X6.82000 Y-6.90300
X6.82000 Y-6.90200
X6.82100 Y-6.90200
X6.82100 Y-6.90100
X6.82200 Y-6.90100
X6.82200 Y-6.90000
X6.82300 Y-6.90000
X6.82300 Y-6.89900
X6.82400 Y-6.89900
X6.82400 Y-6.89800
X6.82500 Y-6.89800
X6.82500 Y-6.89700
X6.82600 Y-6.89700
X6.82600 Y-6.89600
X6.82700 Y-6.89600
X6.82700 Y-6.89500
X6.82800 Y-6.89500
X6.82800 Y-6.89400
X6.82900 Y-6.89400
X6.82900 Y-6.89300
X6.83000 Y-6.89300
X6.83000 Y-6.89200
X6.83100 Y-6.89200
X6.83100 Y-6.89100
X6.83200 Y-6.89100
X6.83200 Y-6.89000
X6.83300 Y-6.89000
X6.83300 Y-6.88900
X6.83400 Y-6.88900
X6.83400 Y-6.88800
X6.83500 Y-6.88800
X6.83500 Y-6.88700
X6.83600 Y-6.88700
X6.83600 Y-6.88600
X6.83700 Y-6.88600
X6.83700 Y-6.88500
X6.83800 Y-6.88500
