;PYCAM-META-DATA: Filename: /home/leonard/gear2.dxf
;PYCAM-META-DATA: Timestamp: 2014-03-10 21:49:39.143047
;PYCAM-META-DATA: Version: 0.5.1
;Estimated machine time: 2 minutes
G40 (disable tool radius compensation)
G49 (disable tool length compensation)
G80 (cancel modal motion)
G54 (select coordinate system 1)
G90 (disable incremental moves)
G21 (metric)
G61 (exact path mode)
F200.00000
S1000.00000
;PYCAM_TOOLPATH_SETTINGS: START
;[Bounds]
;maxz = 0.0
;maxx = 22.4928
;maxy = 21.4944
;minx = -22.4928
;miny = -21.4944
;minz = 0.0
;
;[Tool]
;torus_radius = 0.25
;speed = 1000.0
;shape = CylindricalCutter
;tool_radius = 1.5
;feedrate = 200.0
;
;[SupportGrid]
;height = 0.5
;average_distance = 30.0
;thickness = 0.8
;length = 5.0
;type = distributed_edges
;
;[Process]
;engrave_offset = -1.5
;step_down = 3.01
;generator = EngraveCutter
;postprocessor = SimpleCutter
;milling_style = climb
;material_allowance = 0.0
;pocketing_type = none
;path_direction = x
;
;PYCAM_TOOLPATH_SETTINGS: END
T1 M6
G0 Z25.0000
M3 (start spindle)
G04 P3 (wait for 3 seconds)
G1 Z-2 F50.
G2 X0. Y0.85 I0.85 J0. F100.
X0.85 Y0. I0. J-0.85
X0. Y-0.85 I-0.85 J0.
X-0.85 Y0. I0. J0.85
G1 Z-4 F50.
G2 X0. Y0.85 I0.85 J0. F100.
X0.85 Y0. I0. J-0.85
X0. Y-0.85 I-0.85 J0.
X-0.85 Y0. I0. J0.85
G1 Z-6 F50.
G2 X0. Y0.85 I0.85 J0. F100.
X0.85 Y0. I0. J-0.85
X0. Y-0.85 I-0.85 J0.
X-0.85 Y0. I0. J0.85
G1 Z-8 F50.
G2 X0. Y0.85 I0.85 J0. F100.
X0.85 Y0. I0. J-0.85
X0. Y-0.85 I-0.85 J0.
X-0.85 Y0. I0. J0.85
G1 Z-10 F50.
G2 X0. Y0.85 I0.85 J0. F100.
X0.85 Y0. I0. J-0.85
X0. Y-0.85 I-0.85 J0.
X-0.85 Y0. I0. J0.85
G1 Z-11 F50.
G2 X0. Y0.85 I0.85 J0. F100.
X0.85 Y0. I0. J-0.85
X0. Y-0.85 I-0.85 J0.
X-0.85 Y0. I0. J0.85
G0 X0. Y0.
G0 Z25.0000
 X-18.9607 Y-3.0889
G1 Z-2.0000
 X-17.1430 Y-3.9630
 X-15.6790 Y-4.3628
 X-14.6783 Y-4.4489
 X-14.2151 Y-4.4136
 X-13.8084 Y-4.3311
 X-13.7169 Y-4.6128
 X-14.0939 Y-4.7848
 X-14.4901 Y-5.0285
 X-15.2491 Y-5.6865
 X-16.1987 Y-6.8702
 X-17.1551 Y-8.6463
 X-18.1151 Y-11.6370
 X-16.6623 Y-13.6323
 X-13.5242 Y-13.6435
 X-11.5404 Y-13.2824
 X-10.1198 Y-12.7458
 X-9.2605 Y-12.2267
 X-8.9061 Y-11.9262
 X-8.6261 Y-11.6209
 X-8.3863 Y-11.7951
 X-8.5898 Y-12.1552
 X-8.7662 Y-12.5842
 X-8.9948 Y-13.5632
 X-9.0668 Y-15.0793
 X-8.7970 Y-17.0788
 X-7.8150 Y-20.0598
 X-5.4695 Y-20.8242
 X-2.9215 Y-18.9868
 X-1.5293 Y-17.5287
 X-0.6952 Y-16.2603
 X-0.3049 Y-15.3343
 X-0.1954 Y-14.8834
 X-0.1481 Y-14.4715
 X0.1482
 X0.1954 Y-14.8834
 X0.3049 Y-15.3343
 X0.6952 Y-16.2603
 X1.5293 Y-17.5287
 X2.9215 Y-18.9868
 X5.4695 Y-20.8242
 X7.8150 Y-20.0598
 X8.7970 Y-17.0788
 X9.0668 Y-15.0793
 X8.9948 Y-13.5632
 X8.7662 Y-12.5842
 X8.5898 Y-12.1552
 X8.3863 Y-11.7951
 X8.6261 Y-11.6209
 X8.9061 Y-11.9262
 X9.2605 Y-12.2267
 X10.1198 Y-12.7458
 X11.5404 Y-13.2824
 X13.5242 Y-13.6435
 X16.6623 Y-13.6323
 X18.1151 Y-11.6370
 X17.1551 Y-8.6463
 X16.1987 Y-6.8702
 X15.2491 Y-5.6865
 X14.4901 Y-5.0285
 X14.0941 Y-4.7849
 X13.7178 Y-4.6131
 X13.8093 Y-4.3312
 X14.2150 Y-4.4136
 X14.6783 Y-4.4489
 X15.6790 Y-4.3628
 X17.1430 Y-3.9630
 X18.9607 Y-3.0889
 X21.4940 Y-1.2337
 Y1.2337
 X18.9607 Y3.0889
 X17.1430 Y3.9630
 X15.6790 Y4.3628
 X14.6783 Y4.4489
 X14.2151 Y4.4136
 X13.8084 Y4.3311
 X13.7169 Y4.6128
 X14.0939 Y4.7848
 X14.4901 Y5.0285
 X15.2491 Y5.6865
 X16.1987 Y6.8702
 X17.1551 Y8.6463
 X18.1151 Y11.6370
 X16.6623 Y13.6323
 X13.5242 Y13.6435
 X11.5404 Y13.2824
 X10.1198 Y12.7458
 X9.2605 Y12.2267
 X8.9061 Y11.9262
 X8.6261 Y11.6209
 X8.3863 Y11.7951
 X8.5898 Y12.1552
 X8.7662 Y12.5842
 X8.9948 Y13.5632
 X9.0668 Y15.0793
 X8.7970 Y17.0788
 X7.8150 Y20.0598
 X5.4695 Y20.8242
 X2.9215 Y18.9868
 X1.5293 Y17.5287
 X0.6952 Y16.2603
 X0.3049 Y15.3343
 X0.1954 Y14.8834
 X0.1481 Y14.4715
 X-0.1482
 X-0.1954 Y14.8834
 X-0.3049 Y15.3343
 X-0.6952 Y16.2603
 X-1.5293 Y17.5287
 X-2.9215 Y18.9868
 X-5.4695 Y20.8242
 X-7.8150 Y20.0598
 X-8.7970 Y17.0788
 X-9.0668 Y15.0793
 X-8.9948 Y13.5632
 X-8.7662 Y12.5842
 X-8.5898 Y12.1552
 X-8.3863 Y11.7951
 X-8.6261 Y11.6209
 X-8.9061 Y11.9262
 X-9.2605 Y12.2267
 X-10.1198 Y12.7458
 X-11.5404 Y13.2824
 X-13.5242 Y13.6435
 X-16.6623 Y13.6323
 X-18.1151 Y11.6370
 X-17.1551 Y8.6463
 X-16.1987 Y6.8702
 X-15.2491 Y5.6865
 X-14.4901 Y5.0285
 X-14.0941 Y4.7849
 X-13.7178 Y4.6131
 X-13.8093 Y4.3312
 X-14.2150 Y4.4136
 X-14.6783 Y4.4489
 X-15.6790 Y4.3628
 X-17.1430 Y3.9630
 X-18.9607 Y3.0889
 X-21.4940 Y1.2337
 Y-1.2337
 X-18.9607 Y-3.0889
G1 Z-4.0000
 X-17.1430 Y-3.9630
 X-15.6790 Y-4.3628
 X-14.6783 Y-4.4489
 X-14.2151 Y-4.4136
 X-13.8084 Y-4.3311
 X-13.7169 Y-4.6128
 X-14.0939 Y-4.7848
 X-14.4901 Y-5.0285
 X-15.2491 Y-5.6865
 X-16.1987 Y-6.8702
 X-17.1551 Y-8.6463
 X-18.1151 Y-11.6370
 X-16.6623 Y-13.6323
 X-13.5242 Y-13.6435
 X-11.5404 Y-13.2824
 X-10.1198 Y-12.7458
 X-9.2605 Y-12.2267
 X-8.9061 Y-11.9262
 X-8.6261 Y-11.6209
 X-8.3863 Y-11.7951
 X-8.5898 Y-12.1552
 X-8.7662 Y-12.5842
 X-8.9948 Y-13.5632
 X-9.0668 Y-15.0793
 X-8.7970 Y-17.0788
 X-7.8150 Y-20.0598
 X-5.4695 Y-20.8242
 X-2.9215 Y-18.9868
 X-1.5293 Y-17.5287
 X-0.6952 Y-16.2603
 X-0.3049 Y-15.3343
 X-0.1954 Y-14.8834
 X-0.1481 Y-14.4715
 X0.1482
 X0.1954 Y-14.8834
 X0.3049 Y-15.3343
 X0.6952 Y-16.2603
 X1.5293 Y-17.5287
 X2.9215 Y-18.9868
 X5.4695 Y-20.8242
 X7.8150 Y-20.0598
 X8.7970 Y-17.0788
 X9.0668 Y-15.0793
 X8.9948 Y-13.5632
 X8.7662 Y-12.5842
 X8.5898 Y-12.1552
 X8.3863 Y-11.7951
 X8.6261 Y-11.6209
 X8.9061 Y-11.9262
 X9.2605 Y-12.2267
 X10.1198 Y-12.7458
 X11.5404 Y-13.2824
 X13.5242 Y-13.6435
 X16.6623 Y-13.6323
 X18.1151 Y-11.6370
 X17.1551 Y-8.6463
 X16.1987 Y-6.8702
 X15.2491 Y-5.6865
 X14.4901 Y-5.0285
 X14.0941 Y-4.7849
 X13.7178 Y-4.6131
 X13.8093 Y-4.3312
 X14.2150 Y-4.4136
 X14.6783 Y-4.4489
 X15.6790 Y-4.3628
 X17.1430 Y-3.9630
 X18.9607 Y-3.0889
 X21.4940 Y-1.2337
 Y1.2337
 X18.9607 Y3.0889
 X17.1430 Y3.9630
 X15.6790 Y4.3628
 X14.6783 Y4.4489
 X14.2151 Y4.4136
 X13.8084 Y4.3311
 X13.7169 Y4.6128
 X14.0939 Y4.7848
 X14.4901 Y5.0285
 X15.2491 Y5.6865
 X16.1987 Y6.8702
 X17.1551 Y8.6463
 X18.1151 Y11.6370
 X16.6623 Y13.6323
 X13.5242 Y13.6435
 X11.5404 Y13.2824
 X10.1198 Y12.7458
 X9.2605 Y12.2267
 X8.9061 Y11.9262
 X8.6261 Y11.6209
 X8.3863 Y11.7951
 X8.5898 Y12.1552
 X8.7662 Y12.5842
 X8.9948 Y13.5632
 X9.0668 Y15.0793
 X8.7970 Y17.0788
 X7.8150 Y20.0598
 X5.4695 Y20.8242
 X2.9215 Y18.9868
 X1.5293 Y17.5287
 X0.6952 Y16.2603
 X0.3049 Y15.3343
 X0.1954 Y14.8834
 X0.1481 Y14.4715
 X-0.1482
 X-0.1954 Y14.8834
 X-0.3049 Y15.3343
 X-0.6952 Y16.2603
 X-1.5293 Y17.5287
 X-2.9215 Y18.9868
 X-5.4695 Y20.8242
 X-7.8150 Y20.0598
 X-8.7970 Y17.0788
 X-9.0668 Y15.0793
 X-8.9948 Y13.5632
 X-8.7662 Y12.5842
 X-8.5898 Y12.1552
 X-8.3863 Y11.7951
 X-8.6261 Y11.6209
 X-8.9061 Y11.9262
 X-9.2605 Y12.2267
 X-10.1198 Y12.7458
 X-11.5404 Y13.2824
 X-13.5242 Y13.6435
 X-16.6623 Y13.6323
 X-18.1151 Y11.6370
 X-17.1551 Y8.6463
 X-16.1987 Y6.8702
 X-15.2491 Y5.6865
 X-14.4901 Y5.0285
 X-14.0941 Y4.7849
 X-13.7178 Y4.6131
 X-13.8093 Y4.3312
 X-14.2150 Y4.4136
 X-14.6783 Y4.4489
 X-15.6790 Y4.3628
 X-17.1430 Y3.9630
 X-18.9607 Y3.0889
 X-21.4940 Y1.2337
 Y-1.2337
 X-18.9607 Y-3.0889
G1 Z-6.0000
 X-17.1430 Y-3.9630
 X-15.6790 Y-4.3628
 X-14.6783 Y-4.4489
 X-14.2151 Y-4.4136
 X-13.8084 Y-4.3311
 X-13.7169 Y-4.6128
 X-14.0939 Y-4.7848
 X-14.4901 Y-5.0285
 X-15.2491 Y-5.6865
 X-16.1987 Y-6.8702
 X-17.1551 Y-8.6463
 X-18.1151 Y-11.6370
 X-16.6623 Y-13.6323
 X-13.5242 Y-13.6435
 X-11.5404 Y-13.2824
 X-10.1198 Y-12.7458
 X-9.2605 Y-12.2267
 X-8.9061 Y-11.9262
 X-8.6261 Y-11.6209
 X-8.3863 Y-11.7951
 X-8.5898 Y-12.1552
 X-8.7662 Y-12.5842
 X-8.9948 Y-13.5632
 X-9.0668 Y-15.0793
 X-8.7970 Y-17.0788
 X-7.8150 Y-20.0598
 X-5.4695 Y-20.8242
 X-2.9215 Y-18.9868
 X-1.5293 Y-17.5287
 X-0.6952 Y-16.2603
 X-0.3049 Y-15.3343
 X-0.1954 Y-14.8834
 X-0.1481 Y-14.4715
 X0.1482
 X0.1954 Y-14.8834
 X0.3049 Y-15.3343
 X0.6952 Y-16.2603
 X1.5293 Y-17.5287
 X2.9215 Y-18.9868
 X5.4695 Y-20.8242
 X7.8150 Y-20.0598
 X8.7970 Y-17.0788
 X9.0668 Y-15.0793
 X8.9948 Y-13.5632
 X8.7662 Y-12.5842
 X8.5898 Y-12.1552
 X8.3863 Y-11.7951
 X8.6261 Y-11.6209
 X8.9061 Y-11.9262
 X9.2605 Y-12.2267
 X10.1198 Y-12.7458
 X11.5404 Y-13.2824
 X13.5242 Y-13.6435
 X16.6623 Y-13.6323
 X18.1151 Y-11.6370
 X17.1551 Y-8.6463
 X16.1987 Y-6.8702
 X15.2491 Y-5.6865
 X14.4901 Y-5.0285
 X14.0941 Y-4.7849
 X13.7178 Y-4.6131
 X13.8093 Y-4.3312
 X14.2150 Y-4.4136
 X14.6783 Y-4.4489
 X15.6790 Y-4.3628
 X17.1430 Y-3.9630
 X18.9607 Y-3.0889
 X21.4940 Y-1.2337
 Y1.2337
 X18.9607 Y3.0889
 X17.1430 Y3.9630
 X15.6790 Y4.3628
 X14.6783 Y4.4489
 X14.2151 Y4.4136
 X13.8084 Y4.3311
 X13.7169 Y4.6128
 X14.0939 Y4.7848
 X14.4901 Y5.0285
 X15.2491 Y5.6865
 X16.1987 Y6.8702
 X17.1551 Y8.6463
 X18.1151 Y11.6370
 X16.6623 Y13.6323
 X13.5242 Y13.6435
 X11.5404 Y13.2824
 X10.1198 Y12.7458
 X9.2605 Y12.2267
 X8.9061 Y11.9262
 X8.6261 Y11.6209
 X8.3863 Y11.7951
 X8.5898 Y12.1552
 X8.7662 Y12.5842
 X8.9948 Y13.5632
 X9.0668 Y15.0793
 X8.7970 Y17.0788
 X7.8150 Y20.0598
 X5.4695 Y20.8242
 X2.9215 Y18.9868
 X1.5293 Y17.5287
 X0.6952 Y16.2603
 X0.3049 Y15.3343
 X0.1954 Y14.8834
 X0.1481 Y14.4715
 X-0.1482
 X-0.1954 Y14.8834
 X-0.3049 Y15.3343
 X-0.6952 Y16.2603
 X-1.5293 Y17.5287
 X-2.9215 Y18.9868
 X-5.4695 Y20.8242
 X-7.8150 Y20.0598
 X-8.7970 Y17.0788
 X-9.0668 Y15.0793
 X-8.9948 Y13.5632
 X-8.7662 Y12.5842
 X-8.5898 Y12.1552
 X-8.3863 Y11.7951
 X-8.6261 Y11.6209
 X-8.9061 Y11.9262
 X-9.2605 Y12.2267
 X-10.1198 Y12.7458
 X-11.5404 Y13.2824
 X-13.5242 Y13.6435
 X-16.6623 Y13.6323
 X-18.1151 Y11.6370
 X-17.1551 Y8.6463
 X-16.1987 Y6.8702
 X-15.2491 Y5.6865
 X-14.4901 Y5.0285
 X-14.0941 Y4.7849
 X-13.7178 Y4.6131
 X-13.8093 Y4.3312
 X-14.2150 Y4.4136
 X-14.6783 Y4.4489
 X-15.6790 Y4.3628
 X-17.1430 Y3.9630
 X-18.9607 Y3.0889
 X-21.4940 Y1.2337
 Y-1.2337
 X-18.9607 Y-3.0889
G1 Z-8.0000
 X-17.1430 Y-3.9630
 X-15.6790 Y-4.3628
 X-14.6783 Y-4.4489
 X-14.2151 Y-4.4136
 X-13.8084 Y-4.3311
 X-13.7169 Y-4.6128
 X-14.0939 Y-4.7848
 X-14.4901 Y-5.0285
 X-15.2491 Y-5.6865
 X-16.1987 Y-6.8702
 X-17.1551 Y-8.6463
 X-18.1151 Y-11.6370
 X-16.6623 Y-13.6323
 X-13.5242 Y-13.6435
 X-11.5404 Y-13.2824
 X-10.1198 Y-12.7458
 X-9.2605 Y-12.2267
 X-8.9061 Y-11.9262
 X-8.6261 Y-11.6209
 X-8.3863 Y-11.7951
 X-8.5898 Y-12.1552
 X-8.7662 Y-12.5842
 X-8.9948 Y-13.5632
 X-9.0668 Y-15.0793
 X-8.7970 Y-17.0788
 X-7.8150 Y-20.0598
 X-5.4695 Y-20.8242
 X-2.9215 Y-18.9868
 X-1.5293 Y-17.5287
 X-0.6952 Y-16.2603
 X-0.3049 Y-15.3343
 X-0.1954 Y-14.8834
 X-0.1481 Y-14.4715
 X0.1482
 X0.1954 Y-14.8834
 X0.3049 Y-15.3343
 X0.6952 Y-16.2603
 X1.5293 Y-17.5287
 X2.9215 Y-18.9868
 X5.4695 Y-20.8242
 X7.8150 Y-20.0598
 X8.7970 Y-17.0788
 X9.0668 Y-15.0793
 X8.9948 Y-13.5632
 X8.7662 Y-12.5842
 X8.5898 Y-12.1552
 X8.3863 Y-11.7951
 X8.6261 Y-11.6209
 X8.9061 Y-11.9262
 X9.2605 Y-12.2267
 X10.1198 Y-12.7458
 X11.5404 Y-13.2824
 X13.5242 Y-13.6435
 X16.6623 Y-13.6323
 X18.1151 Y-11.6370
 X17.1551 Y-8.6463
 X16.1987 Y-6.8702
 X15.2491 Y-5.6865
 X14.4901 Y-5.0285
 X14.0941 Y-4.7849
 X13.7178 Y-4.6131
 X13.8093 Y-4.3312
 X14.2150 Y-4.4136
 X14.6783 Y-4.4489
 X15.6790 Y-4.3628
 X17.1430 Y-3.9630
 X18.9607 Y-3.0889
 X21.4940 Y-1.2337
 Y1.2337
 X18.9607 Y3.0889
 X17.1430 Y3.9630
 X15.6790 Y4.3628
 X14.6783 Y4.4489
 X14.2151 Y4.4136
 X13.8084 Y4.3311
 X13.7169 Y4.6128
 X14.0939 Y4.7848
 X14.4901 Y5.0285
 X15.2491 Y5.6865
 X16.1987 Y6.8702
 X17.1551 Y8.6463
 X18.1151 Y11.6370
 X16.6623 Y13.6323
 X13.5242 Y13.6435
 X11.5404 Y13.2824
 X10.1198 Y12.7458
 X9.2605 Y12.2267
 X8.9061 Y11.9262
 X8.6261 Y11.6209
 X8.3863 Y11.7951
 X8.5898 Y12.1552
 X8.7662 Y12.5842
 X8.9948 Y13.5632
 X9.0668 Y15.0793
 X8.7970 Y17.0788
 X7.8150 Y20.0598
 X5.4695 Y20.8242
 X2.9215 Y18.9868
 X1.5293 Y17.5287
 X0.6952 Y16.2603
 X0.3049 Y15.3343
 X0.1954 Y14.8834
 X0.1481 Y14.4715
 X-0.1482
 X-0.1954 Y14.8834
 X-0.3049 Y15.3343
 X-0.6952 Y16.2603
 X-1.5293 Y17.5287
 X-2.9215 Y18.9868
 X-5.4695 Y20.8242
 X-7.8150 Y20.0598
 X-8.7970 Y17.0788
 X-9.0668 Y15.0793
 X-8.9948 Y13.5632
 X-8.7662 Y12.5842
 X-8.5898 Y12.1552
 X-8.3863 Y11.7951
 X-8.6261 Y11.6209
 X-8.9061 Y11.9262
 X-9.2605 Y12.2267
 X-10.1198 Y12.7458
 X-11.5404 Y13.2824
 X-13.5242 Y13.6435
 X-16.6623 Y13.6323
 X-18.1151 Y11.6370
 X-17.1551 Y8.6463
 X-16.1987 Y6.8702
 X-15.2491 Y5.6865
 X-14.4901 Y5.0285
 X-14.0941 Y4.7849
 X-13.7178 Y4.6131
 X-13.8093 Y4.3312
 X-14.2150 Y4.4136
 X-14.6783 Y4.4489
 X-15.6790 Y4.3628
 X-17.1430 Y3.9630
 X-18.9607 Y3.0889
 X-21.4940 Y1.2337
 Y-1.2337
 X-18.9607 Y-3.0889
G1 Z-10.0000
 X-17.1430 Y-3.9630
 X-15.6790 Y-4.3628
 X-14.6783 Y-4.4489
 X-14.2151 Y-4.4136
 X-13.8084 Y-4.3311
 X-13.7169 Y-4.6128
 X-14.0939 Y-4.7848
 X-14.4901 Y-5.0285
 X-15.2491 Y-5.6865
 X-16.1987 Y-6.8702
 X-17.1551 Y-8.6463
 X-18.1151 Y-11.6370
 X-16.6623 Y-13.6323
 X-13.5242 Y-13.6435
 X-11.5404 Y-13.2824
 X-10.1198 Y-12.7458
 X-9.2605 Y-12.2267
 X-8.9061 Y-11.9262
 X-8.6261 Y-11.6209
 X-8.3863 Y-11.7951
 X-8.5898 Y-12.1552
 X-8.7662 Y-12.5842
 X-8.9948 Y-13.5632
 X-9.0668 Y-15.0793
 X-8.7970 Y-17.0788
 X-7.8150 Y-20.0598
 X-5.4695 Y-20.8242
 X-2.9215 Y-18.9868
 X-1.5293 Y-17.5287
 X-0.6952 Y-16.2603
 X-0.3049 Y-15.3343
 X-0.1954 Y-14.8834
 X-0.1481 Y-14.4715
 X0.1482
 X0.1954 Y-14.8834
 X0.3049 Y-15.3343
 X0.6952 Y-16.2603
 X1.5293 Y-17.5287
 X2.9215 Y-18.9868
 X5.4695 Y-20.8242
 X7.8150 Y-20.0598
 X8.7970 Y-17.0788
 X9.0668 Y-15.0793
 X8.9948 Y-13.5632
 X8.7662 Y-12.5842
 X8.5898 Y-12.1552
 X8.3863 Y-11.7951
 X8.6261 Y-11.6209
 X8.9061 Y-11.9262
 X9.2605 Y-12.2267
 X10.1198 Y-12.7458
 X11.5404 Y-13.2824
 X13.5242 Y-13.6435
 X16.6623 Y-13.6323
 X18.1151 Y-11.6370
 X17.1551 Y-8.6463
 X16.1987 Y-6.8702
 X15.2491 Y-5.6865
 X14.4901 Y-5.0285
 X14.0941 Y-4.7849
 X13.7178 Y-4.6131
 X13.8093 Y-4.3312
 X14.2150 Y-4.4136
 X14.6783 Y-4.4489
 X15.6790 Y-4.3628
 X17.1430 Y-3.9630
 X18.9607 Y-3.0889
 X21.4940 Y-1.2337
 Y1.2337
 X18.9607 Y3.0889
 X17.1430 Y3.9630
 X15.6790 Y4.3628
 X14.6783 Y4.4489
 X14.2151 Y4.4136
 X13.8084 Y4.3311
 X13.7169 Y4.6128
 X14.0939 Y4.7848
 X14.4901 Y5.0285
 X15.2491 Y5.6865
 X16.1987 Y6.8702
 X17.1551 Y8.6463
 X18.1151 Y11.6370
 X16.6623 Y13.6323
 X13.5242 Y13.6435
 X11.5404 Y13.2824
 X10.1198 Y12.7458
 X9.2605 Y12.2267
 X8.9061 Y11.9262
 X8.6261 Y11.6209
 X8.3863 Y11.7951
 X8.5898 Y12.1552
 X8.7662 Y12.5842
 X8.9948 Y13.5632
 X9.0668 Y15.0793
 X8.7970 Y17.0788
 X7.8150 Y20.0598
 X5.4695 Y20.8242
 X2.9215 Y18.9868
 X1.5293 Y17.5287
 X0.6952 Y16.2603
 X0.3049 Y15.3343
 X0.1954 Y14.8834
 X0.1481 Y14.4715
 X-0.1482
 X-0.1954 Y14.8834
 X-0.3049 Y15.3343
 X-0.6952 Y16.2603
 X-1.5293 Y17.5287
 X-2.9215 Y18.9868
 X-5.4695 Y20.8242
 X-7.8150 Y20.0598
 X-8.7970 Y17.0788
 X-9.0668 Y15.0793
 X-8.9948 Y13.5632
 X-8.7662 Y12.5842
 X-8.5898 Y12.1552
 X-8.3863 Y11.7951
 X-8.6261 Y11.6209
 X-8.9061 Y11.9262
 X-9.2605 Y12.2267
 X-10.1198 Y12.7458
 X-11.5404 Y13.2824
 X-13.5242 Y13.6435
 X-16.6623 Y13.6323
 X-18.1151 Y11.6370
 X-17.1551 Y8.6463
 X-16.1987 Y6.8702
 X-15.2491 Y5.6865
 X-14.4901 Y5.0285
 X-14.0941 Y4.7849
 X-13.7178 Y4.6131
 X-13.8093 Y4.3312
 X-14.2150 Y4.4136
 X-14.6783 Y4.4489
 X-15.6790 Y4.3628
 X-17.1430 Y3.9630
 X-18.9607 Y3.0889
 X-21.4940 Y1.2337
 Y-1.2337
 X-18.9607 Y-3.0889
G1 Z-11.0000
 X-17.1430 Y-3.9630
 X-15.6790 Y-4.3628
 X-14.6783 Y-4.4489
 X-14.2151 Y-4.4136
 X-13.8084 Y-4.3311
 X-13.7169 Y-4.6128
 X-14.0939 Y-4.7848
 X-14.4901 Y-5.0285
 X-15.2491 Y-5.6865
 X-16.1987 Y-6.8702
 X-17.1551 Y-8.6463
 X-18.1151 Y-11.6370
 X-16.6623 Y-13.6323
 X-13.5242 Y-13.6435
 X-11.5404 Y-13.2824
 X-10.1198 Y-12.7458
 X-9.2605 Y-12.2267
 X-8.9061 Y-11.9262
 X-8.6261 Y-11.6209
 X-8.3863 Y-11.7951
 X-8.5898 Y-12.1552
 X-8.7662 Y-12.5842
 X-8.9948 Y-13.5632
 X-9.0668 Y-15.0793
 X-8.7970 Y-17.0788
 X-7.8150 Y-20.0598
 X-5.4695 Y-20.8242
 X-2.9215 Y-18.9868
 X-1.5293 Y-17.5287
 X-0.6952 Y-16.2603
 X-0.3049 Y-15.3343
 X-0.1954 Y-14.8834
 X-0.1481 Y-14.4715
 X0.1482
 X0.1954 Y-14.8834
 X0.3049 Y-15.3343
 X0.6952 Y-16.2603
 X1.5293 Y-17.5287
 X2.9215 Y-18.9868
 X5.4695 Y-20.8242
 X7.8150 Y-20.0598
 X8.7970 Y-17.0788
 X9.0668 Y-15.0793
 X8.9948 Y-13.5632
 X8.7662 Y-12.5842
 X8.5898 Y-12.1552
 X8.3863 Y-11.7951
 X8.6261 Y-11.6209
 X8.9061 Y-11.9262
 X9.2605 Y-12.2267
 X10.1198 Y-12.7458
 X11.5404 Y-13.2824
 X13.5242 Y-13.6435
 X16.6623 Y-13.6323
 X18.1151 Y-11.6370
 X17.1551 Y-8.6463
 X16.1987 Y-6.8702
 X15.2491 Y-5.6865
 X14.4901 Y-5.0285
 X14.0941 Y-4.7849
 X13.7178 Y-4.6131
 X13.8093 Y-4.3312
 X14.2150 Y-4.4136
 X14.6783 Y-4.4489
 X15.6790 Y-4.3628
 X17.1430 Y-3.9630
 X18.9607 Y-3.0889
 X21.4940 Y-1.2337
 Y1.2337
 X18.9607 Y3.0889
 X17.1430 Y3.9630
 X15.6790 Y4.3628
 X14.6783 Y4.4489
 X14.2151 Y4.4136
 X13.8084 Y4.3311
 X13.7169 Y4.6128
 X14.0939 Y4.7848
 X14.4901 Y5.0285
 X15.2491 Y5.6865
 X16.1987 Y6.8702
 X17.1551 Y8.6463
 X18.1151 Y11.6370
 X16.6623 Y13.6323
 X13.5242 Y13.6435
 X11.5404 Y13.2824
 X10.1198 Y12.7458
 X9.2605 Y12.2267
 X8.9061 Y11.9262
 X8.6261 Y11.6209
 X8.3863 Y11.7951
 X8.5898 Y12.1552
 X8.7662 Y12.5842
 X8.9948 Y13.5632
 X9.0668 Y15.0793
 X8.7970 Y17.0788
 X7.8150 Y20.0598
 X5.4695 Y20.8242
 X2.9215 Y18.9868
 X1.5293 Y17.5287
 X0.6952 Y16.2603
 X0.3049 Y15.3343
 X0.1954 Y14.8834
 X0.1481 Y14.4715
 X-0.1482
 X-0.1954 Y14.8834
 X-0.3049 Y15.3343
 X-0.6952 Y16.2603
 X-1.5293 Y17.5287
 X-2.9215 Y18.9868
 X-5.4695 Y20.8242
 X-7.8150 Y20.0598
 X-8.7970 Y17.0788
 X-9.0668 Y15.0793
 X-8.9948 Y13.5632
 X-8.7662 Y12.5842
 X-8.5898 Y12.1552
 X-8.3863 Y11.7951
 X-8.6261 Y11.6209
 X-8.9061 Y11.9262
 X-9.2605 Y12.2267
 X-10.1198 Y12.7458
 X-11.5404 Y13.2824
 X-13.5242 Y13.6435
 X-16.6623 Y13.6323
 X-18.1151 Y11.6370
 X-17.1551 Y8.6463
 X-16.1987 Y6.8702
 X-15.2491 Y5.6865
 X-14.4901 Y5.0285
 X-14.0941 Y4.7849
 X-13.7178 Y4.6131
 X-13.8093 Y4.3312
 X-14.2150 Y4.4136
 X-14.6783 Y4.4489
 X-15.6790 Y4.3628
 X-17.1430 Y3.9630
 X-18.9607 Y3.0889
 X-21.4940 Y1.2337
 Y-1.2337
 X-18.9607 Y-3.0889

G0 Z25.0000
M5 (stop spindle)
G04 P3 (wait for 3 seconds)
G0 Z25.0000
M2 (end program)
